(G-Code file generated by CNCWeld)
$H(Home before doing anything)
G17G21G90G94G54
G0X0Y0F3000
G0Z0
G0Z0 
G0 X51.20 Y94.20 
G0Z-92.00
M3 (Switch on the torch)
G04 P1 (Wait 1 second for Arc to start)
G1 F300 X48.20 Y101.20
G1 F300 X42.90 Y106.60
G1 F300 X35.90 Y110.20
G1 F300 X27.60 Y111.50
G1 F300 X16.10 Y109.30
G1 F300 X7.40 Y103.10
G1 F300 X1.90 Y93.30
G1 F300 X0.00 Y80.20
G1 F300 X1.90 Y67.10
G1 F300 X7.40 Y57.30
G1 F300 X16.10 Y51.10
G1 F300 X27.60 Y48.90
G1 F300 X35.90 Y50.20
G1 F300 X42.90 Y53.80
G1 F300 X48.20 Y59.20
G1 F300 X51.20 Y66.20
M5 (Switch off the torch)
G0Z-63.00 
G0 X81.20 Y50.00 
G0Z-92.00
M3 (Switch on the torch)
G1 F300 X81.20 Y110.40
G1 F300 X128.20 Y50.00
G1 F300 X128.20 Y110.40
M5 (Switch off the torch)
G0Z-63.00 
G0 X200.30 Y110.40 
G0Z-92.00
M3 (Switch on the torch)
G1 F300 X158.20 Y110.40
G1 F300 X158.20 Y50.00
G1 F300 X200.30 Y50.00
M5 (Switch off the torch)
G0Z-63.00 
G0 X158.20 Y80.20 
G0Z-92.00
M3 (Switch on the torch)
G1 F300 X195.70 Y80.20
M5 (Switch off the torch)
G0Z-63.00 
G0 X230.30 Y50.00 
G0Z-92.00
M3 (Switch on the torch)
G1 F300 X230.30 Y110.40
G1 F300 X230.30 Y110.40
G1 F300 X252.20 Y110.40
G1 F300 X259.10 Y108.60
G1 F300 X264.60 Y105.10
G1 F300 X266.40 Y102.80
G1 F300 X268.70 Y95.50
G1 F300 X267.80 Y91.20
G1 F300 X265.90 Y86.90
G1 F300 X261.90 Y83.30
G1 F300 X248.30 Y80.20
M5 (Switch off the torch)
G0Z-63.00 
G0 X230.30 Y80.20 
G0Z-92.00
M3 (Switch on the torch)
G1 F300 X248.30 Y80.20
G1 F300 X257.30 Y77.00
G1 F300 X264.30 Y66.00
G1 F300 X268.70 Y50.00
M5 (Switch off the torch)
G0Z-63.00 
G0 X349.90 Y94.20 
G0Z-92.00
M3 (Switch on the torch)
G1 F300 X346.90 Y101.20
G1 F300 X341.60 Y106.60
G1 F300 X334.60 Y110.20
G1 F300 X326.30 Y111.50
G1 F300 X314.80 Y109.30
G1 F300 X306.10 Y103.10
G1 F300 X300.60 Y93.30
G1 F300 X298.70 Y80.20
G1 F300 X300.60 Y67.10
G1 F300 X306.10 Y57.30
G1 F300 X314.80 Y51.10
G1 F300 X326.30 Y48.90
G1 F300 X334.60 Y50.20
G1 F300 X341.60 Y53.80
G1 F300 X346.90 Y59.20
G1 F300 X349.90 Y66.20
M5 (Switch off the torch)
G0Z0
G0X0Y0