(G-Code file generated by CNCWeld)
$H(Home before doing anything)
G0(quickly) X1.99077 Y105.66 Z0
G0(quickly) X1.99077 Y105.66 Z-57
M3 (Switch on the torch)
G04 P1 (Wait 1 second for Arc to start)
G01 F300 X5.05507 Y105.65 Z-57
G01 F300 X8.87075 Y105.335 Z-57
G01 F300 X12.6656 Y105.22 Z-57
G01 F300 X16.8288 Y105.005 Z-57
G01 F300 X20.7322 Y104.89 Z-57
G01 F300 X24.5418 Y104.675 Z-57
G01 F300 X26.8877 Y104.465 Z-57
G01 F300 X26.8393 Y104.365 Z-57
G01 F300 X30.2387 Y104.2 Z-57
G01 F300 X33.6692 Y103.94 Z-57
G01 F300 X38.2654 Y103.715 Z-57
G01 F300 X41.6035 Y103.55 Z-57
G01 F300 X45.4811 Y103.365 Z-57
G01 F300 X48.7538 Y103.2 Z-57
G01 F300 X53.5373 Y102.98 Z-57
G01 F300 X53.6485 Y102.87 Z-57
G01 F300 X53.6567 Y102.97 Z-57
G01 F300 X56.3573 Y102.83 Z-57
G01 F300 X60.9697 Y102.49 Z-57
G01 F300 X64.8303 Y102.29 Z-57
G01 F300 X68.6717 Y102.09 Z-57
G01 F300 X72.4491 Y101.995 Z-57
G01 F300 X76.2746 Y101.79 Z-57
G01 F300 X79.5875 Y101.615 Z-57
G01 F300 X80.4047 Y101.675 Z-57
G01 F300 X80.4183 Y101.675 Z-57
G01 F300 X83.2715 Y101.535 Z-57
G01 F300 X87.4948 Y101.23 Z-57
G01 F300 X91.6929 Y101.13 Z-57
G01 F300 X95.5808 Y100.84 Z-57
G01 F300 X99.3775 Y100.655 Z-57
G01 F300 X102.804 Y100.49 Z-57
G01 F300 X106.884 Y100.285 Z-57
G01 F300 X107.028 Y100.28 Z-57
G01 F300 X107.033 Y100.28 Z-57
G01 F300 X110.061 Y100.12 Z-57
G01 F300 X114.414 Y99.895 Z-57
G01 F300 X118.078 Y99.7 Z-57
G01 F300 X122.043 Y99.5 Z-57
G01 F300 X125.871 Y99.295 Z-57
G01 F300 X129.988 Y99.175 Z-57
G01 F300 X133.381 Y98.9 Z-57
G01 F300 X133.571 Y98.985 Z-57
G01 F300 X133.581 Y98.985 Z-57
G01 F300 X136.033 Y98.865 Z-57
G01 F300 X141.169 Y98.615 Z-57
G01 F300 X144.527 Y98.45 Z-57
G01 F300 X148.362 Y98.265 Z-57
G01 F300 X152.551 Y97.96 Z-57
G01 F300 X155.986 Y97.795 Z-57
G01 F300 X160.058 Y97.59 Z-57
G01 F300 X160.079 Y97.59 Z-57
G01 F300 X160.082 Y97.59 Z-57
G01 F300 X163.123 Y97.43 Z-57
G01 F300 X167.384 Y97.305 Z-57
G01 F300 X170.795 Y97.125 Z-57
G01 F300 X174.962 Y96.905 Z-57
G01 F300 X178.727 Y96.7 Z-57
G01 F300 X182.687 Y96.5 Z-57
G01 F300 X186.497 Y96.295 Z-57
G01 F300 X186.518 Y96.295 Z-57
G01 F300 X186.513 Y96.295 Z-57
G01 F300 X189.84 Y96.13 Z-57
G01 F300 X193.164 Y95.97 Z-57
G01 F300 X197.767 Y95.74 Z-57
G01 F300 X201.167 Y95.575 Z-57
G01 F300 X204.974 Y95.285 Z-57
G01 F300 X209.172 Y95.08 Z-57
G01 F300 X212.567 Y94.915 Z-57
G01 F300 X212.777 Y94.9 Z-57
G01 F300 X212.771 Y94.9 Z-57
G01 F300 X215.769 Y94.74 Z-57
G01 F300 X219.656 Y94.535 Z-57
G01 F300 X222.582 Y94.38 Z-57
G01 F300 X227.646 Y94.11 Z-57
G01 F300 X232.042 Y93.88 Z-57
G01 F300 X235.351 Y93.7 Z-57
G01 F300 X238.408 Y93.545 Z-57
G01 F300 X239.023 Y93.505 Z-57
G01 F300 X239.025 Y93.505 Z-57
G01 F300 X242.723 Y93.31 Z-57
G01 F300 X246.077 Y93.13 Z-57
G01 F300 X249.15 Y92.965 Z-57
G01 F300 X254.232 Y92.795 Z-57
G01 F300 X258.058 Y92.49 Z-57
G01 F300 X261.817 Y92.39 Z-57
G01 F300 X265.218 Y92.21 Z-57
G01 F300 X265.227 Y92.21 Z-57
G01 F300 X265.237 Y92.21 Z-57
G01 F300 X268.69 Y92.04 Z-57
G01 F300 X272.071 Y91.87 Z-57
G01 F300 X275.883 Y91.68 Z-57
G01 F300 X279.299 Y91.515 Z-57
G01 F300 X283.938 Y91.285 Z-57
G01 F300 X288.211 Y91.07 Z-57
G01 F300 X291.368 Y90.915 Z-57
G01 F300 X291.329 Y90.915 Z-57
G01 F300 X291.337 Y90.915 Z-57
G01 F300 X294.57 Y90.755 Z-57
G01 F300 X297.955 Y90.485 Z-57
G01 F300 X302.125 Y90.28 Z-57
G01 F300 X305.974 Y90.085 Z-57
G01 F300 X309.81 Y89.895 Z-57
G01 F300 X314.106 Y89.68 Z-57
G01 F300 X317.412 Y89.52 Z-57
G01 F300 X317.328 Y89.52 Z-57
G01 F300 X317.326 Y89.52 Z-57
G01 F300 X319.926 Y89.38 Z-57
G01 F300 X324.563 Y89.13 Z-57
G01 F300 X328.403 Y88.925 Z-57
G01 F300 X331.899 Y88.745 Z-57
G01 F300 X335.801 Y88.535 Z-57
G01 F300 X339.83 Y88.41 Z-57
G01 F300 X343.28 Y88.125 Z-57
G01 F300 X343.267 Y88.125 Z-57
G01 F300 X343.272 Y88.125 Z-57
G01 F300 X346.498 Y87.95 Z-57
G01 F300 X350.315 Y87.845 Z-57
G01 F300 X354.548 Y87.62 Z-57
G01 F300 X358.396 Y87.41 Z-57
G01 F300 X361.786 Y87.23 Z-57
G01 F300 X365.61 Y87.025 Z-57
G01 F300 X369.215 Y86.83 Z-57
G01 F300 X369.214 Y86.83 Z-57
G01 F300 X369.212 Y86.83 Z-57
G01 F300 X372.258 Y86.68 Z-57
G01 F300 X376.407 Y86.47 Z-57
G01 F300 X380.242 Y86.275 Z-57
G01 F300 X384.107 Y85.985 Z-57
G01 F300 X388.284 Y85.775 Z-57
G01 F300 X391.644 Y85.605 Z-57
G01 F300 X394.206 Y85.475 Z-57
G01 F300 X395.024 Y85.435 Z-57
G01 F300 X395.023 Y85.435 Z-57
G01 F300 X398.66 Y85.24 Z-57
G01 F300 X402.067 Y85.055 Z-57
G01 F300 X405.523 Y84.87 Z-57
G01 F300 X410.115 Y84.72 Z-57
G01 F300 X413.946 Y84.41 Z-57
G01 F300 X417.675 Y84.305 Z-57
G01 F300 X420.705 Y84.14 Z-57
G01 F300 X420.792 Y84.04 Z-57
G01 F300 X420.787 Y84.04 Z-57
G01 F300 X424.08 Y83.86 Z-57
G01 F300 X427.969 Y83.65 Z-57
G01 F300 X431.76 Y83.54 Z-57
G01 F300 X435.526 Y83.335 Z-57
G01 F300 X439.384 Y83.125 Z-57
G01 F300 X443.523 Y82.9 Z-57
G01 F300 X446.503 Y82.645 Z-57
G01 F300 X446.525 Y82.645 Z-57
G01 F300 X446.52 Y82.645 Z-57
G01 F300 X449.741 Y82.47 Z-57
G01 F300 X453.859 Y82.335 Z-57
G01 F300 X457.329 Y82.15 Z-57
G01 F300 X460.66 Y81.97 Z-57
G01 F300 X465.336 Y81.715 Z-57
G01 F300 X469.213 Y81.51 Z-57
G01 F300 X472.039 Y81.35 Z-57
G01 F300 X472.06 Y81.25 Z-57
G01 F300 X472.056 Y81.25 Z-57
G01 F300 X475.152 Y81.08 Z-57
G01 F300 X478.916 Y80.97 Z-57
G01 F300 X483.205 Y80.64 Z-57
M5 (Switch off the torch)
G0 Z0
G0 X0 Y0 Z0
