(G-Code file generated by CNCWeld)
$H(Home before doing anything)
G0(quickly) X2.08834 Y113.81 Z-43
M3 (Switch on the torch)
G01 F300 X4.62016 Y115.84 Z-43
G01 F300 X7.80633 Y115.315 Z-43
G01 F300 X7.81789 Y113.715 Z-43
G01 F300 X7.80633 Y113.715 Z-43
G01 F300 X10.7627 Y113.68 Z-43
G01 F300 X15.0677 Y113.525 Z-43
G01 F300 X15.5784 Y113.42 Z-43
G01 F300 X15.5757 Y113.42 Z-43
G01 F300 X18.7291 Y113.3 Z-43
G01 F300 X22.6243 Y113.055 Z-43
G01 F300 X23.3486 Y113.025 Z-43
G01 F300 X23.3754 Y113.025 Z-43
G01 F300 X25.6804 Y112.91 Z-43
G01 F300 X30.7829 Y112.65 Z-43
G01 F300 X31.202 Y112.63 Z-43
G01 F300 X31.1741 Y112.63 Z-43
G01 F300 X34.6707 Y112.455 Z-43
G01 F300 X38.5545 Y112.26 Z-43
G01 F300 X39.0476 Y112.335 Z-43
G01 F300 X38.9411 Y112.235 Z-43
G01 F300 X42.2102 Y112.17 Z-43
G01 F300 X46.0722 Y111.875 Z-43
G01 F300 X46.7334 Y111.84 Z-43
G01 F300 X46.7606 Y111.84 Z-43
G01 F300 X50.1629 Y111.67 Z-43
G01 F300 X53.9938 Y111.475 Z-43
G01 F300 X54.5786 Y111.545 Z-43
G01 F300 X54.5781 Y111.545 Z-43
G01 F300 X57.6584 Y111.43 Z-43
G01 F300 X61.1182 Y111.195 Z-43
G01 F300 X62.3929 Y111.25 Z-43
G01 F300 X62.4149 Y111.15 Z-43
G01 F300 X65.7604 Y111.08 Z-43
G01 F300 X69.5555 Y110.785 Z-43
G01 F300 X70.1571 Y110.755 Z-43
G01 F300 X70.1526 Y110.755 Z-43
G01 F300 X72.2989 Y110.645 Z-43
G01 F300 X77.1361 Y110.4 Z-43
G01 F300 X77.9009 Y110.36 Z-43
G01 F300 X77.9091 Y110.36 Z-43
G01 F300 X81.6046 Y110.17 Z-43
G01 F300 X84.6036 Y110.12 Z-43
G01 F300 X85.7084 Y109.965 Z-43
G01 F300 X85.7125 Y109.965 Z-43
G01 F300 X89.1077 Y109.795 Z-43
G01 F300 X93.3154 Y109.68 Z-43
G01 F300 X93.4693 Y109.57 Z-43
G01 F300 X93.5063 Y109.57 Z-43
G01 F300 X96.6477 Y109.41 Z-43
G01 F300 X100.476 Y109.315 Z-43
G01 F300 X101.31 Y109.175 Z-43
G01 F300 X101.295 Y109.275 Z-43
G01 F300 X104.597 Y109.15 Z-43
G01 F300 X108.42 Y108.805 Z-43
G01 F300 X109.049 Y108.78 Z-43
G01 F300 X109.074 Y108.78 Z-43
G01 F300 X111.646 Y108.615 Z-43
G01 F300 X115.934 Y108.445 Z-43
G01 F300 X116.763 Y108.285 Z-43
G01 F300 X116.785 Y108.385 Z-43
G01 F300 X120.031 Y108.22 Z-43
G01 F300 X123.935 Y108.12 Z-43
G01 F300 X124.512 Y107.99 Z-43
G01 F300 X124.516 Y107.99 Z-43
G01 F300 X127.958 Y107.815 Z-43
G01 F300 X131.348 Y107.64 Z-43
G01 F300 X132.257 Y107.595 Z-43
G01 F300 X132.256 Y107.595 Z-43
G01 F300 X135.805 Y107.415 Z-43
G01 F300 X139.173 Y107.24 Z-43
G01 F300 X140.009 Y107.3 Z-43
G01 F300 X140.014 Y107.3 Z-43
G01 F300 X143.26 Y107.175 Z-43
G01 F300 X147.423 Y106.915 Z-43
G01 F300 X147.694 Y106.905 Z-43
G01 F300 X147.706 Y106.905 Z-43
G01 F300 X150.7 Y106.75 Z-43
G01 F300 X154.866 Y106.44 Z-43
G01 F300 X155.386 Y106.51 Z-43
G01 F300 X155.395 Y106.51 Z-43
G01 F300 X158.575 Y106.345 Z-43
G01 F300 X162.77 Y106.03 Z-43
G01 F300 X163.066 Y106.115 Z-43
G01 F300 X163.066 Y106.115 Z-43
G01 F300 X166.44 Y105.94 Z-43
G01 F300 X170.318 Y105.745 Z-43
G01 F300 X170.793 Y105.72 Z-43
G01 F300 X170.781 Y105.72 Z-43
G01 F300 X173.428 Y105.585 Z-43
G01 F300 X177.996 Y105.345 Z-43
G01 F300 X178.406 Y105.325 Z-43
G01 F300 X178.435 Y105.325 Z-43
G01 F300 X182.027 Y105.14 Z-43
G01 F300 X185.397 Y105.065 Z-43
G01 F300 X186.084 Y105.03 Z-43
G01 F300 X186.076 Y105.03 Z-43
G01 F300 X189.527 Y104.895 Z-43
G01 F300 X191.984 Y104.6 Z-43
G01 F300 X193.703 Y104.635 Z-43
G01 F300 X193.703 Y104.635 Z-43
G01 F300 X197.345 Y104.445 Z-43
G01 F300 X200.693 Y104.27 Z-43
G01 F300 X201.313 Y104.24 Z-43
G01 F300 X201.318 Y104.14 Z-43
G01 F300 X203.843 Y103.975 Z-43
G01 F300 X208.788 Y103.75 Z-43
G01 F300 X208.923 Y103.845 Z-43
G01 F300 X208.919 Y103.845 Z-43
G01 F300 X212.469 Y103.705 Z-43
G01 F300 X215.838 Y103.475 Z-43
G01 F300 X216.477 Y103.45 Z-43
G01 F300 X216.508 Y103.45 Z-43
G01 F300 X219.947 Y103.27 Z-43
G01 F300 X223.361 Y103.095 Z-43
G01 F300 X224.053 Y103.155 Z-43
G01 F300 X224.048 Y103.155 Z-43
G01 F300 X226.696 Y103.05 Z-43
G01 F300 X231.379 Y102.77 Z-43
G01 F300 X231.579 Y102.76 Z-43
G01 F300 X231.566 Y102.76 Z-43
G01 F300 X234.09 Y102.625 Z-43
G01 F300 X238.788 Y102.385 Z-43
G01 F300 X239.096 Y102.365 Z-43
G01 F300 X239.094 Y102.365 Z-43
G01 F300 X242.041 Y102.21 Z-43
G01 F300 X245.427 Y102.03 Z-43
G01 F300 X246.606 Y101.97 Z-43
G01 F300 X246.602 Y101.97 Z-43
G01 F300 X249.493 Y101.82 Z-43
G01 F300 X253.648 Y101.7 Z-43
G01 F300 X254.124 Y101.575 Z-43
G01 F300 X254.12 Y101.575 Z-43
G01 F300 X256.86 Y101.43 Z-43
G01 F300 X260.697 Y101.33 Z-43
G01 F300 X261.629 Y101.28 Z-43
G01 F300 X261.619 Y101.28 Z-43
G01 F300 X264.92 Y101.15 Z-43
G01 F300 X268.787 Y100.895 Z-43
G01 F300 X269.055 Y100.785 Z-43
G01 F300 X269.037 Y100.785 Z-43
G01 F300 X272.433 Y100.56 Z-43
G01 F300 X276.152 Y100.41 Z-43
G01 F300 X276.507 Y100.49 Z-43
G01 F300 X276.496 Y100.49 Z-43
G01 F300 X279.747 Y100.36 Z-43
G01 F300 X283.996 Y100.195 Z-43
G01 F300 X283.939 Y100.095 Z-43
G01 F300 X283.904 Y100.095 Z-43
G01 F300 X286.684 Y99.945 Z-43
G01 F300 X290.493 Y99.84 Z-43
G01 F300 X291.272 Y99.8 Z-43
G01 F300 X291.263 Y99.8 Z-43
G01 F300 X294.063 Y99.69 Z-43
G01 F300 X298.273 Y99.52 Z-43
G01 F300 X298.663 Y99.405 Z-43
G01 F300 X298.659 Y99.405 Z-43
G01 F300 X302.056 Y99.225 Z-43
G01 F300 X305.931 Y99.015 Z-43
G01 F300 X306.083 Y99.11 Z-43
G01 F300 X306.068 Y99.11 Z-43
G01 F300 X309.572 Y98.97 Z-43
G01 F300 X312.443 Y98.655 Z-43
G01 F300 X313.435 Y98.715 Z-43
G01 F300 X313.416 Y98.715 Z-43
G01 F300 X316.417 Y98.555 Z-43
G01 F300 X320.609 Y98.33 Z-43
G01 F300 X320.642 Y98.12 Z-43
G01 F300 X320.666 Y98.22 Z-43
G01 F300 X323.951 Y97.995 Z-43
G01 F300 X327.769 Y97.94 Z-43
G01 F300 X327.992 Y98.025 Z-43
G01 F300 X327.993 Y98.025 Z-43
G01 F300 X331.245 Y97.94 Z-43
G01 F300 X334.603 Y97.75 Z-43
G01 F300 X335.289 Y97.63 Z-43
G01 F300 X335.269 Y97.63 Z-43
G01 F300 X338.47 Y97.455 Z-43
G01 F300 X341.834 Y97.27 Z-43
G01 F300 X342.537 Y97.235 Z-43
G01 F300 X342.533 Y97.235 Z-43
G01 F300 X344.728 Y97.115 Z-43
G01 F300 X349.485 Y96.855 Z-43
G01 F300 X349.757 Y96.84 Z-43
G01 F300 X349.755 Y96.84 Z-43
G01 F300 X352.798 Y96.675 Z-43
G01 F300 X356.587 Y96.465 Z-43
G01 F300 X356.972 Y96.545 Z-43
G01 F300 X356.964 Y96.545 Z-43
G01 F300 X360.444 Y96.405 Z-43
G01 F300 X363.867 Y96.165 Z-43
G01 F300 X364.18 Y96.15 Z-43
G01 F300 X364.169 Y96.15 Z-43
G01 F300 X367.322 Y95.875 Z-43
G01 F300 X371.073 Y95.77 Z-43
G01 F300 X371.334 Y95.755 Z-43
G01 F300 X371.345 Y95.755 Z-43
G01 F300 X374.49 Y95.58 Z-43
G01 F300 X378.249 Y95.375 Z-43
G01 F300 X378.509 Y95.36 Z-43
G01 F300 X378.508 Y95.36 Z-43
G01 F300 X381.585 Y95.29 Z-43
G01 F300 X385.327 Y95.085 Z-43
G01 F300 X385.641 Y95.065 Z-43
G01 F300 X385.65 Y95.065 Z-43
G01 F300 X388.702 Y94.94 Z-43
G01 F300 X392.485 Y94.785 Z-43
G01 F300 X392.743 Y94.77 Z-43
G01 F300 X392.761 Y94.77 Z-43
G01 F300 X395.714 Y94.65 Z-43
G01 F300 X399.85 Y94.375 Z-43
G01 F300 X399.86 Y94.375 Z-43
G01 F300 X399.878 Y94.375 Z-43
G01 F300 X403.192 Y94.29 Z-43
G01 F300 X406.953 Y93.98 Z-43
G01 F300 X406.93 Y93.98 Z-43
G01 F300 X406.914 Y94.08 Z-43
G01 F300 X410.187 Y93.845 Z-43
G01 F300 X413.564 Y93.6 Z-43
G01 F300 X413.938 Y93.685 Z-43
G01 F300 X413.961 Y93.685 Z-43
G01 F300 X416.727 Y93.53 Z-43
G01 F300 X420.55 Y93.415 Z-43
G01 F300 X420.967 Y93.29 Z-43
G01 F300 X420.981 Y93.29 Z-43
G01 F300 X424.127 Y93.115 Z-43
G01 F300 X427.99 Y92.995 Z-43
G01 F300 X428.005 Y93.095 Z-43
G01 F300 X428.023 Y93.095 Z-43
G01 F300 X431.58 Y92.995 Z-43
G01 F300 X434.949 Y92.705 Z-43
G01 F300 X435.001 Y92.7 Z-43
G01 F300 X435.027 Y92.7 Z-43
G01 F300 X438.405 Y92.51 Z-43
G01 F300 X441.837 Y92.32 Z-43
G01 F300 X441.602 Y92.405 Z-43
G01 F300 X441.616 Y92.405 Z-43
G01 F300 X444.52 Y92.275 Z-43
G01 F300 X447.375 Y92.125 Z-43
G01 F300 X447.653 Y92.11 Z-43
G01 F300 X447.661 Y92.11 Z-43
G01 F300 X450.057 Y91.995 Z-43
G01 F300 X454.583 Y91.715 Z-43
G01 F300 X453.728 Y91.815 Z-43
G01 F300 X453.738 Y91.815 Z-43
G01 F300 X456.843 Y91.665 Z-43
G01 F300 X459.796 Y91.52 Z-43
G01 F300 X459.764 Y91.52 Z-43
G01 F300 X459.778 Y91.52 Z-43
G01 F300 X463.265 Y91.35 Z-43
G01 F300 X466.313 Y91.125 Z-43
G01 F300 X465.828 Y91.225 Z-43
G01 F300 X465.846 Y91.225 Z-43
G01 F300 X469.202 Y91.06 Z-43
G01 F300 X471.841 Y90.93 Z-43
G01 F300 X471.841 Y90.93 Z-43
G01 F300 X471.858 Y90.93 Z-43
G01 F300 X475.558 Y90.75 Z-43
G01 F300 X478.417 Y90.535 Z-43
G01 F300 X477.812 Y90.435 Z-43
G01 F300 X477.821 Y90.435 Z-43
G01 F300 X480.669 Y90.2 Z-43
G01 F300 X483.764 Y90.14 Z-43
G01 F300 X483.824 Y90.34 Z-43
M5 (Switch off the torch)
G0 Z0
G0 X0 Y0 Z0
