(G-Code file generated by CNCWeld)
$H(Home before doing anything)
G0(quickly) X1.74445 Y109.91 Z0
G0(quickly) X1.74445 Y109.91 Z-60
M3 (Switch on the torch)
G01 F300 X4.29302 Y109.9 Z-60
G01 F300 X9.08107 Y109.78 Z-60
G01 F300 X12.8743 Y109.665 Z-60
G01 F300 X15.86 Y109.355 Z-60
G01 F300 X20.5247 Y109.24 Z-60
G01 F300 X24.3313 Y109.025 Z-60
G01 F300 X26.6528 Y108.915 Z-60
G01 F300 X26.6739 Y108.815 Z-60
G01 F300 X29.815 Y108.685 Z-60
G01 F300 X34.077 Y108.51 Z-60
G01 F300 X36.5748 Y108.305 Z-60
G01 F300 X40.8593 Y108.03 Z-60
G01 F300 X45.5137 Y107.74 Z-60
G01 F300 X49.3428 Y107.68 Z-60
G01 F300 X53.3275 Y107.52 Z-60
G01 F300 X53.2923 Y107.42 Z-60
G01 F300 X56.485 Y107.25 Z-60
G01 F300 X60.3105 Y107.05 Z-60
G01 F300 X64.6711 Y106.925 Z-60
G01 F300 X67.9976 Y106.745 Z-60
G01 F300 X72.1322 Y106.425 Z-60
G01 F300 X75.6391 Y106.45 Z-60
G01 F300 X79.8005 Y106.23 Z-60
G01 F300 X79.9085 Y106.225 Z-60
G01 F300 X82.3178 Y106.215 Z-60
G01 F300 X86.948 Y105.91 Z-60
G01 F300 X90.8294 Y105.935 Z-60
G01 F300 X94.2016 Y105.585 Z-60
G01 F300 X97.5167 Y105.53 Z-60
G01 F300 X102.713 Y105.2 Z-60
G01 F300 X106.388 Y105.035 Z-60
G01 F300 X106.512 Y105.03 Z-60
G01 F300 X106.524 Y105.03 Z-60
G01 F300 X106.52 Y105.03 Z-60
G01 F300 X109.418 Y104.9 Z-60
G01 F300 X113.764 Y104.705 Z-60
G01 F300 X117.139 Y104.555 Z-60
G01 F300 X121.738 Y104.345 Z-60
G01 F300 X125.135 Y104.095 Z-60
G01 F300 X128.517 Y103.94 Z-60
G01 F300 X132.443 Y103.765 Z-60
G01 F300 X133.091 Y103.735 Z-60
G01 F300 X133.091 Y103.735 Z-60
G01 F300 X136.427 Y103.575 Z-60
G01 F300 X139.823 Y103.405 Z-60
G01 F300 X144.494 Y103.18 Z-60
G01 F300 X147.84 Y103.015 Z-60
G01 F300 X151.688 Y102.83 Z-60
G01 F300 X155.044 Y102.66 Z-60
G01 F300 X159.647 Y102.44 Z-60
G01 F300 X159.649 Y102.44 Z-60
G01 F300 X159.651 Y102.44 Z-60
G01 F300 X162.651 Y102.295 Z-60
G01 F300 X166.449 Y102.105 Z-60
G01 F300 X170.687 Y101.9 Z-60
G01 F300 X174.517 Y101.715 Z-60
G01 F300 X178.331 Y101.525 Z-60
G01 F300 X182.577 Y101.22 Z-60
G01 F300 X185.94 Y101.155 Z-60
G01 F300 X186.144 Y101.145 Z-60
G01 F300 X186.148 Y101.145 Z-60
G01 F300 X189.392 Y100.985 Z-60
G01 F300 X193.733 Y100.775 Z-60
G01 F300 X197.167 Y100.61 Z-60
G01 F300 X200.915 Y100.42 Z-60
G01 F300 X205.104 Y100.115 Z-60
G01 F300 X208.969 Y100.03 Z-60
G01 F300 X212.377 Y99.865 Z-60
G01 F300 X212.592 Y99.85 Z-60
G01 F300 X212.603 Y99.85 Z-60
G01 F300 X215.486 Y99.71 Z-60
G01 F300 X219.822 Y99.5 Z-60
G01 F300 X223.629 Y99.31 Z-60
G01 F300 X227.766 Y99.105 Z-60
G01 F300 X231.655 Y98.915 Z-60
G01 F300 X235.032 Y98.75 Z-60
G01 F300 X238.827 Y98.565 Z-60
G01 F300 X239.067 Y98.555 Z-60
G01 F300 X239.066 Y98.555 Z-60
G01 F300 X242.346 Y98.395 Z-60
G01 F300 X246.136 Y98.205 Z-60
G01 F300 X250.329 Y98 Z-60
G01 F300 X253.735 Y97.835 Z-60
G01 F300 X257.575 Y97.545 Z-60
G01 F300 X261.415 Y97.46 Z-60
G01 F300 X265.479 Y97.26 Z-60
G01 F300 X265.504 Y97.26 Z-60
G01 F300 X265.502 Y97.26 Z-60
G01 F300 X268.652 Y97.105 Z-60
G01 F300 X272.443 Y96.915 Z-60
G01 F300 X276.742 Y96.705 Z-60
G01 F300 X280.189 Y96.44 Z-60
G01 F300 X283.052 Y96.395 Z-60
G01 F300 X288.186 Y96.145 Z-60
G01 F300 X291.532 Y95.975 Z-60
G01 F300 X291.858 Y95.965 Z-60
G01 F300 X291.856 Y95.965 Z-60
G01 F300 X294.955 Y95.815 Z-60
G01 F300 X299.175 Y95.6 Z-60
G01 F300 X302.597 Y95.535 Z-60
G01 F300 X306.457 Y95.245 Z-60
G01 F300 X310.664 Y95.04 Z-60
G01 F300 X314.417 Y94.85 Z-60
G01 F300 X317.925 Y94.785 Z-60
G01 F300 X318.127 Y94.77 Z-60
G01 F300 X318.139 Y94.77 Z-60
G01 F300 X321.838 Y94.6 Z-60
G01 F300 X325.22 Y94.445 Z-60
G01 F300 X329.12 Y94.17 Z-60
G01 F300 X333.294 Y93.98 Z-60
G01 F300 X337.107 Y93.805 Z-60
G01 F300 X340.479 Y93.65 Z-60
G01 F300 X344.35 Y93.475 Z-60
G01 F300 X344.382 Y93.475 Z-60
G01 F300 X344.379 Y93.475 Z-60
G01 F300 X347.621 Y93.315 Z-60
G01 F300 X351.056 Y93.045 Z-60
G01 F300 X355.665 Y92.82 Z-60
G01 F300 X359.02 Y92.75 Z-60
G01 F300 X362.873 Y92.56 Z-60
G01 F300 X366.721 Y92.37 Z-60
G01 F300 X370.629 Y92.08 Z-60
G01 F300 X370.537 Y92.18 Z-60
G01 F300 X374.182 Y92 Z-60
G01 F300 X377.157 Y91.855 Z-60
G01 F300 X381.335 Y91.645 Z-60
G01 F300 X385.177 Y91.455 Z-60
G01 F300 X389.477 Y91.24 Z-60
G01 F300 X393.014 Y91.175 Z-60
G01 F300 X396.613 Y90.885 Z-60
G01 F300 X396.676 Y90.985 Z-60
G01 F300 X399.392 Y90.76 Z-60
G01 F300 X403.217 Y90.585 Z-60
G01 F300 X407.06 Y90.41 Z-60
G01 F300 X411.705 Y90.095 Z-60
G01 F300 X415.478 Y90.02 Z-60
G01 F300 X418.872 Y89.765 Z-60
G01 F300 X422.74 Y89.59 Z-60
G01 F300 X422.792 Y89.59 Z-60
G01 F300 X425.633 Y89.44 Z-60
G01 F300 X429.398 Y89.33 Z-60
G01 F300 X432.815 Y89.05 Z-60
G01 F300 X437.871 Y88.88 Z-60
G01 F300 X441.292 Y88.695 Z-60
G01 F300 X445.114 Y88.49 Z-60
G01 F300 X448.818 Y88.395 Z-60
G01 F300 X448.733 Y88.395 Z-60
G01 F300 X448.782 Y88.395 Z-60
G01 F300 X451.829 Y88.255 Z-60
G01 F300 X455.505 Y87.965 Z-60
G01 F300 X459.893 Y87.785 Z-60
G01 F300 X463.683 Y87.61 Z-60
G01 F300 X467.558 Y87.43 Z-60
G01 F300 X471.301 Y87.14 Z-60
G01 F300 X474.309 Y87.1 Z-60
G01 F300 X474.674 Y87 Z-60
G01 F300 X474.68 Y87 Z-60
M5 (Switch off the torch)
G0 Z0
G0 X0 Y0 Z0
