(G-Code file generated by CNCWeld)
$H(Home before doing anything)
G0(quickly) X4.26504 Y113.36 Z0
G0(quickly) X4.26504 Y113.36 Z-57
M3 (Switch on the torch)
G04 P1 (Wait 1 second for Arc to start)
G01 F300 X6.27552 Y112.83 Z-57
G01 F300 X11.1931 Y110.025 Z-57
G01 F300 X12.4866 Y107.565 Z-57
G01 F300 X12.3981 Y107.365 Z-57
G01 F300 X12.4022 Y107.365 Z-57
G01 F300 X15.1799 Y105.315 Z-57
G01 F300 X18.1056 Y103.165 Z-57
G01 F300 X20.0148 Y101.98 Z-57
G01 F300 X20.7576 Y101.17 Z-57
G01 F300 X20.7508 Y101.17 Z-57
G01 F300 X20.7465 Y101.17 Z-57
G01 F300 X23.4319 Y99.185 Z-57
G01 F300 X26.3991 Y97.425 Z-57
G01 F300 X28.9875 Y95.475 Z-57
G01 F300 X28.8813 Y95.475 Z-57
G01 F300 X28.9017 Y95.575 Z-57
G01 F300 X31.8542 Y93.55 Z-57
G01 F300 X33.8271 Y92.305 Z-57
G01 F300 X36.9232 Y89.98 Z-57
G01 F300 X36.9997 Y90.08 Z-57
G01 F300 X37.0049 Y90.08 Z-57
G01 F300 X39.8454 Y88.25 Z-57
G01 F300 X42.8445 Y86.115 Z-57
G01 F300 X45.1077 Y84.785 Z-57
G01 F300 X45.0947 Y85.085 Z-57
G01 F300 X45.1077 Y84.985 Z-57
G01 F300 X47.2861 Y83.71 Z-57
G01 F300 X49.2092 Y81.95 Z-57
G01 F300 X51.3627 Y80.215 Z-57
G01 F300 X53.1278 Y79.89 Z-57
G01 F300 X53.1287 Y79.89 Z-57
G01 F300 X55.5176 Y78.375 Z-57
G01 F300 X58.5331 Y76.63 Z-57
G01 F300 X61.1249 Y75.095 Z-57
G01 F300 X61.1516 Y75.295 Z-57
G01 F300 X61.1532 Y75.295 Z-57
G01 F300 X63.6053 Y73.89 Z-57
G01 F300 X66.9976 Y72.425 Z-57
G01 F300 X69.119 Y71.5 Z-57
G01 F300 X69.1582 Y71.4 Z-57
G01 F300 X69.1558 Y71.4 Z-57
G01 F300 X71.5935 Y70.215 Z-57
G01 F300 X73.925 Y68.92 Z-57
G01 F300 X77.1887 Y67.405 Z-57
G01 F300 X77.2096 Y67.505 Z-57
G01 F300 X77.2127 Y67.505 Z-57
G01 F300 X79.7573 Y66.275 Z-57
G01 F300 X83.0059 Y64.595 Z-57
G01 F300 X85.2666 Y63.71 Z-57
G01 F300 X85.2936 Y63.61 Z-57
G01 F300 X85.2979 Y63.61 Z-57
G01 F300 X88.5172 Y62.06 Z-57
G01 F300 X91.1753 Y60.91 Z-57
G01 F300 X93.4063 Y60.315 Z-57
G01 F300 X93.4522 Y60.415 Z-57
G01 F300 X93.4549 Y60.415 Z-57
G01 F300 X95.9733 Y59.43 Z-57
G01 F300 X98.2152 Y58.715 Z-57
G01 F300 X101.441 Y57.72 Z-57
G01 F300 X101.415 Y57.82 Z-57
G01 F300 X101.415 Y57.82 Z-57
G01 F300 X104.079 Y56.95 Z-57
G01 F300 X107.578 Y56.125 Z-57
G01 F300 X109.32 Y55.625 Z-57
G01 F300 X109.313 Y55.725 Z-57
G01 F300 X109.311 Y55.725 Z-57
G01 F300 X110.833 Y55.32 Z-57
G01 F300 X115.76 Y53.97 Z-57
G01 F300 X117.217 Y53.93 Z-57
G01 F300 X117.131 Y53.93 Z-57
G01 F300 X117.13 Y53.93 Z-57
G01 F300 X119.886 Y53.295 Z-57
G01 F300 X123.424 Y52.685 Z-57
G01 F300 X125.032 Y52.735 Z-57
G01 F300 X124.961 Y52.735 Z-57
G01 F300 X124.954 Y52.735 Z-57
G01 F300 X126.498 Y52.5 Z-57
G01 F300 X131.129 Y51.985 Z-57
G01 F300 X132.749 Y51.94 Z-57
G01 F300 X132.735 Y51.94 Z-57
G01 F300 X134.552 Y51.755 Z-57
G01 F300 X138.169 Y51.585 Z-57
G01 F300 X140.52 Y51.845 Z-57
G01 F300 X140.539 Y51.945 Z-57
G01 F300 X142.623 Y51.945 Z-57
G01 F300 X147.642 Y52.75 Z-57
G01 F300 X148.246 Y52.45 Z-57
G01 F300 X148.257 Y52.55 Z-57
G01 F300 X148.259 Y52.55 Z-57
G01 F300 X151.444 Y52.8 Z-57
G01 F300 X155.119 Y53.085 Z-57
G01 F300 X155.927 Y53.455 Z-57
G01 F300 X155.929 Y53.455 Z-57
G01 F300 X155.938 Y53.455 Z-57
G01 F300 X159.115 Y53.83 Z-57
G01 F300 X162.829 Y54.755 Z-57
G01 F300 X163.613 Y55.16 Z-57
G01 F300 X163.622 Y55.16 Z-57
G01 F300 X163.619 Y55.16 Z-57
G01 F300 X165.647 Y55.61 Z-57
G01 F300 X170.243 Y56.64 Z-57
G01 F300 X171.366 Y57.065 Z-57
G01 F300 X171.372 Y57.065 Z-57
G01 F300 X171.378 Y57.065 Z-57
G01 F300 X174.487 Y57.83 Z-57
G01 F300 X178.021 Y58.695 Z-57
G01 F300 X179.363 Y59.77 Z-57
G01 F300 X179.37 Y59.87 Z-57
G01 F300 X179.361 Y59.87 Z-57
G01 F300 X182.387 Y60.93 Z-57
G01 F300 X185.702 Y62.135 Z-57
G01 F300 X187.213 Y62.775 Z-57
G01 F300 X187.19 Y62.575 Z-57
G01 F300 X187.197 Y62.575 Z-57
G01 F300 X190.228 Y63.62 Z-57
G01 F300 X192.568 Y64.435 Z-57
G01 F300 X194.909 Y65.38 Z-57
G01 F300 X194.966 Y65.48 Z-57
G01 F300 X194.966 Y65.48 Z-57
G01 F300 X197.13 Y66.29 Z-57
G01 F300 X200.488 Y67.46 Z-57
G01 F300 X202.697 Y68.485 Z-57
G01 F300 X202.66 Y68.685 Z-57
G01 F300 X202.662 Y68.685 Z-57
G01 F300 X205.831 Y70.005 Z-57
G01 F300 X209.272 Y71.3 Z-57
G01 F300 X210.473 Y72.09 Z-57
G01 F300 X210.526 Y72.19 Z-57
G01 F300 X210.533 Y72.19 Z-57
G01 F300 X213.434 Y73.485 Z-57
G01 F300 X216.787 Y75.06 Z-57
G01 F300 X218.305 Y75.495 Z-57
G01 F300 X218.325 Y75.495 Z-57
G01 F300 X219.191 Y75.865 Z-57
G01 F300 X223.544 Y77.87 Z-57
G01 F300 X226.048 Y79.3 Z-57
G01 F300 X225.98 Y79.2 Z-57
G01 F300 X225.979 Y79.2 Z-57
G01 F300 X227.963 Y80.16 Z-57
G01 F300 X232.442 Y82.385 Z-57
G01 F300 X233.714 Y82.805 Z-57
G01 F300 X233.676 Y83.005 Z-57
G01 F300 X233.679 Y83.005 Z-57
G01 F300 X236.667 Y84.48 Z-57
G01 F300 X239.958 Y86.185 Z-57
G01 F300 X241.558 Y86.61 Z-57
G01 F300 X241.588 Y86.71 Z-57
G01 F300 X241.589 Y86.61 Z-57
G01 F300 X242.335 Y87.055 Z-57
G01 F300 X247.773 Y89.24 Z-57
G01 F300 X249.653 Y90.215 Z-57
G01 F300 X249.458 Y90.215 Z-57
G01 F300 X249.458 Y90.215 Z-57
G01 F300 X251.329 Y91.07 Z-57
G01 F300 X255.597 Y93.15 Z-57
G01 F300 X257.318 Y93.72 Z-57
G01 F300 X257.589 Y94.42 Z-57
G01 F300 X257.591 Y94.32 Z-57
G01 F300 X259.34 Y95.2 Z-57
G01 F300 X263.5 Y96.8 Z-57
G01 F300 X265.46 Y97.925 Z-57
G01 F300 X265.468 Y97.525 Z-57
G01 F300 X265.452 Y97.525 Z-57
G01 F300 X268.303 Y98.685 Z-57
G01 F300 X271.582 Y99.955 Z-57
G01 F300 X273.37 Y100.43 Z-57
G01 F300 X273.363 Y100.93 Z-57
G01 F300 X273.362 Y100.93 Z-57
G01 F300 X275.022 Y101.645 Z-57
G01 F300 X279.532 Y103.375 Z-57
G01 F300 X281.412 Y103.635 Z-57
G01 F300 X281.428 Y104.235 Z-57
G01 F300 X281.427 Y104.235 Z-57
G01 F300 X281.958 Y104.455 Z-57
G01 F300 X286.435 Y105.705 Z-57
G01 F300 X289.473 Y107.24 Z-57
G01 F300 X289.511 Y107.14 Z-57
G01 F300 X291.347 Y107.8 Z-57
G01 F300 X295.771 Y109.15 Z-57
G01 F300 X297.463 Y109.345 Z-57
G01 F300 X297.559 Y109.045 Z-57
G01 F300 X297.556 Y109.045 Z-57
G01 F300 X300.546 Y109.755 Z-57
G01 F300 X303.886 Y110.99 Z-57
G01 F300 X305.576 Y111.35 Z-57
G01 F300 X305.638 Y111.65 Z-57
G01 F300 X305.655 Y111.65 Z-57
G01 F300 X308.457 Y112.555 Z-57
G01 F300 X311.84 Y112.865 Z-57
G01 F300 X313.654 Y113.255 Z-57
G01 F300 X313.654 Y113.155 Z-57
G01 F300 X313.659 Y113.155 Z-57
G01 F300 X316.435 Y113.675 Z-57
G01 F300 X318.918 Y113.84 Z-57
G01 F300 X321.708 Y114.16 Z-57
G01 F300 X321.701 Y114.16 Z-57
G01 F300 X321.69 Y114.16 Z-57
G01 F300 X324.476 Y114.51 Z-57
G01 F300 X328.384 Y114.06 Z-57
G01 F300 X329.777 Y114.165 Z-57
G01 F300 X329.685 Y114.065 Z-57
G01 F300 X329.681 Y114.065 Z-57
G01 F300 X332.382 Y114.035 Z-57
G01 F300 X335.992 Y113.79 Z-57
G01 F300 X337.715 Y113.57 Z-57
G01 F300 X337.755 Y113.47 Z-57
G01 F300 X340.696 Y113.255 Z-57
G01 F300 X344.344 Y112.485 Z-57
G01 F300 X345.833 Y111.675 Z-57
G01 F300 X345.81 Y111.575 Z-57
G01 F300 X345.8 Y111.575 Z-57
G01 F300 X348.534 Y110.93 Z-57
G01 F300 X351.138 Y109.86 Z-57
G01 F300 X353.942 Y108.98 Z-57
G01 F300 X353.89 Y108.98 Z-57
G01 F300 X356.832 Y108.04 Z-57
G01 F300 X360.301 Y106.33 Z-57
G01 F300 X362.085 Y104.585 Z-57
G01 F300 X362.252 Y104.385 Z-57
G01 F300 X362.247 Y104.385 Z-57
G01 F300 X364.943 Y102.9 Z-57
G01 F300 X367.919 Y101.055 Z-57
G01 F300 X370.474 Y98.99 Z-57
G01 F300 X370.402 Y98.29 Z-57
G01 F300 X370.414 Y98.29 Z-57
G01 F300 X372.766 Y96.535 Z-57
G01 F300 X375.813 Y93.565 Z-57
G01 F300 X378.677 Y91.295 Z-57
G01 F300 X378.819 Y90.595 Z-57
G01 F300 X378.817 Y90.595 Z-57
G01 F300 X380.893 Y88.695 Z-57
G01 F300 X383.624 Y84.66 Z-57
G01 F300 X386.411 Y81.195 Z-57
G01 F300 X387.331 Y78.5 Z-57
G01 F300 X387.334 Y78.4 Z-57
G01 F300 X387.336 Y78.5 Z-57
G01 F300 X388.963 Y76.185 Z-57
G01 F300 X391.057 Y73.32 Z-57
G01 F300 X393.998 Y69.835 Z-57
M5 (Switch off the torch)
G0 Z0
G0 X0 Y0 Z0
