(G-Code file generated by CNCWeld)
$H(Home before doing anything)
G0(quickly) X1.61803 Y114.01 Z-43
M3 (Switch on the torch)
G01 F300 X4.80807 Y114.44 Z-43
G01 F300 X8.15848 Y114.185 Z-43
G01 F300 X12.7716 Y114.2 Z-43
G01 F300 X16.1566 Y113.95 Z-43
G01 F300 X20.4838 Y113.82 Z-43
G01 F300 X24.3517 Y113.73 Z-43
G01 F300 X27.9887 Y113.425 Z-43
G01 F300 X31.6015 Y113.215 Z-43
G01 F300 X31.6342 Y112.715 Z-43
G01 F300 X31.6441 Y112.715 Z-43
G01 F300 X34.8889 Y112.58 Z-43
G01 F300 X38.8654 Y112.42 Z-43
G01 F300 X42.7456 Y112.265 Z-43
G01 F300 X46.0393 Y112.025 Z-43
G01 F300 X49.9496 Y111.865 Z-43
G01 F300 X54.5741 Y111.68 Z-43
G01 F300 X58.0095 Y111.54 Z-43
G01 F300 X62.6443 Y111.35 Z-43
G01 F300 X63.3724 Y111.32 Z-43
G01 F300 X63.3774 Y111.32 Z-43
G01 F300 X66.4824 Y111.185 Z-43
G01 F300 X70.6672 Y111 Z-43
G01 F300 X74.5412 Y110.83 Z-43
G01 F300 X78.382 Y110.66 Z-43
G01 F300 X81.3631 Y110.63 Z-43
G01 F300 X85.5459 Y110.24 Z-43
G01 F300 X90.2922 Y110.14 Z-43
G01 F300 X93.7326 Y109.99 Z-43
G01 F300 X95.1492 Y109.925 Z-43
G01 F300 X95.1721 Y109.925 Z-43
G01 F300 X98.3648 Y109.785 Z-43
G01 F300 X102.695 Y109.595 Z-43
G01 F300 X106.158 Y109.445 Z-43
G01 F300 X109.325 Y109.3 Z-43
G01 F300 X114.096 Y108.995 Z-43
G01 F300 X118.013 Y108.825 Z-43
G01 F300 X121.439 Y108.775 Z-43
G01 F300 X124.719 Y108.525 Z-43
G01 F300 X127.062 Y108.53 Z-43
G01 F300 X127.039 Y108.53 Z-43
G01 F300 X129.729 Y108.41 Z-43
G01 F300 X133.864 Y108.13 Z-43
G01 F300 X137.325 Y108.08 Z-43
G01 F300 X141.652 Y107.89 Z-43
G01 F300 X145.086 Y107.745 Z-43
G01 F300 X149.716 Y107.54 Z-43
G01 F300 X153.626 Y107.37 Z-43
G01 F300 X157.294 Y107.21 Z-43
G01 F300 X158.949 Y107.035 Z-43
G01 F300 X158.918 Y107.035 Z-43
G01 F300 X161.815 Y106.9 Z-43
G01 F300 X166.229 Y106.8 Z-43
G01 F300 X169.565 Y106.64 Z-43
G01 F300 X173.021 Y106.48 Z-43
G01 F300 X177.719 Y106.26 Z-43
G01 F300 X181.505 Y106.08 Z-43
G01 F300 X184.432 Y105.94 Z-43
G01 F300 X188.348 Y105.86 Z-43
G01 F300 X190.892 Y105.64 Z-43
G01 F300 X190.891 Y105.64 Z-43
G01 F300 X193.951 Y105.505 Z-43
G01 F300 X197.296 Y105.46 Z-43
G01 F300 X202.009 Y105.155 Z-43
G01 F300 X205.854 Y104.99 Z-43
G01 F300 X208.795 Y104.86 Z-43
G01 F300 X213.467 Y104.655 Z-43
G01 F300 X217.171 Y104.49 Z-43
G01 F300 X220.702 Y104.34 Z-43
G01 F300 X222.895 Y104.245 Z-43
G01 F300 X222.873 Y104.245 Z-43
G01 F300 X226.526 Y104.085 Z-43
G01 F300 X230.019 Y104.04 Z-43
G01 F300 X233.954 Y103.87 Z-43
G01 F300 X237.258 Y103.72 Z-43
G01 F300 X240.724 Y103.575 Z-43
G01 F300 X245.331 Y103.37 Z-43
G01 F300 X249.175 Y103.205 Z-43
G01 F300 X253.063 Y103.035 Z-43
G01 F300 X254.977 Y102.95 Z-43
G01 F300 X255.008 Y103.05 Z-43
G01 F300 X258.464 Y102.92 Z-43
G01 F300 X261.725 Y102.595 Z-43
G01 F300 X265.915 Y102.44 Z-43
G01 F300 X269.804 Y102.3 Z-43
G01 F300 X273.698 Y102.155 Z-43
G01 F300 X277.435 Y101.91 Z-43
G01 F300 X281.267 Y101.77 Z-43
G01 F300 X285.558 Y101.61 Z-43
G01 F300 X287.143 Y101.555 Z-43
G01 F300 X287.152 Y101.555 Z-43
G01 F300 X290.501 Y101.4 Z-43
G01 F300 X294.406 Y101.22 Z-43
G01 F300 X297.796 Y101.06 Z-43
G01 F300 X301.663 Y100.88 Z-43
G01 F300 X305.837 Y100.685 Z-43
G01 F300 X308.437 Y100.565 Z-43
G01 F300 X313.541 Y100.33 Z-43
G01 F300 X316.929 Y100.17 Z-43
G01 F300 X319.291 Y100.06 Z-43
G01 F300 X319.298 Y100.06 Z-43
G01 F300 X322.392 Y99.915 Z-43
G01 F300 X325.79 Y99.76 Z-43
G01 F300 X329.189 Y99.6 Z-43
G01 F300 X333.821 Y99.385 Z-43
G01 F300 X338.117 Y99.185 Z-43
G01 F300 X341.592 Y99.125 Z-43
G01 F300 X344.535 Y98.99 Z-43
G01 F300 X349.627 Y98.75 Z-43
G01 F300 X351.503 Y98.665 Z-43
G01 F300 X351.527 Y98.665 Z-43
G01 F300 X354.909 Y98.52 Z-43
G01 F300 X358.637 Y98.25 Z-43
G01 F300 X360.822 Y98.16 Z-43
G01 F300 X365.958 Y97.94 Z-43
G01 F300 X370.17 Y97.755 Z-43
G01 F300 X374.447 Y97.57 Z-43
G01 F300 X378.019 Y97.525 Z-43
G01 F300 X381.56 Y97.265 Z-43
G01 F300 X383.731 Y97.17 Z-43
G01 F300 X383.736 Y97.17 Z-43
G01 F300 X386.884 Y97.025 Z-43
G01 F300 X390.657 Y96.85 Z-43
G01 F300 X393.621 Y96.71 Z-43
G01 F300 X398.232 Y96.495 Z-43
G01 F300 X402.678 Y96.395 Z-43
G01 F300 X405.953 Y96.24 Z-43
G01 F300 X409.017 Y96.1 Z-43
G01 F300 X414.112 Y95.865 Z-43
G01 F300 X415.997 Y95.775 Z-43
G01 F300 X416.008 Y95.775 Z-43
G01 F300 X419.243 Y95.635 Z-43
G01 F300 X423.164 Y95.465 Z-43
G01 F300 X426.507 Y95.32 Z-43
G01 F300 X430.848 Y95.135 Z-43
G01 F300 X434.33 Y94.885 Z-43
G01 F300 X438.79 Y94.685 Z-43
G01 F300 X442.221 Y94.54 Z-43
G01 F300 X446.168 Y94.375 Z-43
G01 F300 X448.328 Y94.38 Z-43
G01 F300 X448.374 Y94.38 Z-43
G01 F300 X451.426 Y94.25 Z-43
G01 F300 X455.097 Y93.985 Z-43
G01 F300 X459.502 Y93.9 Z-43
G01 F300 X462.372 Y93.67 Z-43
G01 F300 X467.001 Y93.47 Z-43
G01 F300 X470.97 Y93.405 Z-43
G01 F300 X474.209 Y93.16 Z-43
M5 (Switch off the torch)
G0 X0 Y0 Z0
G4 P2
$H
