(G-Code file generated by CNCWeld)
$H(Home before doing anything)
G0(quickly) X1.15177 Y110.11 Z-43
M3 (Switch on the torch)
G01 F300 X3.63946 Y110.265 Z-43
G01 F300 X6.66294 Y110.115 Z-43
G01 F300 X6.66702 Y110.015 Z-43
G01 F300 X6.67724 Y110.015 Z-43
G01 F300 X9.03064 Y109.98 Z-43
G01 F300 X13.3579 Y109.82 Z-43
G01 F300 X13.323 Y109.72 Z-43
G01 F300 X13.3343 Y109.72 Z-43
G01 F300 X16.6363 Y109.575 Z-43
G01 F300 X19.9845 Y109.325 Z-43
G01 F300 X19.9805 Y109.425 Z-43
G01 F300 X19.997 Y109.425 Z-43
G01 F300 X22.6925 Y109.305 Z-43
G01 F300 X26.675 Y109.13 Z-43
G01 F300 X26.6466 Y109.13 Z-43
G01 F300 X26.6484 Y109.13 Z-43
G01 F300 X29.8889 Y108.985 Z-43
G01 F300 X33.3259 Y108.835 Z-43
G01 F300 X33.3243 Y108.835 Z-43
G01 F300 X33.3345 Y108.735 Z-43
G01 F300 X36.8316 Y108.53 Z-43
G01 F300 X39.9834 Y108.44 Z-43
G01 F300 X40.0086 Y108.44 Z-43
G01 F300 X40.0018 Y108.44 Z-43
G01 F300 X42.56 Y108.325 Z-43
G01 F300 X46.2782 Y108.16 Z-43
G01 F300 X46.6573 Y108.145 Z-43
G01 F300 X46.6546 Y108.145 Z-43
G01 F300 X50.1432 Y107.99 Z-43
G01 F300 X53.3833 Y107.85 Z-43
G01 F300 X53.3468 Y107.85 Z-43
G01 F300 X53.3502 Y107.85 Z-43
G01 F300 X56.5991 Y107.705 Z-43
G01 F300 X59.8872 Y107.355 Z-43
G01 F300 X59.951 Y107.455 Z-43
G01 F300 X59.9571 Y107.455 Z-43
G01 F300 X63.4062 Y107.25 Z-43
G01 F300 X66.6012 Y107.06 Z-43
G01 F300 X66.59 Y107.06 Z-43
G01 F300 X66.5909 Y107.06 Z-43
G01 F300 X68.9355 Y106.92 Z-43
G01 F300 X73.1636 Y106.87 Z-43
G01 F300 X73.2573 Y106.765 Z-43
G01 F300 X73.2593 Y106.765 Z-43
G01 F300 X76.2409 Y106.635 Z-43
G01 F300 X79.8991 Y106.47 Z-43
G01 F300 X79.9075 Y106.57 Z-43
G01 F300 X79.9111 Y106.47 Z-43
G01 F300 X83.0918 Y106.33 Z-43
G01 F300 X85.9869 Y106.2 Z-43
G01 F300 X86.5319 Y106.175 Z-43
G01 F300 X86.5307 Y106.175 Z-43
G01 F300 X90.0264 Y106.02 Z-43
G01 F300 X92.5623 Y105.81 Z-43
G01 F300 X93.0225 Y105.78 Z-43
G01 F300 X93.0241 Y105.78 Z-43
G01 F300 X96.3702 Y105.575 Z-43
G01 F300 X99.6491 Y105.485 Z-43
G01 F300 X99.6661 Y105.485 Z-43
G01 F300 X99.6671 Y105.485 Z-43
G01 F300 X102.858 Y105.345 Z-43
G01 F300 X106.31 Y105.19 Z-43
G01 F300 X106.303 Y105.09 Z-43
G01 F300 X106.305 Y105.09 Z-43
G01 F300 X109.531 Y104.9 Z-43
G01 F300 X112.918 Y104.795 Z-43
G01 F300 X112.901 Y104.795 Z-43
G01 F300 X112.905 Y104.795 Z-43
G01 F300 X115.887 Y104.66 Z-43
G01 F300 X119.503 Y104.5 Z-43
G01 F300 X119.532 Y104.5 Z-43
G01 F300 X119.532 Y104.5 Z-43
G01 F300 X122.655 Y104.36 Z-43
G01 F300 X126.131 Y104.205 Z-43
G01 F300 X126.138 Y104.205 Z-43
G01 F300 X126.143 Y104.205 Z-43
G01 F300 X129.476 Y104.055 Z-43
G01 F300 X132.411 Y103.825 Z-43
G01 F300 X132.695 Y103.81 Z-43
G01 F300 X132.694 Y103.81 Z-43
G01 F300 X136.143 Y103.6 Z-43
G01 F300 X139.266 Y103.515 Z-43
G01 F300 X139.279 Y103.515 Z-43
G01 F300 X139.275 Y103.515 Z-43
G01 F300 X142.42 Y103.375 Z-43
G01 F300 X145.85 Y103.12 Z-43
G01 F300 X145.825 Y103.22 Z-43
G01 F300 X145.825 Y103.22 Z-43
G01 F300 X149.101 Y103.07 Z-43
G01 F300 X152.1 Y102.94 Z-43
G01 F300 X152.385 Y102.925 Z-43
G01 F300 X152.392 Y102.925 Z-43
G01 F300 X155.436 Y102.79 Z-43
G01 F300 X158.971 Y102.53 Z-43
G01 F300 X158.969 Y102.53 Z-43
G01 F300 X158.974 Y102.53 Z-43
G01 F300 X162.215 Y102.335 Z-43
G01 F300 X165.541 Y102.135 Z-43
G01 F300 X165.522 Y102.235 Z-43
G01 F300 X165.524 Y102.235 Z-43
G01 F300 X168.472 Y102.1 Z-43
G01 F300 X172.076 Y101.84 Z-43
G01 F300 X172.046 Y101.94 Z-43
G01 F300 X172.049 Y101.94 Z-43
G01 F300 X175.441 Y101.785 Z-43
G01 F300 X178.577 Y101.645 Z-43
G01 F300 X178.555 Y101.545 Z-43
G01 F300 X178.55 Y101.545 Z-43
G01 F300 X181.675 Y101.355 Z-43
G01 F300 X185.055 Y101.15 Z-43
G01 F300 X185.066 Y101.25 Z-43
G01 F300 X185.064 Y101.25 Z-43
G01 F300 X188.504 Y101.095 Z-43
G01 F300 X191.566 Y100.855 Z-43
G01 F300 X191.624 Y100.855 Z-43
G01 F300 X191.627 Y100.855 Z-43
G01 F300 X194.417 Y100.685 Z-43
G01 F300 X198.009 Y100.46 Z-43
G01 F300 X198.138 Y100.56 Z-43
G01 F300 X198.129 Y100.56 Z-43
G01 F300 X201.371 Y100.415 Z-43
G01 F300 X204.568 Y100.165 Z-43
G01 F300 X204.606 Y100.265 Z-43
G01 F300 X204.607 Y100.265 Z-43
G01 F300 X208.056 Y100.11 Z-43
G01 F300 X211.117 Y99.87 Z-43
G01 F300 X211.107 Y99.87 Z-43
G01 F300 X211.102 Y99.87 Z-43
G01 F300 X214.799 Y99.645 Z-43
G01 F300 X217.528 Y99.575 Z-43
G01 F300 X217.599 Y99.575 Z-43
G01 F300 X217.598 Y99.675 Z-43
G01 F300 X220.598 Y99.585 Z-43
G01 F300 X224.058 Y99.28 Z-43
G01 F300 X224.009 Y99.28 Z-43
G01 F300 X224.007 Y99.28 Z-43
G01 F300 X227.255 Y99.08 Z-43
G01 F300 X230.425 Y98.985 Z-43
G01 F300 X230.401 Y98.985 Z-43
G01 F300 X230.401 Y98.985 Z-43
G01 F300 X233.354 Y98.85 Z-43
G01 F300 X236.824 Y98.59 Z-43
G01 F300 X236.822 Y98.69 Z-43
G01 F300 X236.828 Y98.69 Z-43
G01 F300 X239.902 Y98.55 Z-43
G01 F300 X243.218 Y98.395 Z-43
G01 F300 X243.222 Y98.295 Z-43
G01 F300 X243.224 Y98.295 Z-43
G01 F300 X246.498 Y98.095 Z-43
G01 F300 X249.653 Y98 Z-43
G01 F300 X249.618 Y98 Z-43
G01 F300 X249.619 Y98 Z-43
G01 F300 X252.614 Y97.86 Z-43
G01 F300 X255.994 Y97.705 Z-43
G01 F300 X256.033 Y97.705 Z-43
G01 F300 X256.026 Y97.705 Z-43
G01 F300 X259.222 Y97.56 Z-43
G01 F300 X262.387 Y97.41 Z-43
G01 F300 X262.507 Y97.11 Z-43
G01 F300 X262.51 Y97.11 Z-43
G01 F300 X266.197 Y96.77 Z-43
G01 F300 X268.846 Y96.915 Z-43
G01 F300 X268.84 Y97.015 Z-43
G01 F300 X268.834 Y97.015 Z-43
G01 F300 X272.186 Y96.965 Z-43
G01 F300 X275.116 Y96.82 Z-43
G01 F300 X275.164 Y96.72 Z-43
G01 F300 X275.18 Y96.72 Z-43
G01 F300 X277.917 Y96.59 Z-43
G01 F300 X281.568 Y96.425 Z-43
G01 F300 X281.471 Y96.425 Z-43
G01 F300 X281.478 Y96.425 Z-43
G01 F300 X284.531 Y96.28 Z-43
G01 F300 X287.785 Y96.13 Z-43
G01 F300 X287.835 Y96.13 Z-43
G01 F300 X287.84 Y96.13 Z-43
G01 F300 X290.489 Y96.005 Z-43
G01 F300 X294.108 Y95.835 Z-43
G01 F300 X294.14 Y95.835 Z-43
G01 F300 X294.143 Y95.835 Z-43
G01 F300 X297.738 Y95.665 Z-43
G01 F300 X300.416 Y95.54 Z-43
G01 F300 X300.395 Y95.54 Z-43
G01 F300 X300.4 Y95.54 Z-43
G01 F300 X302.901 Y95.42 Z-43
G01 F300 X306.666 Y95.245 Z-43
G01 F300 X306.708 Y95.145 Z-43
G01 F300 X306.711 Y95.145 Z-43
G01 F300 X309.755 Y94.955 Z-43
G01 F300 X312.922 Y94.85 Z-43
G01 F300 X312.941 Y94.85 Z-43
G01 F300 X312.937 Y94.85 Z-43
G01 F300 X316.341 Y94.69 Z-43
G01 F300 X319.183 Y94.555 Z-43
G01 F300 X319.117 Y94.455 Z-43
G01 F300 X319.141 Y94.555 Z-43
G01 F300 X322.671 Y94.385 Z-43
G01 F300 X325.351 Y94.26 Z-43
G01 F300 X325.317 Y94.26 Z-43
G01 F300 X325.324 Y94.26 Z-43
G01 F300 X328.577 Y94.105 Z-43
G01 F300 X331.521 Y93.965 Z-43
G01 F300 X331.474 Y93.965 Z-43
G01 F300 X331.477 Y93.965 Z-43
G01 F300 X334.864 Y93.805 Z-43
G01 F300 X337.661 Y93.67 Z-43
G01 F300 X337.62 Y93.67 Z-43
G01 F300 X337.633 Y93.67 Z-43
G01 F300 X340.717 Y93.525 Z-43
G01 F300 X343.779 Y93.375 Z-43
G01 F300 X343.708 Y93.275 Z-43
G01 F300 X343.722 Y93.275 Z-43
G01 F300 X347.006 Y93.165 Z-43
G01 F300 X349.819 Y92.98 Z-43
G01 F300 X349.836 Y93.08 Z-43
G01 F300 X349.838 Y93.08 Z-43
G01 F300 X353.337 Y92.97 Z-43
G01 F300 X355.922 Y92.785 Z-43
G01 F300 X355.934 Y92.785 Z-43
G01 F300 X355.947 Y92.785 Z-43
G01 F300 X359.15 Y92.63 Z-43
G01 F300 X362.053 Y92.39 Z-43
G01 F300 X362.01 Y92.39 Z-43
G01 F300 X362.014 Y92.49 Z-43
G01 F300 X365.365 Y92.225 Z-43
G01 F300 X368.092 Y92.195 Z-43
G01 F300 X368.028 Y92.095 Z-43
G01 F300 X368.043 Y92.095 Z-43
G01 F300 X371.137 Y91.89 Z-43
G01 F300 X374.121 Y91.8 Z-43
G01 F300 X374.16 Y91.9 Z-43
G01 F300 X374.163 Y91.9 Z-43
G01 F300 X377.412 Y91.795 Z-43
G01 F300 X380.207 Y91.505 Z-43
G01 F300 X380.183 Y91.505 Z-43
G01 F300 X380.196 Y91.505 Z-43
G01 F300 X383.094 Y91.315 Z-43
G01 F300 X386.24 Y91.21 Z-43
G01 F300 X386.226 Y91.31 Z-43
G01 F300 X386.234 Y91.31 Z-43
G01 F300 X389.283 Y91.21 Z-43
G01 F300 X392.335 Y91.015 Z-43
G01 F300 X392.203 Y90.915 Z-43
G01 F300 X392.208 Y90.915 Z-43
G01 F300 X395.456 Y90.7 Z-43
G01 F300 X398.18 Y90.62 Z-43
G01 F300 X398.17 Y90.62 Z-43
G01 F300 X398.17 Y90.62 Z-43
G01 F300 X401.054 Y90.48 Z-43
G01 F300 X404.154 Y90.325 Z-43
G01 F300 X404.143 Y90.425 Z-43
G01 F300 X404.148 Y90.425 Z-43
G01 F300 X406.9 Y90.335 Z-43
G01 F300 X410.134 Y90.13 Z-43
G01 F300 X410.07 Y90.03 Z-43
G01 F300 X410.071 Y90.03 Z-43
G01 F300 X413.713 Y89.785 Z-43
G01 F300 X415.942 Y89.635 Z-43
G01 F300 X415.991 Y89.835 Z-43
G01 F300 X415.992 Y89.835 Z-43
G01 F300 X418.424 Y89.755 Z-43
G01 F300 X421.896 Y89.54 Z-43
G01 F300 X421.9 Y89.54 Z-43
G01 F300 X421.904 Y89.54 Z-43
G01 F300 X425.245 Y89.375 Z-43
G01 F300 X427.81 Y89.345 Z-43
G01 F300 X427.806 Y89.345 Z-43
G01 F300 X427.81 Y89.345 Z-43
G01 F300 X430.812 Y89.245 Z-43
G01 F300 X433.688 Y89.05 Z-43
G01 F300 X433.687 Y89.05 Z-43
G01 F300 X433.688 Y89.05 Z-43
G01 F300 X437.337 Y88.865 Z-43
G01 F300 X439.554 Y88.855 Z-43
G01 F300 X439.555 Y88.855 Z-43
G01 F300 X439.559 Y88.855 Z-43
G01 F300 X442.661 Y88.75 Z-43
G01 F300 X445.389 Y88.56 Z-43
G01 F300 X444.84 Y88.56 Z-43
G01 F300 X445.421 Y88.56 Z-43
G01 F300 X448.691 Y88.375 Z-43
G01 F300 X450.791 Y88.365 Z-43
G01 F300 X451.195 Y88.265 Z-43
G01 F300 X451.2 Y88.265 Z-43
G01 F300 X454.353 Y88.105 Z-43
G01 F300 X456.566 Y87.97 Z-43
G01 F300 X457.05 Y87.97 Z-43
G01 F300 X457.062 Y87.97 Z-43
G01 F300 X460.393 Y87.9 Z-43
G01 F300 X462.729 Y87.775 Z-43
G01 F300 X462.868 Y87.675 Z-43
G01 F300 X466.365 Y87.495 Z-43
G01 F300 X468.617 Y87.48 Z-43
G01 F300 X468.248 Y87.48 Z-43
G01 F300 X471.352 Y87.37 Z-43
G01 F300 X473.599 Y87.185 Z-43
G01 F300 X473.628 Y87.185 Z-43
G01 F300 X476.146 Y87.04 Z-43
G01 F300 X478.951 Y86.89 Z-43
G01 F300 X478.781 Y86.89 Z-43
G01 F300 X478.785 Y86.89 Z-43
G01 F300 X481.665 Y86.725 Z-43
G01 F300 X483.951 Y86.595 Z-43
G01 F300 X483.961 Y86.695 Z-43
M5 (Switch off the torch)
G0 Z0
G0 X0 Y0 Z0
