(G-Code file generated by CNCWeld)
$H(Home before doing anything)
G0(quickly) X1.89361 Y110.21 Z0
G0(quickly) X1.89361 Y110.21 Z-60
M3 (Switch on the torch)
G01 F300 X5.47764 Y110.355 Z-43
G01 F300 X7.00232 Y110.015 Z-43
G01 F300 X7.02208 Y110.015 Z-43
G01 F300 X7.02366 Y110.015 Z-43
G01 F300 X9.87047 Y109.935 Z-43
G01 F300 X14.0473 Y109.72 Z-43
G01 F300 X14.0223 Y109.62 Z-43
G01 F300 X14.0198 Y109.62 Z-43
G01 F300 X17.0621 Y109.45 Z-43
G01 F300 X20.3597 Y109.36 Z-43
G01 F300 X21.0137 Y109.325 Z-43
G01 F300 X21.0071 Y109.325 Z-43
G01 F300 X24.2026 Y109.19 Z-43
G01 F300 X27.5764 Y109.045 Z-43
G01 F300 X27.9758 Y108.93 Z-43
G01 F300 X27.9621 Y108.93 Z-43
G01 F300 X30.9051 Y108.765 Z-43
G01 F300 X33.8587 Y108.595 Z-43
G01 F300 X34.9371 Y108.635 Z-43
G01 F300 X34.9196 Y108.635 Z-43
G01 F300 X38.4708 Y108.385 Z-43
G01 F300 X41.4256 Y108.26 Z-43
G01 F300 X41.9437 Y108.24 Z-43
G01 F300 X41.9278 Y108.24 Z-43
G01 F300 X45.2241 Y108.055 Z-43
G01 F300 X48.8903 Y107.845 Z-43
G01 F300 X48.9035 Y107.945 Z-43
G01 F300 X48.913 Y107.945 Z-43
G01 F300 X51.9924 Y107.815 Z-43
G01 F300 X55.8124 Y107.65 Z-43
G01 F300 X55.8433 Y107.45 Z-43
G01 F300 X55.7984 Y107.45 Z-43
G01 F300 X58.7377 Y107.24 Z-43
G01 F300 X62.6593 Y107.155 Z-43
G01 F300 X62.7628 Y107.255 Z-43
G01 F300 X62.7469 Y107.255 Z-43
G01 F300 X65.3317 Y107.185 Z-43
G01 F300 X69.6345 Y106.86 Z-43
G01 F300 X69.686 Y106.96 Z-43
G01 F300 X69.677 Y106.96 Z-43
G01 F300 X72.769 Y106.83 Z-43
G01 F300 X76.6208 Y106.565 Z-43
G01 F300 X76.6033 Y106.565 Z-43
G01 F300 X76.5897 Y106.565 Z-43
G01 F300 X79.4702 Y106.4 Z-43
G01 F300 X83.2404 Y106.285 Z-43
G01 F300 X83.5285 Y106.37 Z-43
G01 F300 X83.5126 Y106.27 Z-43
G01 F300 X86.159 Y106.155 Z-43
G01 F300 X90.454 Y105.975 Z-43
G01 F300 X90.476 Y105.975 Z-43
G01 F300 X90.4667 Y105.975 Z-43
G01 F300 X93.2937 Y105.855 Z-43
G01 F300 X97.0628 Y105.695 Z-43
G01 F300 X97.4308 Y105.68 Z-43
G01 F300 X97.4262 Y105.58 Z-43
G01 F300 X100.043 Y105.43 Z-43
G01 F300 X104.42 Y105.285 Z-43
G01 F300 X104.351 Y105.285 Z-43
G01 F300 X104.338 Y105.285 Z-43
G01 F300 X107.134 Y105.165 Z-43
G01 F300 X110.6 Y105.02 Z-43
G01 F300 X111.295 Y104.89 Z-43
G01 F300 X111.284 Y104.89 Z-43
G01 F300 X114.752 Y104.69 Z-43
G01 F300 X118.099 Y104.5 Z-43
G01 F300 X118.214 Y104.595 Z-43
G01 F300 X118.201 Y104.595 Z-43
G01 F300 X121.052 Y104.475 Z-43
G01 F300 X124.793 Y104.315 Z-43
G01 F300 X125.094 Y104.3 Z-43
G01 F300 X125.084 Y104.3 Z-43
G01 F300 X128.083 Y104.17 Z-43
G01 F300 X132.014 Y104.005 Z-43
G01 F300 X131.97 Y103.905 Z-43
G01 F300 X131.959 Y103.905 Z-43
G01 F300 X135.402 Y103.705 Z-43
G01 F300 X138.828 Y103.61 Z-43
G01 F300 X138.869 Y103.61 Z-43
G01 F300 X138.852 Y103.61 Z-43
G01 F300 X141.703 Y103.49 Z-43
G01 F300 X145.432 Y103.325 Z-43
G01 F300 X145.701 Y103.215 Z-43
G01 F300 X145.677 Y103.315 Z-43
G01 F300 X148.3 Y103.2 Z-43
G01 F300 X152.57 Y103.02 Z-43
G01 F300 X152.526 Y102.92 Z-43
G01 F300 X152.529 Y102.92 Z-43
G01 F300 X155.305 Y102.76 Z-43
G01 F300 X159.006 Y102.545 Z-43
G01 F300 X159.415 Y102.625 Z-43
G01 F300 X159.399 Y102.625 Z-43
G01 F300 X162.747 Y102.48 Z-43
G01 F300 X166.256 Y102.23 Z-43
G01 F300 X166.221 Y102.33 Z-43
G01 F300 X166.209 Y102.33 Z-43
G01 F300 X169.706 Y102.18 Z-43
G01 F300 X173.071 Y101.935 Z-43
G01 F300 X173.041 Y101.935 Z-43
G01 F300 X173.041 Y101.935 Z-43
G01 F300 X176.344 Y101.745 Z-43
G01 F300 X179.864 Y101.54 Z-43
G01 F300 X179.891 Y101.54 Z-43
G01 F300 X179.892 Y101.54 Z-43
G01 F300 X183.341 Y101.34 Z-43
G01 F300 X185.43 Y101.215 Z-43
G01 F300 X186.727 Y101.245 Z-43
G01 F300 X186.716 Y101.245 Z-43
G01 F300 X188.166 Y101.18 Z-43
G01 F300 X193.207 Y100.86 Z-43
G01 F300 X193.503 Y100.85 Z-43
G01 F300 X193.503 Y100.85 Z-43
G01 F300 X196.894 Y100.655 Z-43
G01 F300 X200.325 Y100.555 Z-43
G01 F300 X200.277 Y100.555 Z-43
G01 F300 X200.291 Y100.555 Z-43
G01 F300 X203.484 Y100.415 Z-43
G01 F300 X206.865 Y100.27 Z-43
G01 F300 X207.123 Y100.26 Z-43
G01 F300 X207.121 Y100.26 Z-43
G01 F300 X210.023 Y100.135 Z-43
G01 F300 X212.175 Y99.94 Z-43
G01 F300 X213.853 Y99.965 Z-43
G01 F300 X213.856 Y99.965 Z-43
G01 F300 X217.357 Y99.81 Z-43
G01 F300 X219.131 Y99.735 Z-43
G01 F300 X220.627 Y99.57 Z-43
G01 F300 X220.635 Y99.57 Z-43
G01 F300 X223.831 Y99.385 Z-43
G01 F300 X226.713 Y99.31 Z-43
G01 F300 X227.368 Y99.275 Z-43
G01 F300 X227.377 Y99.275 Z-43
G01 F300 X230.161 Y99.155 Z-43
G01 F300 X234.09 Y98.98 Z-43
G01 F300 X234.089 Y98.88 Z-43
G01 F300 X234.104 Y98.88 Z-43
G01 F300 X237.055 Y98.705 Z-43
G01 F300 X240.835 Y98.585 Z-43
G01 F300 X240.819 Y98.585 Z-43
G01 F300 X240.831 Y98.585 Z-43
G01 F300 X243.461 Y98.47 Z-43
G01 F300 X246.825 Y98.32 Z-43
G01 F300 X247.545 Y98.19 Z-43
G01 F300 X247.55 Y98.19 Z-43
G01 F300 X251.129 Y97.98 Z-43
G01 F300 X254.259 Y97.895 Z-43
G01 F300 X254.312 Y97.895 Z-43
G01 F300 X254.309 Y97.895 Z-43
G01 F300 X256.564 Y97.795 Z-43
G01 F300 X260.715 Y97.615 Z-43
G01 F300 X261.014 Y97.6 Z-43
G01 F300 X261.015 Y97.6 Z-43
G01 F300 X264.265 Y97.455 Z-43
G01 F300 X267.676 Y97.305 Z-43
G01 F300 X267.625 Y97.305 Z-43
G01 F300 X267.634 Y97.305 Z-43
G01 F300 X271.039 Y97.155 Z-43
G01 F300 X273.653 Y97.04 Z-43
G01 F300 X274.25 Y96.91 Z-43
G01 F300 X274.263 Y96.91 Z-43
G01 F300 X276.742 Y96.76 Z-43
G01 F300 X280.961 Y96.515 Z-43
G01 F300 X280.861 Y96.615 Z-43
G01 F300 X280.863 Y96.615 Z-43
G01 F300 X284.319 Y96.46 Z-43
G01 F300 X287.513 Y96.32 Z-43
G01 F300 X287.5 Y96.32 Z-43
G01 F300 X290.41 Y96.19 Z-43
G01 F300 X294.128 Y96.025 Z-43
G01 F300 X294.132 Y96.025 Z-43
G01 F300 X294.134 Y96.025 Z-43
G01 F300 X296.689 Y95.91 Z-43
G01 F300 X300.736 Y95.73 Z-43
G01 F300 X300.729 Y95.73 Z-43
G01 F300 X300.739 Y95.73 Z-43
G01 F300 X303.471 Y95.61 Z-43
G01 F300 X307.363 Y95.435 Z-43
G01 F300 X307.324 Y95.335 Z-43
G01 F300 X307.337 Y95.335 Z-43
G01 F300 X309.33 Y95.215 Z-43
G01 F300 X313.931 Y95.04 Z-43
G01 F300 X313.899 Y95.14 Z-43
G01 F300 X313.918 Y95.14 Z-43
G01 F300 X316.923 Y95.05 Z-43
G01 F300 X320.495 Y94.845 Z-43
G01 F300 X320.475 Y94.745 Z-43
G01 F300 X320.469 Y94.745 Z-43
G01 F300 X323.602 Y94.555 Z-43
G01 F300 X327.06 Y94.45 Z-43
G01 F300 X327.007 Y94.45 Z-43
G01 F300 X327.019 Y94.45 Z-43
G01 F300 X330.416 Y94.295 Z-43
G01 F300 X333.552 Y94.055 Z-43
G01 F300 X333.576 Y94.155 Z-43
G01 F300 X333.578 Y94.155 Z-43
G01 F300 X336.808 Y94.01 Z-43
G01 F300 X339.564 Y93.885 Z-43
G01 F300 X340.092 Y93.86 Z-43
G01 F300 X340.102 Y93.86 Z-43
G01 F300 X342.948 Y93.73 Z-43
G01 F300 X346.302 Y93.475 Z-43
G01 F300 X346.586 Y93.465 Z-43
G01 F300 X346.588 Y93.465 Z-43
G01 F300 X350.033 Y93.255 Z-43
G01 F300 X353.08 Y93.17 Z-43
G01 F300 X353.113 Y93.27 Z-43
G01 F300 X353.113 Y93.27 Z-43
G01 F300 X356.265 Y93.175 Z-43
G01 F300 X359.18 Y92.89 Z-43
G01 F300 X359.624 Y92.875 Z-43
G01 F300 X359.626 Y92.875 Z-43
G01 F300 X362.52 Y92.7 Z-43
G01 F300 X366.116 Y92.48 Z-43
G01 F300 X366.106 Y92.58 Z-43
G01 F300 X366.102 Y92.58 Z-43
G01 F300 X369.15 Y92.44 Z-43
G01 F300 X372.575 Y92.285 Z-43
G01 F300 X372.581 Y92.185 Z-43
G01 F300 X372.577 Y92.185 Z-43
G01 F300 X375.823 Y91.985 Z-43
G01 F300 X378.328 Y91.935 Z-43
G01 F300 X379.043 Y91.89 Z-43
G01 F300 X379.043 Y91.89 Z-43
G01 F300 X381.916 Y91.76 Z-43
G01 F300 X385.488 Y91.595 Z-43
G01 F300 X385.458 Y91.595 Z-43
G01 F300 X385.417 Y91.695 Z-43
G01 F300 X388.516 Y91.6 Z-43
G01 F300 X391.865 Y91.3 Z-43
G01 F300 X391.845 Y91.4 Z-43
G01 F300 X391.843 Y91.4 Z-43
G01 F300 X395.436 Y91.235 Z-43
G01 F300 X398.178 Y91.105 Z-43
G01 F300 X398.231 Y90.905 Z-43
G01 F300 X398.226 Y91.005 Z-43
G01 F300 X401.502 Y90.8 Z-43
G01 F300 X404.662 Y90.61 Z-43
G01 F300 X404.635 Y90.71 Z-43
G01 F300 X407.771 Y90.565 Z-43
G01 F300 X410.987 Y90.315 Z-43
G01 F300 X410.996 Y90.315 Z-43
G01 F300 X414.338 Y90.105 Z-43
G01 F300 X417.429 Y89.92 Z-43
G01 F300 X417.402 Y90.12 Z-43
G01 F300 X417.397 Y90.12 Z-43
G01 F300 X420.946 Y90.01 Z-43
G01 F300 X423.778 Y89.825 Z-43
G01 F300 X423.78 Y89.725 Z-43
G01 F300 X423.772 Y89.825 Z-43
G01 F300 X427.021 Y89.675 Z-43
G01 F300 X430.117 Y89.63 Z-43
G01 F300 X430.166 Y89.43 Z-43
G01 F300 X430.162 Y89.43 Z-43
G01 F300 X433.139 Y89.245 Z-43
G01 F300 X436.536 Y89.135 Z-43
G01 F300 X436.579 Y89.235 Z-43
G01 F300 X436.572 Y89.235 Z-43
G01 F300 X439.675 Y89.14 Z-43
G01 F300 X442.536 Y88.95 Z-43
G01 F300 X442.905 Y88.84 Z-43
G01 F300 X442.901 Y88.84 Z-43
G01 F300 X446.046 Y88.645 Z-43
G01 F300 X449.241 Y88.645 Z-43
G01 F300 X449.252 Y88.645 Z-43
G01 F300 X449.246 Y88.645 Z-43
G01 F300 X452.1 Y88.555 Z-43
G01 F300 X455.117 Y88.25 Z-43
G01 F300 X455.195 Y88.25 Z-43
G01 F300 X458.237 Y88.05 Z-43
G01 F300 X461.512 Y87.955 Z-43
G01 F300 X461.517 Y87.955 Z-43
G01 F300 X461.513 Y87.955 Z-43
G01 F300 X464.208 Y87.83 Z-43
G01 F300 X467.818 Y87.66 Z-43
G01 F300 X467.407 Y87.66 Z-43
G01 F300 X467.839 Y87.66 Z-43
G01 F300 X470.971 Y87.515 Z-43
G01 F300 X473.699 Y87.365 Z-43
G01 F300 X473.728 Y87.365 Z-43
G01 F300 X476.728 Y87.215 Z-43
G01 F300 X479.421 Y87.07 Z-43
G01 F300 X479.558 Y87.07 Z-43
G01 F300 X482.623 Y86.905 Z-43
M5 (Switch off the torch)
G0 Z0
G0 X0 Y0 Z0
