(G-code generated by PY program(v1.03) developed by Mike Mak)
(Text: 2022)
$H
G17G21G90G94G54
G0X0Y0F300
M5 (stop fire)
G0Z-90.00 
G0 X95.00 Y72.50 
G0Z-115.00 
M3 (Start fire)
G1 X98.30 Y76.30
G1 X102.50 Y79.10
G1 X107.10 Y80.80
G1 X112.10 Y81.40
G1 X118.70 Y80.30
G1 X124.00 Y76.90
G1 X127.30 Y71.70
G1 X128.60 Y65.00
G1 X126.90 Y58.10
G1 X121.80 Y51.80
G1 X108.00 Y40.60
G1 X102.70 Y33.30
G1 X95.70 Y20.00
G1 X128.10 Y20.00
M5 (stop fire)
G0Z-90.00 
G0 X170.20 Y81.40 
G0Z-115.00 
M3 (Start fire)
G1 X179.40 Y78.90
G1 X186.30 Y72.20
G1 X190.50 Y62.20
G1 X192.00 Y50.20
G1 X190.50 Y38.20
G1 X186.20 Y28.20
G1 X179.40 Y21.40
G1 X170.20 Y18.90
G1 X161.10 Y21.40
G1 X154.30 Y28.20
G1 X150.00 Y38.20
G1 X148.60 Y50.20
G1 X150.00 Y62.10
G1 X154.20 Y72.10
G1 X161.00 Y78.90
G1 X170.20 Y81.40
M5 (stop fire)
G0Z-90.00 
G0 X212.00 Y72.50 
G0Z-115.00 
M3 (Start fire)
G1 X215.30 Y76.30
G1 X219.50 Y79.10
G1 X224.10 Y80.80
G1 X229.10 Y81.40
G1 X235.70 Y80.30
G1 X241.00 Y76.90
G1 X244.30 Y71.70
G1 X245.60 Y65.00
G1 X243.90 Y58.10
G1 X238.80 Y51.80
G1 X225.00 Y40.60
G1 X219.70 Y33.30
G1 X212.70 Y20.00
G1 X245.10 Y20.00
M5 (stop fire)
G0Z-90.00 
G0 X265.60 Y72.50 
G0Z-115.00 
M3 (Start fire)
G1 X268.90 Y76.30
G1 X273.10 Y79.10
G1 X277.70 Y80.80
G1 X282.70 Y81.40
G1 X289.30 Y80.30
G1 X294.60 Y76.90
G1 X297.90 Y71.70
G1 X299.20 Y65.00
G1 X297.50 Y58.10
G1 X292.40 Y51.80
G1 X278.60 Y40.60
G1 X273.30 Y33.30
G1 X266.30 Y20.00
G1 X298.70 Y20.00
M5
G0Z0
G01F2000 X0 Y0
