(G-Code file generated by CNCWeld)
$H(Home before doing anything)
G0(quickly) X161.382 Y98.09 Z0
G0(quickly) X161.382 Y98.09 Z-57
M3 (Switch on the torch)
G04 P2
G01 F300 X165.404 Y97.795 Z-57
G01 F300 X166.395 Y97.84 Z-57
G01 F300 X166.398 Y97.84 Z-57
G01 F300 X169.137 Y97.7 Z-57
G01 F300 X173.774 Y97.47 Z-57
G01 F300 X177.15 Y97.3 Z-57
G01 F300 X181.265 Y97.19 Z-57
G01 F300 X185.075 Y97.095 Z-57
G01 F300 X188.805 Y97 Z-57
G01 F300 X192.296 Y96.73 Z-57
G01 F300 X194.213 Y96.445 Z-57
G01 F300 X194.239 Y96.445 Z-57
G01 F300 X194.239 Y96.445 Z-57
G01 F300 X197.089 Y96.3 Z-57
G01 F300 X200.726 Y95.93 Z-57
G01 F300 X205.791 Y95.675 Z-57
G01 F300 X209.214 Y95.505 Z-57
G01 F300 X212.227 Y95.36 Z-57
G01 F300 X217.192 Y95.105 Z-57
G01 F300 X220.86 Y95.11 Z-57
G01 F300 X221.936 Y95.15 Z-57
G01 F300 X221.964 Y95.15 Z-57
G01 F300 X221.968 Y95.15 Z-57
G01 F300 X224.906 Y95.01 Z-57
G01 F300 X229.112 Y94.915 Z-57
G01 F300 X232.909 Y94.735 Z-57
G01 F300 X236.676 Y94.555 Z-57
G01 F300 X240.545 Y94.375 Z-57
G01 F300 X244.782 Y94.08 Z-57
G01 F300 X248.654 Y93.9 Z-57
G01 F300 X249.573 Y93.955 Z-57
G01 F300 X249.546 Y93.955 Z-57
G01 F300 X252.72 Y93.815 Z-57
G01 F300 X256.522 Y93.65 Z-57
G01 F300 X260.448 Y93.385 Z-57
G01 F300 X264.624 Y93.2 Z-57
G01 F300 X268.027 Y92.955 Z-57
G01 F300 X271.877 Y92.79 Z-57
G01 F300 X275.698 Y92.62 Z-57
G01 F300 X277.079 Y92.56 Z-57
G01 F300 X277.079 Y92.56 Z-57
G01 F300 X280.076 Y92.41 Z-57
G01 F300 X283.949 Y92.215 Z-57
G01 F300 X288.141 Y92 Z-57
G01 F300 X291.93 Y91.905 Z-57
G01 F300 X295.76 Y91.71 Z-57
G01 F300 X299.199 Y91.54 Z-57
G01 F300 X303.743 Y91.405 Z-57
G01 F300 X304.505 Y91.365 Z-57
G01 F300 X304.513 Y91.365 Z-57
G01 F300 X304.492 Y91.365 Z-57
G01 F300 X307.643 Y91.23 Z-57
G01 F300 X311.539 Y90.96 Z-57
G01 F300 X315.365 Y90.79 Z-57
G01 F300 X319.553 Y90.61 Z-57
G01 F300 X323.438 Y90.34 Z-57
G01 F300 X327.235 Y90.275 Z-57
G01 F300 X330.448 Y90.225 Z-57
G01 F300 X331.79 Y90.07 Z-57
G01 F300 X331.819 Y90.07 Z-57
G01 F300 X331.806 Y90.07 Z-57
G01 F300 X335.058 Y89.915 Z-57
G01 F300 X338.917 Y89.735 Z-57
G01 F300 X342.813 Y89.55 Z-57
G01 F300 X346.174 Y89.29 Z-57
G01 F300 X350.805 Y89.07 Z-57
G01 F300 X354.735 Y88.785 Z-57
G01 F300 X358.603 Y88.605 Z-57
G01 F300 X359.178 Y88.675 Z-57
G01 F300 X359.179 Y88.575 Z-57
G01 F300 X362.207 Y88.41 Z-57
G01 F300 X366.072 Y88.3 Z-57
G01 F300 X370.202 Y88.07 Z-57
G01 F300 X374.045 Y87.86 Z-57
G01 F300 X377.863 Y87.75 Z-57
G01 F300 X381.228 Y87.465 Z-57
G01 F300 X385.421 Y87.335 Z-57
G01 F300 X386.418 Y87.28 Z-57
G01 F300 X386.421 Y87.28 Z-57
G01 F300 X390.063 Y87.105 Z-57
G01 F300 X393.522 Y86.945 Z-57
G01 F300 X397.26 Y86.76 Z-57
G01 F300 X401.116 Y86.58 Z-57
G01 F300 X405.293 Y86.38 Z-57
G01 F300 X409 Y86.395 Z-57
G01 F300 X412.968 Y86.115 Z-57
G01 F300 X413.617 Y85.985 Z-57
G01 F300 X413.605 Y85.985 Z-57
G01 F300 X417.148 Y85.815 Z-57
G01 F300 X421.021 Y85.535 Z-57
G01 F300 X424.424 Y85.37 Z-57
G01 F300 X428.605 Y85.17 Z-57
G01 F300 X432.419 Y84.99 Z-57
G01 F300 X436.174 Y84.805 Z-57
G01 F300 X439.576 Y84.64 Z-57
G01 F300 X440.626 Y84.59 Z-57
G01 F300 X440.603 Y84.59 Z-57
G01 F300 X443.606 Y84.435 Z-57
G01 F300 X446.957 Y84.36 Z-57
G01 F300 X451.621 Y84.12 Z-57
G01 F300 X455.421 Y83.92 Z-57
G01 F300 X458.917 Y83.645 Z-57
G01 F300 X463.159 Y83.42 Z-57
G01 F300 X466.767 Y83.33 Z-57
G01 F300 X467.402 Y83.295 Z-57
G01 F300 X467.416 Y83.295 Z-57
G01 F300 X470.065 Y83.165 Z-57
G01 F300 X474.56 Y83.145 Z-57
G01 F300 X478.292 Y83.155 Z-57
M5 (Switch off the torch)
G0 Z0
G0 X0 Y0 Z0
