(G-Code file generated by CNCWeld)
$H(Home before doing anything)
G0(quickly) X1.76805 Y109.91 Z-43
M3 (Switch on the torch)
G01 F300 X4.95782 Y110 Z-43
G01 F300 X8.29744 Y109.79 Z-43
G01 F300 X12.1892 Y109.475 Z-43
G01 F300 X16.7938 Y109.26 Z-43
G01 F300 X20.7235 Y108.95 Z-43
G01 F300 X24.9292 Y108.735 Z-43
G01 F300 X28.786 Y108.425 Z-43
G01 F300 X31.7885 Y108.115 Z-43
G01 F300 X31.8176 Y108.015 Z-43
G01 F300 X31.8196 Y108.015 Z-43
G01 F300 X35.1157 Y107.82 Z-43
G01 F300 X38.5223 Y107.515 Z-43
G01 F300 X42.8211 Y107.26 Z-43
G01 F300 X46.9884 Y107.015 Z-43
G01 F300 X50.848 Y106.68 Z-43
G01 F300 X54.7202 Y106.455 Z-43
G01 F300 X58.1359 Y106.15 Z-43
G01 F300 X61.5348 Y105.95 Z-43
G01 F300 X63.7047 Y105.82 Z-43
G01 F300 X63.6795 Y105.82 Z-43
G01 F300 X67.0779 Y105.585 Z-43
G01 F300 X70.4623 Y105.35 Z-43
G01 F300 X74.7963 Y105.055 Z-43
G01 F300 X78.6322 Y104.79 Z-43
G01 F300 X82.8368 Y104.505 Z-43
G01 F300 X86.6693 Y104.24 Z-43
G01 F300 X90.0561 Y104.005 Z-43
G01 F300 X93.496 Y103.77 Z-43
G01 F300 X95.5931 Y103.525 Z-43
G01 F300 X95.6044 Y103.525 Z-43
G01 F300 X99.021 Y103.28 Z-43
G01 F300 X102.908 Y103.005 Z-43
G01 F300 X106.269 Y102.76 Z-43
G01 F300 X110.131 Y102.585 Z-43
G01 F300 X114.345 Y102.18 Z-43
G01 F300 X116.479 Y102.125 Z-43
G01 F300 X122.049 Y101.73 Z-43
G01 F300 X126.233 Y101.43 Z-43
G01 F300 X127.58 Y101.33 Z-43
G01 F300 X127.596 Y101.43 Z-43
G01 F300 X129.988 Y101.275 Z-43
G01 F300 X135.104 Y100.84 Z-43
G01 F300 X138.466 Y100.615 Z-43
G01 F300 X142.324 Y100.365 Z-43
G01 F300 X145.694 Y100.145 Z-43
G01 F300 X149.102 Y99.92 Z-43
G01 F300 X154.183 Y99.49 Z-43
G01 F300 X158.008 Y99.235 Z-43
G01 F300 X159.573 Y99.135 Z-43
G01 F300 X159.641 Y99.135 Z-43
G01 F300 X162.235 Y98.95 Z-43
G01 F300 X166.455 Y98.64 Z-43
G01 F300 X170.662 Y98.34 Z-43
G01 F300 X174.522 Y98.165 Z-43
G01 F300 X178.35 Y97.89 Z-43
G01 F300 X182.145 Y97.625 Z-43
G01 F300 X186.404 Y97.315 Z-43
G01 F300 X189.819 Y97.075 Z-43
G01 F300 X191.684 Y96.94 Z-43
G01 F300 X191.681 Y96.94 Z-43
G01 F300 X195.378 Y96.685 Z-43
G01 F300 X198.75 Y96.455 Z-43
G01 F300 X202.933 Y96.17 Z-43
G01 F300 X206.81 Y95.905 Z-43
G01 F300 X210.658 Y95.64 Z-43
G01 F300 X214.523 Y95.375 Z-43
G01 F300 X218.23 Y95.12 Z-43
G01 F300 X222.12 Y94.855 Z-43
G01 F300 X223.732 Y94.745 Z-43
G01 F300 X223.709 Y94.745 Z-43
G01 F300 X226.212 Y94.575 Z-43
G01 F300 X230.891 Y94.255 Z-43
G01 F300 X234.74 Y93.99 Z-43
G01 F300 X238.134 Y93.76 Z-43
G01 F300 X242.809 Y93.44 Z-43
G01 F300 X246.555 Y93.18 Z-43
G01 F300 X249.513 Y92.975 Z-43
G01 F300 X253.824 Y92.68 Z-43
G01 F300 X255.756 Y92.55 Z-43
G01 F300 X255.796 Y92.55 Z-43
G01 F300 X258.835 Y92.34 Z-43
G01 F300 X262.219 Y92.11 Z-43
G01 F300 X266.891 Y91.79 Z-43
G01 F300 X270.688 Y91.53 Z-43
G01 F300 X273.697 Y91.325 Z-43
G01 F300 X278.727 Y90.98 Z-43
G01 F300 X281.311 Y90.8 Z-43
G01 F300 X286.485 Y90.455 Z-43
G01 F300 X287.964 Y90.255 Z-43
G01 F300 X287.96 Y90.255 Z-43
G01 F300 X291.602 Y89.995 Z-43
G01 F300 X294.531 Y89.785 Z-43
G01 F300 X299.219 Y89.555 Z-43
G01 F300 X303.03 Y89.28 Z-43
G01 F300 X306.872 Y89.005 Z-43
G01 F300 X310.264 Y88.765 Z-43
G01 F300 X313.963 Y88.5 Z-43
G01 F300 X318.298 Y88.19 Z-43
G01 F300 X320.099 Y88.06 Z-43
G01 F300 X320.136 Y88.06 Z-43
G01 F300 X322.464 Y87.9 Z-43
G01 F300 X327.122 Y87.585 Z-43
G01 F300 X331.025 Y87.32 Z-43
G01 F300 X334.344 Y87.09 Z-43
G01 F300 X339.033 Y86.675 Z-43
G01 F300 X342.86 Y86.41 Z-43
G01 F300 X346.262 Y86.18 Z-43
G01 F300 X350.098 Y85.92 Z-43
G01 F300 X352.311 Y85.765 Z-43
G01 F300 X352.333 Y85.765 Z-43
G01 F300 X355.486 Y85.54 Z-43
G01 F300 X358.813 Y85.305 Z-43
G01 F300 X363.558 Y84.87 Z-43
G01 F300 X367.319 Y84.6 Z-43
G01 F300 X370.727 Y84.455 Z-43
G01 F300 X374.584 Y84.185 Z-43
G01 F300 X378.783 Y83.885 Z-43
G01 F300 X383.078 Y83.58 Z-43
G01 F300 X384.556 Y83.37 Z-43
G01 F300 X384.578 Y83.47 Z-43
G01 F300 X388.12 Y83.22 Z-43
G01 F300 X391.537 Y82.975 Z-43
G01 F300 X395.356 Y82.705 Z-43
G01 F300 X399.227 Y82.43 Z-43
G01 F300 X403.468 Y82.13 Z-43
G01 F300 X406.784 Y81.99 Z-43
G01 F300 X411.115 Y81.685 Z-43
G01 F300 X414.495 Y81.445 Z-43
G01 F300 X416.856 Y81.275 Z-43
G01 F300 X416.863 Y81.275 Z-43
G01 F300 X420.006 Y81.06 Z-43
G01 F300 X423.396 Y80.83 Z-43
G01 F300 X427.559 Y80.545 Z-43
G01 F300 X431.402 Y80.285 Z-43
G01 F300 X435.702 Y79.99 Z-43
G01 F300 X439.088 Y79.76 Z-43
G01 F300 X442.155 Y79.46 Z-43
G01 F300 X447.209 Y79.115 Z-43
G01 F300 X449.257 Y78.98 Z-43
G01 F300 X449.225 Y78.98 Z-43
G01 F300 X452.373 Y78.755 Z-43
G01 F300 X456.169 Y78.385 Z-43
G01 F300 X460.07 Y78.21 Z-43
G01 F300 X464.35 Y77.815 Z-43
G01 F300 X467.263 Y77.7 Z-43
G01 F300 X471.905 Y77.37 Z-43
M5 (Switch off the torch)
G0 X0 Y0 Z0
