(G-Code file generated by CNCWeld)
$H(Home before doing anything)
G0(quickly) X3.06785 Y119.61 Z0
G0(quickly) X3.06785 Y119.61 Z-61
M3 (Switch on the torch)
G04 P1 (Wait 1 second for Arc to start)
G01 F300 X3.58127 Y117.34 Z-61
G01 F300 X4.76433 Y115.585 Z-61
G01 F300 X5.46855 Y115.05 Z-61
G01 F300 X6.3144 Y114.615 Z-61
G01 F300 X7.11169 Y114.275 Z-61
G01 F300 X7.94189 Y113.74 Z-61
G01 F300 X8.04818 Y115.715 Z-61
G01 F300 X8.04909 Y115.715 Z-61
G01 F300 X10.0814 Y114.125 Z-61
G01 F300 X11.9332 Y112.965 Z-61
G01 F300 X13.097 Y112.22 Z-61
G01 F300 X13.0931 Y112.22 Z-61
G01 F300 X15.4172 Y110.51 Z-61
G01 F300 X16.4349 Y109.895 Z-61
G01 F300 X18.2019 Y108.625 Z-61
G01 F300 X18.2085 Y108.625 Z-61
G01 F300 X20.6146 Y106.925 Z-61
G01 F300 X23.3557 Y104.73 Z-61
G01 F300 X23.2422 Y104.83 Z-61
G01 F300 X23.2268 Y104.83 Z-61
G01 F300 X25.6743 Y102.985 Z-61
G01 F300 X28.2679 Y101.435 Z-61
G01 F300 X28.203 Y101.735 Z-61
G01 F300 X28.2002 Y101.735 Z-61
G01 F300 X30.0534 Y100.58 Z-61
G01 F300 X33.0631 Y98.24 Z-61
G01 F300 X33.1439 Y98.34 Z-61
G01 F300 X33.1344 Y98.34 Z-61
G01 F300 X36.0689 Y96.32 Z-61
G01 F300 X38.0381 Y94.945 Z-61
G01 F300 X38.0496 Y95.145 Z-61
G01 F300 X38.0505 Y95.045 Z-61
G01 F300 X38.0428 Y95.145 Z-61
G01 F300 X42.9649 Y91.95 Z-61
G01 F300 X43.0121 Y92.05 Z-61
G01 F300 X43.0039 Y92.05 Z-61
G01 F300 X44.25 Y91.3 Z-61
G01 F300 X47.9376 Y88.455 Z-61
G01 F300 X47.8924 Y88.655 Z-61
G01 F300 X47.8915 Y88.655 Z-61
G01 F300 X50.2163 Y87.04 Z-61
G01 F300 X52.6939 Y85.76 Z-61
G01 F300 X52.7756 Y86.06 Z-61
G01 F300 X52.7749 Y86.06 Z-61
G01 F300 X55.4951 Y84.615 Z-61
G01 F300 X57.6386 Y83.065 Z-61
G01 F300 X57.5977 Y83.065 Z-61
G01 F300 X57.6093 Y83.065 Z-61
G01 F300 X60.3125 Y81.39 Z-61
G01 F300 X62.4874 Y80.675 Z-61
G01 F300 X62.4854 Y80.77 Z-61
G01 F300 X62.4949 Y80.77 Z-61
G01 F300 X62.4947 Y80.77 Z-61
G01 F300 X64.2592 Y79.94 Z-61
G01 F300 X67.3931 Y78.475 Z-61
G01 F300 X67.4487 Y78.375 Z-61
G01 F300 X67.4594 Y78.375 Z-61
G01 F300 X69.3187 Y77.47 Z-61
G01 F300 X72.3551 Y76.08 Z-61
G01 F300 X72.4071 Y75.98 Z-61
G01 F300 X72.4005 Y75.98 Z-61
G01 F300 X74.388 Y75.02 Z-61
G01 F300 X77.2483 Y73.685 Z-61
G01 F300 X77.3489 Y73.785 Z-61
G01 F300 X77.353 Y73.785 Z-61
G01 F300 X79.4628 Y72.85 Z-61
G01 F300 X82.2826 Y71.49 Z-61
G01 F300 X82.2537 Y71.49 Z-61
G01 F300 X82.2571 Y71.49 Z-61
G01 F300 X84.4735 Y70.45 Z-61
G01 F300 X87.1701 Y69.395 Z-61
G01 F300 X87.3058 Y69.395 Z-61
G01 F300 X87.3099 Y69.395 Z-61
G01 F300 X89.8138 Y68.36 Z-61
G01 F300 X92.2957 Y67.4 Z-61
G01 F300 X92.1565 Y67.9 Z-61
G01 F300 X92.159 Y67.8 Z-61
G01 F300 X94.9627 Y66.98 Z-61
G01 F300 X97.0508 Y66.105 Z-61
G01 F300 X96.9421 Y66.305 Z-61
G01 F300 X96.9368 Y66.305 Z-61
G01 F300 X98.8 Y65.72 Z-61
G01 F300 X101.816 Y64.91 Z-61
G01 F300 X101.747 Y64.91 Z-61
G01 F300 X101.755 Y64.91 Z-61
G01 F300 X104.947 Y63.985 Z-61
G01 F300 X106.527 Y63.615 Z-61
G01 F300 X106.506 Y63.515 Z-61
G01 F300 X106.505 Y63.515 Z-61
G01 F300 X108.616 Y62.895 Z-61
G01 F300 X111.305 Y62.52 Z-61
G01 F300 X111.258 Y62.52 Z-61
G01 F300 X111.258 Y62.52 Z-61
G01 F300 X113.53 Y62.045 Z-61
G01 F300 X115.972 Y61.625 Z-61
G01 F300 X115.973 Y61.625 Z-61
G01 F300 X115.974 Y61.625 Z-61
G01 F300 X117.251 Y61.38 Z-61
G01 F300 X120.619 Y61.13 Z-61
G01 F300 X120.688 Y61.03 Z-61
G01 F300 X120.679 Y61.03 Z-61
G01 F300 X122.247 Y60.83 Z-61
G01 F300 X125.37 Y60.535 Z-61
G01 F300 X125.429 Y60.535 Z-61
G01 F300 X125.432 Y60.635 Z-61
G01 F300 X128.477 Y60.28 Z-61
G01 F300 X130.114 Y60.04 Z-61
G01 F300 X130.092 Y60.14 Z-61
G01 F300 X130.092 Y60.14 Z-61
G01 F300 X133.4 Y59.79 Z-61
G01 F300 X134.778 Y60.045 Z-61
G01 F300 X134.708 Y60.145 Z-61
G01 F300 X134.724 Y60.145 Z-61
G01 F300 X138.17 Y60.15 Z-61
G01 F300 X139.298 Y60.25 Z-61
G01 F300 X139.56 Y60.45 Z-61
G01 F300 X139.523 Y60.35 Z-61
G01 F300 X142.729 Y60.485 Z-61
G01 F300 X144.179 Y60.655 Z-61
G01 F300 X144.189 Y60.855 Z-61
G01 F300 X144.195 Y60.855 Z-61
G01 F300 X145.625 Y61.01 Z-61
G01 F300 X148.094 Y61.18 Z-61
G01 F300 X148.74 Y61.26 Z-61
G01 F300 X148.741 Y61.26 Z-61
G01 F300 X148.742 Y61.26 Z-61
G01 F300 X151.432 Y61.5 Z-61
G01 F300 X153.328 Y61.965 Z-61
G01 F300 X153.392 Y62.165 Z-61
G01 F300 X153.383 Y62.165 Z-61
G01 F300 X154.938 Y62.465 Z-61
G01 F300 X157.251 Y63.02 Z-61
G01 F300 X157.301 Y63.02 Z-61
G01 F300 X158.069 Y63.17 Z-61
G01 F300 X158.064 Y63.17 Z-61
G01 F300 X158.067 Y63.17 Z-61
G01 F300 X160.462 Y63.685 Z-61
G01 F300 X162.671 Y64.175 Z-61
G01 F300 X162.665 Y64.175 Z-61
G01 F300 X165.525 Y64.8 Z-61
G01 F300 X165.573 Y65 Z-61
G01 F300 X167.334 Y65.38 Z-61
G01 F300 X167.33 Y65.38 Z-61
G01 F300 X167.332 Y65.38 Z-61
G01 F300 X170.195 Y66.12 Z-61
G01 F300 X172.039 Y66.685 Z-61
G01 F300 X172.024 Y66.685 Z-61
G01 F300 X172.029 Y66.685 Z-61
G01 F300 X175.117 Y67.54 Z-61
G01 F300 X176.812 Y68.49 Z-61
G01 F300 X176.894 Y68.79 Z-61
G01 F300 X176.899 Y68.79 Z-61
G01 F300 X178.914 Y69.665 Z-61
G01 F300 X181.803 Y69.995 Z-61
G01 F300 X181.78 Y70.395 Z-61
G01 F300 X181.773 Y70.395 Z-61
G01 F300 X183.986 Y71.125 Z-61
G01 F300 X186.434 Y71.9 Z-61
G01 F300 X186.484 Y72.1 Z-61
G01 F300 X189.149 Y73.16 Z-61
G01 F300 X191.132 Y73.805 Z-61
G01 F300 X191.195 Y73.905 Z-61
G01 F300 X191.205 Y73.905 Z-61
G01 F300 X193.964 Y74.96 Z-61
G01 F300 X195.88 Y75.61 Z-61
G01 F300 X195.849 Y75.61 Z-61
G01 F300 X195.849 Y75.61 Z-61
G01 F300 X198.857 Y76.715 Z-61
G01 F300 X200.41 Y77.715 Z-61
G01 F300 X200.533 Y77.815 Z-61
G01 F300 X200.529 Y77.815 Z-61
G01 F300 X200.532 Y77.815 Z-61
G01 F300 X205.269 Y80.02 Z-61
G01 F300 X205.303 Y80.02 Z-61
G01 F300 X205.31 Y80.02 Z-61
G01 F300 X205.308 Y80.02 Z-61
G01 F300 X205.31 Y80.02 Z-61
G01 F300 X205.308 Y80.02 Z-61
G01 F300 X205.312 Y79.92 Z-61
G01 F300 X205.308 Y79.92 Z-61
G01 F300 X205.306 Y80.02 Z-61
G01 F300 X205.308 Y80.02 Z-61
G01 F300 X205.31 Y80.02 Z-61
G01 F300 X205.311 Y79.92 Z-61
G01 F300 X205.305 Y80.02 Z-61
G01 F300 X205.314 Y79.92 Z-61
G01 F300 X205.305 Y80.02 Z-61
G01 F300 X205.31 Y80.02 Z-61
G01 F300 X205.31 Y80.02 Z-61
G01 F300 X205.31 Y79.92 Z-61
G01 F300 X205.309 Y79.92 Z-61
G01 F300 X205.31 Y79.92 Z-61
G01 F300 X205.309 Y79.92 Z-61
G01 F300 X205.31 Y80.02 Z-61
G01 F300 X205.31 Y79.92 Z-61
G01 F300 X205.311 Y80.02 Z-61
G01 F300 X205.313 Y79.92 Z-61
G01 F300 X205.307 Y79.92 Z-61
G01 F300 X205.308 Y80.02 Z-61
G01 F300 X205.313 Y79.92 Z-61
G01 F300 X205.309 Y80.02 Z-61
G01 F300 X205.313 Y80.02 Z-61
G01 F300 X205.308 Y80.02 Z-61
G01 F300 X205.308 Y80.02 Z-61
G01 F300 X205.311 Y80.02 Z-61
G01 F300 X205.309 Y80.02 Z-61
G01 F300 X205.311 Y80.02 Z-61
G01 F300 X205.313 Y79.92 Z-61
G01 F300 X205.31 Y80.02 Z-61
G01 F300 X205.309 Y80.02 Z-61
G01 F300 X205.308 Y80.02 Z-61
G01 F300 X205.309 Y80.02 Z-61
G01 F300 X205.31 Y80.02 Z-61
G01 F300 X205.313 Y79.92 Z-61
G01 F300 X205.31 Y80.02 Z-61
G01 F300 X205.309 Y80.02 Z-61
G01 F300 X205.315 Y79.92 Z-61
G01 F300 X205.311 Y79.92 Z-61
G01 F300 X205.313 Y80.02 Z-61
G01 F300 X205.31 Y80.02 Z-61
G01 F300 X205.311 Y80.02 Z-61
G01 F300 X205.314 Y80.02 Z-61
G01 F300 X205.31 Y80.02 Z-61
G01 F300 X205.313 Y80.02 Z-61
G01 F300 X205.316 Y80.02 Z-61
G01 F300 X205.309 Y80.02 Z-61
G01 F300 X205.314 Y80.02 Z-61
G01 F300 X205.314 Y80.02 Z-61
G01 F300 X205.309 Y79.92 Z-61
G01 F300 X205.313 Y80.02 Z-61
G01 F300 X205.313 Y80.02 Z-61
G01 F300 X205.311 Y80.02 Z-61
G01 F300 X205.312 Y80.02 Z-61
G01 F300 X205.31 Y80.02 Z-61
G01 F300 X205.314 Y79.92 Z-61
G01 F300 X205.312 Y80.02 Z-61
G01 F300 X205.316 Y80.02 Z-61
G01 F300 X205.311 Y80.02 Z-61
G01 F300 X205.311 Y80.02 Z-61
G01 F300 X205.307 Y80.02 Z-61
G01 F300 X205.313 Y80.02 Z-61
G01 F300 X205.309 Y80.02 Z-61
G01 F300 X205.309 Y79.92 Z-61
G01 F300 X205.311 Y80.02 Z-61
G01 F300 X205.319 Y79.92 Z-61
G01 F300 X205.316 Y79.92 Z-61
G01 F300 X205.315 Y80.02 Z-61
G01 F300 X205.31 Y80.02 Z-61
G01 F300 X205.31 Y80.02 Z-61
G01 F300 X205.31 Y79.92 Z-61
G01 F300 X205.312 Y80.02 Z-61
G01 F300 X205.314 Y79.92 Z-61
G01 F300 X205.313 Y80.02 Z-61
G01 F300 X205.314 Y80.02 Z-61
G01 F300 X205.315 Y80.02 Z-61
G01 F300 X205.315 Y80.02 Z-61
G01 F300 X205.315 Y80.02 Z-61
G01 F300 X205.312 Y80.02 Z-61
G01 F300 X205.317 Y80.02 Z-61
G01 F300 X205.313 Y79.92 Z-61
G01 F300 X205.312 Y80.02 Z-61
G01 F300 X205.312 Y80.02 Z-61
G01 F300 X205.312 Y80.02 Z-61
G01 F300 X205.314 Y80.02 Z-61
G01 F300 X205.313 Y79.92 Z-61
G01 F300 X205.315 Y80.02 Z-61
