(G-Code file generated by CNCWeld)
$H(Home before doing anything)
G0(quickly) X1.75378 Y109.81 Z0
G0(quickly) X1.75378 Y109.81 Z-60
M3 (Switch on the torch)
G01 F300 X4.57311 Y109.685 Z-60
G01 F300 X6.86637 Y109.715 Z-60
G01 F300 X6.87611 Y109.615 Z-60
G01 F300 X6.86818 Y109.615 Z-60
G01 F300 X10.2145 Y109.52 Z-60
G01 F300 X13.6987 Y109.42 Z-60
G01 F300 X13.6905 Y109.32 Z-60
G01 F300 X13.7114 Y109.32 Z-60
G01 F300 X16.0125 Y109.22 Z-60
G01 F300 X20.173 Y109.04 Z-60
G01 F300 X20.5078 Y109.025 Z-60
G01 F300 X20.5246 Y109.025 Z-60
G01 F300 X24.158 Y108.87 Z-60
G01 F300 X27.279 Y108.63 Z-60
G01 F300 X27.2922 Y108.73 Z-60
G01 F300 X27.3112 Y108.73 Z-60
G01 F300 X30.6683 Y108.585 Z-60
G01 F300 X34.1005 Y108.335 Z-60
G01 F300 X34.0569 Y108.235 Z-60
G01 F300 X34.0835 Y108.235 Z-60
G01 F300 X36.7103 Y108.045 Z-60
G01 F300 X40.8601 Y107.84 Z-60
G01 F300 X40.8846 Y107.94 Z-60
G01 F300 X40.8817 Y107.94 Z-60
G01 F300 X42.9128 Y107.85 Z-60
G01 F300 X47.5285 Y107.65 Z-60
G01 F300 X47.0606 Y107.445 Z-60
G01 F300 X46.9979 Y107.445 Z-60
G01 F300 X49.9718 Y107.205 Z-60
G01 F300 X53.793 Y107.25 Z-60
G01 F300 X53.7395 Y107.35 Z-60
G01 F300 X53.749 Y107.35 Z-60
G01 F300 X56.9845 Y107.205 Z-60
G01 F300 X60.4361 Y107.055 Z-60
G01 F300 X60.5142 Y107.055 Z-60
G01 F300 X60.5242 Y107.055 Z-60
G01 F300 X63.4724 Y106.925 Z-60
G01 F300 X67.3512 Y106.66 Z-60
G01 F300 X67.2579 Y106.66 Z-60
G01 F300 X67.259 Y106.66 Z-60
G01 F300 X70.4108 Y106.475 Z-60
G01 F300 X73.3917 Y106.405 Z-60
G01 F300 X74.0219 Y106.365 Z-60
G01 F300 X74.0288 Y106.365 Z-60
G01 F300 X77.3817 Y106.22 Z-60
G01 F300 X80.7852 Y106.07 Z-60
G01 F300 X80.8176 Y106.07 Z-60
G01 F300 X80.8265 Y106.07 Z-60
G01 F300 X83.9208 Y105.935 Z-60
G01 F300 X87.5965 Y105.775 Z-60
G01 F300 X87.5756 Y105.775 Z-60
G01 F300 X87.5829 Y105.775 Z-60
G01 F300 X90.3874 Y105.655 Z-60
G01 F300 X94.3739 Y105.38 Z-60
G01 F300 X94.2734 Y105.38 Z-60
G01 F300 X94.2845 Y105.38 Z-60
G01 F300 X97.2795 Y105.205 Z-60
G01 F300 X101.042 Y105.085 Z-60
G01 F300 X101.044 Y105.085 Z-60
G01 F300 X101.049 Y105.085 Z-60
G01 F300 X104.198 Y104.95 Z-60
G01 F300 X107.807 Y104.79 Z-60
G01 F300 X107.806 Y104.79 Z-60
G01 F300 X107.796 Y104.79 Z-60
G01 F300 X110.421 Y104.675 Z-60
G01 F300 X114.559 Y104.395 Z-60
G01 F300 X114.491 Y104.495 Z-60
G01 F300 X114.503 Y104.495 Z-60
G01 F300 X117.203 Y104.375 Z-60
G01 F300 X120.684 Y104.125 Z-60
G01 F300 X121.256 Y104.1 Z-60
G01 F300 X121.266 Y104.1 Z-60
G01 F300 X124.164 Y103.93 Z-60
G01 F300 X127.976 Y103.805 Z-60
G01 F300 X128.005 Y103.805 Z-60
G01 F300 X127.989 Y103.805 Z-60
G01 F300 X130.839 Y103.68 Z-60
G01 F300 X134.681 Y103.51 Z-60
G01 F300 X134.66 Y103.51 Z-60
G01 F300 X134.676 Y103.51 Z-60
G01 F300 X138.001 Y103.365 Z-60
G01 F300 X141.404 Y103.215 Z-60
G01 F300 X141.349 Y103.115 Z-60
G01 F300 X141.37 Y103.115 Z-60
G01 F300 X144.565 Y102.925 Z-60
G01 F300 X148.058 Y102.82 Z-60
G01 F300 X148.051 Y102.82 Z-60
G01 F300 X148.059 Y102.82 Z-60
G01 F300 X151.007 Y102.69 Z-60
G01 F300 X154.735 Y102.525 Z-60
G01 F300 X154.723 Y102.525 Z-60
G01 F300 X154.736 Y102.525 Z-60
G01 F300 X158.262 Y102.27 Z-60
G01 F300 X161.434 Y102.23 Z-60
G01 F300 X161.38 Y102.13 Z-60
G01 F300 X161.392 Y102.13 Z-60
G01 F300 X164.213 Y101.96 Z-60
G01 F300 X168.046 Y101.835 Z-60
G01 F300 X168.045 Y101.835 Z-60
G01 F300 X168.063 Y101.835 Z-60
G01 F300 X171.512 Y101.68 Z-60
G01 F300 X174.727 Y101.54 Z-60
G01 F300 X174.681 Y101.54 Z-60
G01 F300 X174.687 Y101.54 Z-60
G01 F300 X177.034 Y101.435 Z-60
G01 F300 X181.334 Y101.145 Z-60
G01 F300 X181.305 Y101.245 Z-60
G01 F300 X181.317 Y101.245 Z-60
G01 F300 X184.672 Y100.995 Z-60
G01 F300 X187.925 Y100.95 Z-60
G01 F300 X187.906 Y100.85 Z-60
G01 F300 X187.91 Y100.85 Z-60
G01 F300 X190.937 Y100.67 Z-60
G01 F300 X194.533 Y100.555 Z-60
G01 F300 X194.515 Y100.555 Z-60
G01 F300 X194.52 Y100.555 Z-60
G01 F300 X197.917 Y100.405 Z-60
G01 F300 X200.846 Y100.17 Z-60
G01 F300 X201.054 Y100.16 Z-60
G01 F300 X201.066 Y100.16 Z-60
G01 F300 X203.367 Y100.02 Z-60
G01 F300 X207.642 Y99.865 Z-60
G01 F300 X207.659 Y99.865 Z-60
G01 F300 X207.668 Y99.865 Z-60
G01 F300 X209.701 Y99.775 Z-60
G01 F300 X213.912 Y99.585 Z-60
G01 F300 X214.179 Y99.57 Z-60
G01 F300 X214.186 Y99.57 Z-60
G01 F300 X217.186 Y99.435 Z-60
G01 F300 X220.779 Y99.275 Z-60
G01 F300 X220.749 Y99.275 Z-60
G01 F300 X220.741 Y99.275 Z-60
G01 F300 X223.392 Y99.155 Z-60
G01 F300 X227.286 Y98.98 Z-60
G01 F300 X227.275 Y98.98 Z-60
G01 F300 X227.282 Y98.98 Z-60
G01 F300 X230.083 Y98.855 Z-60
G01 F300 X233.805 Y98.585 Z-60
G01 F300 X233.825 Y98.585 Z-60
G01 F300 X233.83 Y98.585 Z-60
G01 F300 X236.78 Y98.405 Z-60
G01 F300 X239.719 Y98.23 Z-60
G01 F300 X240.315 Y98.29 Z-60
G01 F300 X240.332 Y98.29 Z-60
G01 F300 X243.476 Y98.145 Z-60
G01 F300 X246.847 Y97.995 Z-60
G01 F300 X246.876 Y97.995 Z-60
G01 F300 X250.229 Y97.845 Z-60
G01 F300 X253.448 Y97.7 Z-60
G01 F300 X253.379 Y97.6 Z-60
G01 F300 X256.479 Y97.41 Z-60
G01 F300 X259.905 Y97.305 Z-60
G01 F300 X259.913 Y97.305 Z-60
G01 F300 X259.911 Y97.305 Z-60
G01 F300 X263.163 Y97.16 Z-60
G01 F300 X266.064 Y97.025 Z-60
G01 F300 X266.4 Y97.01 Z-60
G01 F300 X266.397 Y97.01 Z-60
G01 F300 X269.894 Y96.85 Z-60
G01 F300 X272.78 Y96.72 Z-60
G01 F300 X272.856 Y96.715 Z-60
G01 F300 X272.858 Y96.715 Z-60
G01 F300 X276.555 Y96.545 Z-60
G01 F300 X279.074 Y96.43 Z-60
G01 F300 X279.53 Y96.22 Z-60
G01 F300 X279.529 Y96.22 Z-60
G01 F300 X282.929 Y95.97 Z-60
G01 F300 X285.967 Y95.925 Z-60
G01 F300 X285.985 Y96.025 Z-60
G01 F300 X285.99 Y96.025 Z-60
G01 F300 X288.691 Y95.945 Z-60
G01 F300 X292.338 Y95.63 Z-60
G01 F300 X292.419 Y95.63 Z-60
G01 F300 X292.414 Y95.73 Z-60
G01 F300 X295.656 Y95.48 Z-60
G01 F300 X298.854 Y95.435 Z-60
G01 F300 X298.839 Y95.435 Z-60
G01 F300 X298.831 Y95.435 Z-60
G01 F300 X301.824 Y95.295 Z-60
G01 F300 X305.186 Y95.04 Z-60
G01 F300 X305.297 Y95.14 Z-60
G01 F300 X305.285 Y95.14 Z-60
G01 F300 X307.932 Y95.02 Z-60
G01 F300 X311.671 Y94.845 Z-60
G01 F300 X311.669 Y94.845 Z-60
G01 F300 X311.665 Y94.845 Z-60
G01 F300 X315.368 Y94.675 Z-60
G01 F300 X318.037 Y94.45 Z-60
G01 F300 X318.074 Y94.55 Z-60
G01 F300 X318.065 Y94.55 Z-60
G01 F300 X320.644 Y94.43 Z-60
G01 F300 X324.467 Y94.155 Z-60
G01 F300 X324.478 Y94.155 Z-60
G01 F300 X324.468 Y94.155 Z-60
G01 F300 X327.492 Y93.97 Z-60
G01 F300 X330.823 Y93.76 Z-60
G01 F300 X330.85 Y93.76 Z-60
G01 F300 X330.841 Y93.76 Z-60
G01 F300 X333.285 Y93.61 Z-60
G01 F300 X337.201 Y93.465 Z-60
G01 F300 X337.202 Y93.565 Z-60
G01 F300 X337.203 Y93.565 Z-60
G01 F300 X339.874 Y93.485 Z-60
G01 F300 X343.571 Y93.27 Z-60
G01 F300 X343.534 Y93.17 Z-60
G01 F300 X343.53 Y93.17 Z-60
G01 F300 X346.677 Y92.975 Z-60
G01 F300 X349.879 Y92.875 Z-60
G01 F300 X349.867 Y92.875 Z-60
G01 F300 X349.855 Y92.875 Z-60
G01 F300 X353.258 Y92.715 Z-60
G01 F300 X356.195 Y92.58 Z-60
G01 F300 X356.168 Y92.58 Z-60
G01 F300 X356.17 Y92.58 Z-60
G01 F300 X359.664 Y92.415 Z-60
G01 F300 X362.528 Y92.285 Z-60
G01 F300 X362.504 Y92.285 Z-60
G01 F300 X362.506 Y92.285 Z-60
G01 F300 X365.701 Y92.135 Z-60
G01 F300 X368.833 Y91.99 Z-60
G01 F300 X368.861 Y91.99 Z-60
G01 F300 X368.86 Y91.99 Z-60
G01 F300 X372.288 Y91.83 Z-60
G01 F300 X375.158 Y91.695 Z-60
G01 F300 X375.171 Y91.595 Z-60
G01 F300 X375.168 Y91.595 Z-60
G01 F300 X378.314 Y91.4 Z-60
G01 F300 X381.455 Y91.3 Z-60
G01 F300 X381.423 Y91.4 Z-60
G01 F300 X381.413 Y91.4 Z-60
G01 F300 X384.76 Y91.295 Z-60
G01 F300 X386.87 Y91.33 Z-60
G01 F300 X387.615 Y91.205 Z-60
G01 F300 X387.626 Y91.205 Z-60
G01 F300 X390.667 Y91.11 Z-60
G01 F300 X393.826 Y91.01 Z-60
G01 F300 X393.846 Y90.91 Z-60
G01 F300 X393.855 Y90.91 Z-60
G01 F300 X397.485 Y90.835 Z-60
G01 F300 X400.092 Y90.515 Z-60
G01 F300 X400.066 Y90.515 Z-60
G01 F300 X400.079 Y90.515 Z-60
G01 F300 X403.549 Y90.295 Z-60
G01 F300 X405.151 Y90.29 Z-60
G01 F300 X406.284 Y90.22 Z-60
G01 F300 X406.283 Y90.22 Z-60
G01 F300 X409.458 Y90.07 Z-60
G01 F300 X412.437 Y89.925 Z-60
G01 F300 X412.465 Y90.025 Z-60
G01 F300 X412.469 Y90.025 Z-60
G01 F300 X415.322 Y89.935 Z-60
G01 F300 X418.183 Y89.94 Z-60
G01 F300 X418.697 Y89.73 Z-60
G01 F300 X418.705 Y89.73 Z-60
G01 F300 X421.941 Y89.575 Z-60
G01 F300 X424.819 Y89.235 Z-60
G01 F300 X424.818 Y89.435 Z-60
G01 F300 X424.821 Y89.435 Z-60
G01 F300 X428.143 Y89.275 Z-60
G01 F300 X431.009 Y89.14 Z-60
G01 F300 X430.981 Y89.04 Z-60
G01 F300 X430.98 Y89.04 Z-60
G01 F300 X434.38 Y88.82 Z-60
G01 F300 X437.168 Y88.745 Z-60
G01 F300 X437.134 Y88.745 Z-60
G01 F300 X437.15 Y88.745 Z-60
G01 F300 X440.2 Y88.6 Z-60
G01 F300 X443.265 Y88.45 Z-60
G01 F300 X443.263 Y88.55 Z-60
G01 F300 X443.267 Y88.55 Z-60
G01 F300 X446.894 Y88.435 Z-60
G01 F300 X449.452 Y88.255 Z-60
G01 F300 X448.944 Y88.255 Z-60
G01 F300 X448.95 Y88.255 Z-60
G01 F300 X452.299 Y88.08 Z-60
G01 F300 X454.703 Y87.86 Z-60
G01 F300 X454.666 Y87.86 Z-60
G01 F300 X457.296 Y87.68 Z-60
G01 F300 X460.775 Y87.565 Z-60
G01 F300 X460.166 Y87.665 Z-60
G01 F300 X463.317 Y87.555 Z-60
G01 F300 X466.275 Y87.37 Z-60
G01 F300 X465.853 Y87.37 Z-60
G01 F300 X466.276 Y87.37 Z-60
G01 F300 X468.513 Y87.24 Z-60
G01 F300 X472.359 Y86.975 Z-60
G01 F300 X472.37 Y87.075 Z-60
G01 F300 X472.37 Y87.075 Z-60
G01 F300 X474.618 Y86.965 Z-60
G01 F300 X478.017 Y86.78 Z-60
G01 F300 X477.985 Y86.78 Z-60
G01 F300 X477.844 Y86.78 Z-60
G01 F300 X481.391 Y86.59 Z-60
G01 F300 X483.322 Y86.485 Z-60
G01 F300 X483.354 Y86.485 Z-60
G01 F300 X483.358 Y86.485 Z-60
M5 (Switch off the torch)
G0 Z0
G0 X0 Y0 Z0
