(G-Code file generated by CNCWeld)
$H(Home before doing anything)
G0(quickly) X1.93197 Y109.91 Z0
G0(quickly) X1.93197 Y109.91 Z-60
M3 (Switch on the torch)
G01 F300 X5.39944 Y109.99 Z-60
G01 F300 X8.69548 Y109.865 Z-60
G01 F300 X12.1279 Y109.645 Z-60
G01 F300 X16.7201 Y109.415 Z-60
G01 F300 X16.8203 Y109.315 Z-60
G01 F300 X16.8368 Y109.315 Z-60
G01 F300 X20.2884 Y109.195 Z-60
G01 F300 X23.3645 Y109.085 Z-60
G01 F300 X27.4819 Y108.835 Z-60
G01 F300 X31.71 Y108.785 Z-60
G01 F300 X33.6106 Y108.52 Z-60
G01 F300 X33.6909 Y108.42 Z-60
G01 F300 X37.2691 Y108.23 Z-60
G01 F300 X40.5354 Y108.05 Z-60
G01 F300 X44.008 Y107.97 Z-60
G01 F300 X48.6144 Y107.72 Z-60
G01 F300 X50.4801 Y107.725 Z-60
G01 F300 X50.4951 Y107.725 Z-60
G01 F300 X53.2496 Y107.61 Z-60
G01 F300 X57.8184 Y107.32 Z-60
G01 F300 X61.6713 Y107.16 Z-60
G01 F300 X65.0951 Y106.92 Z-60
G01 F300 X67.2383 Y106.83 Z-60
G01 F300 X67.217 Y106.83 Z-60
G01 F300 X70.3743 Y106.66 Z-60
G01 F300 X73.8183 Y106.48 Z-60
G01 F300 X78.0271 Y106.255 Z-60
G01 F300 X81.8353 Y106.15 Z-60
G01 F300 X83.9846 Y106.035 Z-60
G01 F300 X84.0003 Y106.135 Z-60
G01 F300 X87.3412 Y105.995 Z-60
G01 F300 X91.2146 Y105.735 Z-60
G01 F300 X95.113 Y105.58 Z-60
G01 F300 X97.9016 Y105.555 Z-60
G01 F300 X100.828 Y105.34 Z-60
G01 F300 X100.811 Y105.34 Z-60
G01 F300 X104.311 Y105.175 Z-60
G01 F300 X107.683 Y104.915 Z-60
G01 F300 X112.346 Y104.695 Z-60
G01 F300 X115.72 Y104.535 Z-60
G01 F300 X117.582 Y104.545 Z-60
G01 F300 X117.586 Y104.545 Z-60
G01 F300 X120.669 Y104.3 Z-60
G01 F300 X124.514 Y104.115 Z-60
G01 F300 X128.651 Y103.92 Z-60
G01 F300 X132.567 Y103.735 Z-60
G01 F300 X134.301 Y103.65 Z-60
G01 F300 X134.32 Y103.65 Z-60
G01 F300 X137.82 Y103.465 Z-60
G01 F300 X141.602 Y103.265 Z-60
G01 F300 X144.624 Y103.1 Z-60
G01 F300 X149.235 Y102.95 Z-60
G01 F300 X151.05 Y102.855 Z-60
G01 F300 X151.005 Y102.855 Z-60
G01 F300 X154.01 Y102.71 Z-60
G01 F300 X158.324 Y102.505 Z-60
G01 F300 X161.705 Y102.345 Z-60
G01 F300 X165.889 Y102.145 Z-60
G01 F300 X167.687 Y102.06 Z-60
G01 F300 X167.708 Y102.06 Z-60
G01 F300 X170.31 Y101.935 Z-60
G01 F300 X174.979 Y101.715 Z-60
G01 F300 X178.705 Y101.53 Z-60
G01 F300 X182.632 Y101.35 Z-60
G01 F300 X184.356 Y101.165 Z-60
G01 F300 X184.335 Y101.165 Z-60
G01 F300 X187.783 Y100.88 Z-60
G01 F300 X191.209 Y100.795 Z-60
G01 F300 X195.817 Y100.645 Z-60
G01 F300 X199.189 Y100.465 Z-60
G01 F300 X200.984 Y100.37 Z-60
G01 F300 X200.928 Y100.37 Z-60
G01 F300 X203.529 Y100.245 Z-60
G01 F300 X208.164 Y100.025 Z-60
G01 F300 X212.037 Y99.84 Z-60
G01 F300 X215.483 Y99.675 Z-60
G01 F300 X217.543 Y99.575 Z-60
G01 F300 X217.534 Y99.575 Z-60
G01 F300 X220.58 Y99.43 Z-60
G01 F300 X224.363 Y99.245 Z-60
G01 F300 X228.551 Y99.045 Z-60
G01 F300 X232.383 Y98.86 Z-60
G01 F300 X234.121 Y98.78 Z-60
G01 F300 X234.098 Y98.78 Z-60
G01 F300 X237.048 Y98.64 Z-60
G01 F300 X241.336 Y98.43 Z-60
G01 F300 X244.765 Y98.27 Z-60
G01 F300 X249.383 Y98.045 Z-60
G01 F300 X250.659 Y97.985 Z-60
G01 F300 X250.666 Y97.985 Z-60
G01 F300 X253.202 Y97.865 Z-60
G01 F300 X257.815 Y97.64 Z-60
G01 F300 X261.935 Y97.44 Z-60
G01 F300 X265.516 Y97.27 Z-60
G01 F300 X267.165 Y97.19 Z-60
G01 F300 X267.142 Y97.19 Z-60
G01 F300 X270.574 Y97.025 Z-60
G01 F300 X274.431 Y96.84 Z-60
G01 F300 X278.669 Y96.635 Z-60
G01 F300 X282.29 Y96.27 Z-60
G01 F300 X283.612 Y96.395 Z-60
G01 F300 X283.66 Y96.395 Z-60
G01 F300 X287.053 Y96.23 Z-60
G01 F300 X290.416 Y95.97 Z-60
G01 F300 X294.756 Y95.86 Z-60
G01 F300 X298.072 Y95.6 Z-60
G01 F300 X300.098 Y95.6 Z-60
G01 F300 X300.082 Y95.5 Z-60
G01 F300 X303.08 Y95.335 Z-60
G01 F300 X307.299 Y95.21 Z-60
G01 F300 X311.131 Y95 Z-60
G01 F300 X314.996 Y94.79 Z-60
G01 F300 X316.601 Y94.805 Z-60
G01 F300 X316.547 Y94.705 Z-60
G01 F300 X319.987 Y94.54 Z-60
G01 F300 X323.811 Y94.455 Z-60
G01 F300 X327.244 Y94.185 Z-60
G01 F300 X331.84 Y94.065 Z-60
G01 F300 X333.006 Y94.01 Z-60
G01 F300 X332.97 Y94.01 Z-60
G01 F300 X336.446 Y93.865 Z-60
G01 F300 X340.15 Y93.705 Z-60
G01 F300 X343.986 Y93.44 Z-60
G01 F300 X347.858 Y93.28 Z-60
G01 F300 X349.357 Y93.115 Z-60
G01 F300 X349.325 Y93.215 Z-60
G01 F300 X352.746 Y93.05 Z-60
G01 F300 X356.628 Y92.86 Z-60
G01 F300 X360.363 Y92.68 Z-60
G01 F300 X364.229 Y92.49 Z-60
G01 F300 X365.656 Y92.32 Z-60
G01 F300 X365.697 Y92.42 Z-60
G01 F300 X369.04 Y92.255 Z-60
G01 F300 X372.825 Y92.07 Z-60
G01 F300 X376.259 Y91.805 Z-60
G01 F300 X380.131 Y91.72 Z-60
G01 F300 X382.024 Y91.625 Z-60
G01 F300 X381.981 Y91.525 Z-60
G01 F300 X384.953 Y91.36 Z-60
G01 F300 X389.155 Y91.23 Z-60
G01 F300 X393.166 Y91.02 Z-60
G01 F300 X396.766 Y90.91 Z-60
G01 F300 X398.291 Y90.83 Z-60
G01 F300 X398.227 Y90.73 Z-60
G01 F300 X401.618 Y90.565 Z-60
G01 F300 X405.345 Y90.385 Z-60
G01 F300 X409.654 Y90.17 Z-60
G01 F300 X412.992 Y90.105 Z-60
G01 F300 X414.414 Y90.035 Z-60
G01 F300 X414.446 Y90.135 Z-60
G01 F300 X417.845 Y90.01 Z-60
G01 F300 X421.676 Y89.87 Z-60
G01 F300 X425.49 Y89.63 Z-60
G01 F300 X428.93 Y89.505 Z-60
G01 F300 X430.697 Y89.24 Z-60
G01 F300 X430.63 Y89.24 Z-60
G01 F300 X434.064 Y89.05 Z-60
G01 F300 X437.419 Y89.065 Z-60
G01 F300 X440.874 Y88.775 Z-60
G01 F300 X445.442 Y88.62 Z-60
G01 F300 X446.771 Y88.645 Z-60
G01 F300 X446.824 Y88.645 Z-60
G01 F300 X449.075 Y88.56 Z-60
G01 F300 X453.621 Y88.29 Z-60
G01 F300 X457.995 Y88.035 Z-60
G01 F300 X462.081 Y87.88 Z-60
G01 F300 X463.007 Y87.85 Z-60
G01 F300 X462.973 Y87.85 Z-60
G01 F300 X465.682 Y87.715 Z-60
G01 F300 X469.849 Y87.39 Z-60
G01 F300 X473.694 Y87.3 Z-60
G01 F300 X477.512 Y87.03 Z-60
G01 F300 X478.596 Y87.055 Z-60
G01 F300 X478.41 Y86.955 Z-60
G01 F300 X481.961 Y86.75 Z-60
M5 (Switch off the torch)
G0 Z0
G0 X0 Y0 Z0
