(G-Code file generated by CNCWeld)
$H(Home before doing anything)
$$
G0(quickly) X1.16178 Y109.81 Z-43
M3 (Switch on the torch)
G01 F300 X4.57388 Y109.775 Z-43
G01 F300 X5.97519 Y109.715 Z-43
G01 F300 X5.9686 Y109.715 Z-43
G01 F300 X5.97018 Y109.715 Z-43
G01 F300 X9.222 Y109.665 Z-43
G01 F300 X12.0501 Y109.62 Z-43
G01 F300 X11.9424 Y109.52 Z-43
G01 F300 X11.9483 Y109.52 Z-43
G01 F300 X14.9022 Y109.425 Z-43
G01 F300 X17.9401 Y109.225 Z-43
G01 F300 X17.9481 Y109.325 Z-43
G01 F300 X17.9583 Y109.325 Z-43
G01 F300 X21.3585 Y109.215 Z-43
G01 F300 X23.9783 Y109.03 Z-43
G01 F300 X23.9615 Y109.03 Z-43
G01 F300 X23.969 Y109.03 Z-43
G01 F300 X27.5652 Y108.855 Z-43
G01 F300 X30.0582 Y108.835 Z-43
G01 F300 X30.0601 Y108.835 Z-43
G01 F300 X30.0548 Y108.935 Z-43
G01 F300 X32.1594 Y108.8 Z-43
G01 F300 X36.1064 Y108.64 Z-43
G01 F300 X36.1219 Y108.64 Z-43
G01 F300 X36.1226 Y108.64 Z-43
G01 F300 X39.151 Y108.495 Z-43
G01 F300 X42.1851 Y108.445 Z-43
G01 F300 X42.1662 Y108.445 Z-43
G01 F300 X42.1681 Y108.445 Z-43
G01 F300 X44.9646 Y108.355 Z-43
G01 F300 X48.2432 Y108.15 Z-43
G01 F300 X48.25 Y108.15 Z-43
G01 F300 X48.2469 Y108.15 Z-43
G01 F300 X51.5969 Y107.985 Z-43
G01 F300 X54.4013 Y107.955 Z-43
G01 F300 X54.2688 Y107.955 Z-43
G01 F300 X54.2658 Y107.955 Z-43
G01 F300 X57.7451 Y107.84 Z-43
G01 F300 X60.422 Y107.76 Z-43
G01 F300 X60.3471 Y107.76 Z-43
G01 F300 X60.3459 Y107.76 Z-43
G01 F300 X63.5957 Y107.655 Z-43
G01 F300 X66.4287 Y107.465 Z-43
G01 F300 X66.4357 Y107.565 Z-43
G01 F300 X66.4359 Y107.565 Z-43
G01 F300 X69.818 Y107.355 Z-43
G01 F300 X72.5611 Y107.37 Z-43
G01 F300 X72.5911 Y107.27 Z-43
G01 F300 X75.7336 Y107.12 Z-43
G01 F300 X78.6971 Y107.075 Z-43
G01 F300 X78.6696 Y107.075 Z-43
G01 F300 X81.971 Y106.97 Z-43
G01 F300 X84.7988 Y106.88 Z-43
G01 F300 X84.871 Y106.88 Z-43
G01 F300 X84.7768 Y106.78 Z-43
G01 F300 X87.7645 Y106.635 Z-43
G01 F300 X90.9695 Y106.585 Z-43
G01 F300 X90.9318 Y106.585 Z-43
G01 F300 X90.9327 Y106.585 Z-43
G01 F300 X94.1404 Y106.485 Z-43
G01 F300 X97.1478 Y106.49 Z-43
G01 F300 X97.0604 Y106.39 Z-43
G01 F300 X97.0539 Y106.39 Z-43
G01 F300 X99.9132 Y106.3 Z-43
G01 F300 X103.227 Y106.195 Z-43
G01 F300 X103.222 Y106.095 Z-43
G01 F300 X103.228 Y106.095 Z-43
G01 F300 X106.775 Y105.925 Z-43
G01 F300 X109.476 Y106 Z-43
G01 F300 X109.467 Y106 Z-43
G01 F300 X109.472 Y106 Z-43
G01 F300 X112.972 Y105.945 Z-43
G01 F300 X115.683 Y105.805 Z-43
G01 F300 X115.6 Y105.705 Z-43
G01 F300 X115.602 Y105.605 Z-43
G01 F300 X118.929 Y105.49 Z-43
G01 F300 X121.793 Y105.41 Z-43
G01 F300 X121.826 Y105.51 Z-43
G01 F300 X121.836 Y105.51 Z-43
G01 F300 X124.964 Y105.46 Z-43
G01 F300 X128.115 Y105.315 Z-43
G01 F300 X128.09 Y105.215 Z-43
G01 F300 X128.101 Y105.215 Z-43
G01 F300 X131.321 Y105.065 Z-43
G01 F300 X134.314 Y105.02 Z-43
G01 F300 X134.406 Y105.02 Z-43
G01 F300 X134.403 Y105.02 Z-43
G01 F300 X138.154 Y104.905 Z-43
G01 F300 X140.768 Y104.825 Z-43
G01 F300 X140.631 Y104.725 Z-43
G01 F300 X140.632 Y104.725 Z-43
G01 F300 X143.283 Y104.6 Z-43
G01 F300 X146.919 Y104.53 Z-43
G01 F300 X146.924 Y104.63 Z-43
G01 F300 X150.235 Y104.58 Z-43
G01 F300 X153.197 Y104.335 Z-43
G01 F300 X153.214 Y104.335 Z-43
G01 F300 X153.214 Y104.335 Z-43
G01 F300 X156.196 Y104.195 Z-43
G01 F300 X159.507 Y104.04 Z-43
G01 F300 X159.503 Y104.04 Z-43
G01 F300 X163.151 Y103.87 Z-43
G01 F300 X165.845 Y103.845 Z-43
G01 F300 X165.819 Y103.845 Z-43
G01 F300 X165.837 Y103.845 Z-43
G01 F300 X168.712 Y103.755 Z-43
G01 F300 X172.23 Y103.65 Z-43
G01 F300 X172.09 Y103.55 Z-43
G01 F300 X172.094 Y103.55 Z-43
G01 F300 X175.253 Y103.505 Z-43
G01 F300 X178.424 Y103.355 Z-43
G01 F300 X178.443 Y103.355 Z-43
G01 F300 X178.458 Y103.355 Z-43
G01 F300 X181.207 Y103.27 Z-43
G01 F300 X184.823 Y103.16 Z-43
G01 F300 X184.804 Y103.26 Z-43
G01 F300 X184.808 Y103.26 Z-43
G01 F300 X188.51 Y103.205 Z-43
G01 F300 X191.164 Y102.965 Z-43
G01 F300 X191.209 Y102.965 Z-43
G01 F300 X191.218 Y102.965 Z-43
G01 F300 X194.612 Y102.81 Z-43
G01 F300 X197.584 Y102.67 Z-43
G01 F300 X197.623 Y102.77 Z-43
G01 F300 X197.63 Y102.77 Z-43
G01 F300 X201.161 Y102.76 Z-43
G01 F300 X204.016 Y102.475 Z-43
G01 F300 X203.992 Y102.475 Z-43
G01 F300 X203.997 Y102.475 Z-43
G01 F300 X206.439 Y102.36 Z-43
G01 F300 X210.375 Y102.18 Z-43
G01 F300 X210.386 Y102.18 Z-43
G01 F300 X210.386 Y102.18 Z-43
G01 F300 X213.385 Y102.04 Z-43
G01 F300 X216.764 Y101.985 Z-43
G01 F300 X216.809 Y101.985 Z-43
G01 F300 X216.808 Y101.985 Z-43
G01 F300 X219.137 Y101.915 Z-43
G01 F300 X223.248 Y101.79 Z-43
G01 F300 X223.235 Y101.79 Z-43
G01 F300 X223.228 Y101.79 Z-43
G01 F300 X226.158 Y101.7 Z-43
G01 F300 X229.695 Y101.595 Z-43
G01 F300 X229.633 Y101.495 Z-43
G01 F300 X229.633 Y101.495 Z-43
G01 F300 X233.129 Y101.335 Z-43
G01 F300 X235.925 Y101.3 Z-43
G01 F300 X236.051 Y101.4 Z-43
G01 F300 X236.046 Y101.4 Z-43
G01 F300 X239.394 Y101.35 Z-43
G01 F300 X242.446 Y101.205 Z-43
G01 F300 X242.459 Y101.105 Z-43
G01 F300 X242.456 Y101.105 Z-43
G01 F300 X245.954 Y100.945 Z-43
G01 F300 X248.871 Y100.81 Z-43
G01 F300 X248.862 Y100.91 Z-43
G01 F300 X248.857 Y100.91 Z-43
G01 F300 X252.088 Y100.81 Z-43
G01 F300 X255.276 Y100.715 Z-43
G01 F300 X255.296 Y100.615 Z-43
G01 F300 X255.292 Y100.615 Z-43
G01 F300 X258.792 Y100.455 Z-43
G01 F300 X261.704 Y100.42 Z-43
G01 F300 X261.794 Y100.42 Z-43
G01 F300 X261.791 Y100.42 Z-43
G01 F300 X265.021 Y100.325 Z-43
G01 F300 X268.208 Y100.225 Z-43
G01 F300 X268.231 Y100.125 Z-43
G01 F300 X268.227 Y100.125 Z-43
G01 F300 X271.256 Y99.985 Z-43
G01 F300 X274.63 Y99.93 Z-43
G01 F300 X274.731 Y99.93 Z-43
G01 F300 X274.725 Y99.93 Z-43
G01 F300 X277.478 Y99.85 Z-43
G01 F300 X281.18 Y99.735 Z-43
G01 F300 X281.161 Y99.635 Z-43
G01 F300 X281.159 Y99.635 Z-43
G01 F300 X284.355 Y99.49 Z-43
G01 F300 X287.578 Y99.44 Z-43
G01 F300 X287.599 Y99.44 Z-43
G01 F300 X287.592 Y99.44 Z-43
G01 F300 X291.021 Y99.335 Z-43
G01 F300 X294.02 Y99.245 Z-43
G01 F300 X294.07 Y99.245 Z-43
G01 F300 X294.062 Y99.245 Z-43
G01 F300 X297.662 Y99.135 Z-43
G01 F300 X300.554 Y99.05 Z-43
G01 F300 X300.547 Y98.95 Z-43
G01 F300 X300.538 Y98.95 Z-43
G01 F300 X303.844 Y98.8 Z-43
G01 F300 X307.019 Y98.755 Z-43
G01 F300 X307.001 Y98.755 Z-43
G01 F300 X307 Y98.755 Z-43
G01 F300 X310.544 Y98.65 Z-43
G01 F300 X313.463 Y98.46 Z-43
G01 F300 X313.524 Y98.46 Z-43
G01 F300 X313.527 Y98.46 Z-43
G01 F300 X316.325 Y98.335 Z-43
G01 F300 X319.694 Y98.28 Z-43
G01 F300 X320.013 Y98.265 Z-43
G01 F300 X320.003 Y98.265 Z-43
G01 F300 X322.908 Y98.18 Z-43
G01 F300 X326.507 Y97.97 Z-43
G01 F300 X326.541 Y97.97 Z-43
G01 F300 X326.54 Y97.97 Z-43
G01 F300 X329.542 Y97.835 Z-43
G01 F300 X333.056 Y97.675 Z-43
G01 F300 X333.048 Y97.675 Z-43
G01 F300 X333.048 Y97.675 Z-43
G01 F300 X335.931 Y97.545 Z-43
G01 F300 X339.617 Y97.48 Z-43
G01 F300 X339.605 Y97.58 Z-43
G01 F300 X339.611 Y97.58 Z-43
G01 F300 X343.195 Y97.53 Z-43
G01 F300 X345.648 Y97.39 Z-43
G01 F300 X346.183 Y97.285 Z-43
G01 F300 X346.189 Y97.285 Z-43
G01 F300 X349.532 Y97.135 Z-43
G01 F300 X352.749 Y96.99 Z-43
G01 F300 X352.743 Y97.09 Z-43
G01 F300 X352.737 Y97.09 Z-43
G01 F300 X355.87 Y96.995 Z-43
G01 F300 X358.358 Y96.82 Z-43
G01 F300 X359.327 Y96.795 Z-43
G01 F300 X359.327 Y96.795 Z-43
G01 F300 X362.07 Y96.67 Z-43
G01 F300 X365.866 Y96.5 Z-43
G01 F300 X365.829 Y96.6 Z-43
G01 F300 X365.836 Y96.6 Z-43
G01 F300 X368.89 Y96.51 Z-43
G01 F300 X372.401 Y96.305 Z-43
G01 F300 X372.436 Y96.305 Z-43
G01 F300 X372.432 Y96.305 Z-43
G01 F300 X375.035 Y96.19 Z-43
G01 F300 X378.962 Y96.11 Z-43
G01 F300 X378.957 Y96.11 Z-43
G01 F300 X378.962 Y96.11 Z-43
G01 F300 X380.818 Y96.055 Z-43
G01 F300 X385.526 Y95.815 Z-43
G01 F300 X385.532 Y95.815 Z-43
G01 F300 X385.528 Y95.915 Z-43
G01 F300 X387.981 Y95.84 Z-43
G01 F300 X392.22 Y95.72 Z-43
G01 F300 X392.151 Y95.62 Z-43
G01 F300 X392.162 Y95.62 Z-43
G01 F300 X395.707 Y95.46 Z-43
G01 F300 X398.737 Y95.325 Z-43
G01 F300 X398.739 Y95.425 Z-43
G01 F300 X398.747 Y95.425 Z-43
G01 F300 X402.079 Y95.325 Z-43
G01 F300 X405.02 Y95.14 Z-43
G01 F300 X405.343 Y95.13 Z-43
G01 F300 X405.35 Y95.13 Z-43
G01 F300 X408.928 Y94.97 Z-43
G01 F300 X411.941 Y94.835 Z-43
G01 F300 X411.933 Y94.835 Z-43
G01 F300 X411.94 Y94.935 Z-43
G01 F300 X415.285 Y94.835 Z-43
G01 F300 X418.599 Y94.64 Z-43
G01 F300 X418.599 Y94.64 Z-43
G01 F300 X418.591 Y94.64 Z-43
G01 F300 X421.942 Y94.49 Z-43
G01 F300 X424.832 Y94.36 Z-43
G01 F300 X425.168 Y94.345 Z-43
G01 F300 X425.171 Y94.345 Z-43
G01 F300 X427.817 Y94.225 Z-43
G01 F300 X431.762 Y94.05 Z-43
G01 F300 X431.791 Y94.15 Z-43
G01 F300 X431.792 Y94.15 Z-43
G01 F300 X434.946 Y94.055 Z-43
G01 F300 X438.347 Y93.955 Z-43
G01 F300 X438.381 Y93.955 Z-43
G01 F300 X438.387 Y93.955 Z-43
G01 F300 X441.788 Y93.855 Z-43
G01 F300 X445.083 Y93.76 Z-43
G01 F300 X445.009 Y93.66 Z-43
G01 F300 X445.016 Y93.66 Z-43
G01 F300 X448.163 Y93.52 Z-43
G01 F300 X451.605 Y93.365 Z-43
G01 F300 X451.591 Y93.465 Z-43
G01 F300 X454.89 Y93.365 Z-43
G01 F300 X458.216 Y93.17 Z-43
G01 F300 X458.186 Y93.17 Z-43
G01 F300 X458.193 Y93.17 Z-43
G01 F300 X461.244 Y93.035 Z-43
G01 F300 X464.786 Y92.875 Z-43
G01 F300 X464.899 Y92.975 Z-43
G01 F300 X464.903 Y92.975 Z-43
G01 F300 X468.06 Y92.885 Z-43
G01 F300 X471.522 Y92.68 Z-43
G01 F300 X471.471 Y92.58 Z-43
G01 F300 X471.483 Y92.58 Z-43
G01 F300 X474.486 Y92.4 Z-43
G01 F300 X477.583 Y92.425 Z-43
G01 F300 X478.058 Y92.385 Z-43
G01 F300 X478.137 Y92.385 Z-43
G01 F300 X481.394 Y92.29 Z-43
G01 F300 X484.711 Y92.19 Z-43
G01 F300 X484.716 Y92.09 Z-43
G01 F300 X484.721 Y92.19 Z-43
G01 F300 X487.833 Y92.1 Z-43
M5 (Switch off the torch)
G0 X0 Y0 Z0
