(G-Code file generated by CNCWeld)
$H(Home before doing anything)
G17G21G90G94G54
G0X0Y0F3000
G0Z0
G0Z0 
G0 X56.32 Y98.62 
G0Z-93.00
M3 (Switch on the torch)
G04 P1 (Wait 1 second for Arc to start)
G1 X53.02 Y106.32 F300
G1 X47.19 Y112.26 F300
G1 X39.49 Y116.22 F300
G1 X30.36 Y117.65 F300
G1 X17.71 Y115.23 F300
G1 X8.14 Y108.41 F300
G1 X2.09 Y97.63 F300
G1 X0.00 Y83.22 F300
G1 X2.09 Y68.81 F300
G1 X8.14 Y58.03 F300
G1 X17.71 Y51.21 F300
G1 X30.36 Y48.79 F300
G1 X39.49 Y50.22 F300
G1 X47.19 Y54.18 F300
G1 X53.02 Y60.12 F300
G1 X56.32 Y67.82 F300
M5 (Switch off the torch)
G0Z0 
G0 X89.32 Y50.00 
G0Z-93.00
M3 (Switch on the torch)
G1 X89.32 Y116.44 F300
G1 X141.02 Y50.00 F300
G1 X141.02 Y116.44 F300
M5 (Switch off the torch)
G0Z0 
G0 X220.33 Y116.44 
G0Z-93.00
M3 (Switch on the torch)
G1 X174.02 Y116.44 F300
G1 X174.02 Y50.00 F300
G1 X220.33 Y50.00 F300
M5 (Switch off the torch)
G0Z0 
G0 X174.02 Y83.22 
G0Z-93.00
M3 (Switch on the torch)
G1 X215.27 Y83.22 F300
M5 (Switch off the torch)
G0Z0 
G0 X253.33 Y50.00 
G0Z-93.00
M3 (Switch on the torch)
G1 X253.33 Y116.44 F300
G1 X253.33 Y116.44 F300
G1 X277.42 Y116.44 F300
G1 X285.01 Y114.46 F300
G1 X291.06 Y110.61 F300
G1 X293.04 Y108.08 F300
G1 X295.57 Y100.05 F300
G1 X294.58 Y95.32 F300
G1 X292.49 Y90.59 F300
G1 X288.09 Y86.63 F300
G1 X273.13 Y83.22 F300
M5 (Switch off the torch)
G0Z0 
G0 X253.33 Y83.22 
G0Z-93.00
M3 (Switch on the torch)
G1 X273.13 Y83.22 F300
G1 X283.03 Y79.70 F300
G1 X290.73 Y67.60 F300
G1 X295.57 Y50.00 F300
M5 (Switch off the torch)
G0Z0 
G0 X384.89 Y98.62 
G0Z-93.00
M3 (Switch on the torch)
G1 X381.59 Y106.32 F300
G1 X375.76 Y112.26 F300
G1 X368.06 Y116.22 F300
G1 X358.93 Y117.65 F300
G1 X346.28 Y115.23 F300
G1 X336.71 Y108.41 F300
G1 X330.66 Y97.63 F300
G1 X328.57 Y83.22 F300
G1 X330.66 Y68.81 F300
G1 X336.71 Y58.03 F300
G1 X346.28 Y51.21 F300
G1 X358.93 Y48.79 F300
G1 X368.06 Y50.22 F300
G1 X375.76 Y54.18 F300
G1 X381.59 Y60.12 F300
G1 X384.89 Y67.82 F300
M5 (Switch off the torch)
G0Z0
G0X0Y0
