(G-Code file generated by CNCWeld)
$H(Home before doing anything)
G0(quickly) X3.00353 Y121.11 Z0
G0(quickly) X3.00353 Y121.11 Z-61
M3 (Switch on the torch)
G04 P1 (Wait 1 second for Arc to start)
G01 F300 X5.49989 Y120.585 Z-61
G01 F300 X9.15632 Y117.81 Z-61
G01 F300 X11.1436 Y115.715 Z-61
G01 F300 X11.1356 Y115.315 Z-61
G01 F300 X11.1347 Y115.315 Z-61
G01 F300 X14.0579 Y113.24 Z-61
G01 F300 X16.4004 Y111.77 Z-61
G01 F300 X17.5584 Y110.545 Z-61
G01 F300 X19.4788 Y109.22 Z-61
G01 F300 X19.479 Y109.22 Z-61
G01 F300 X21.6627 Y107.625 Z-61
G01 F300 X24.6115 Y105.585 Z-61
G01 F300 X27.6694 Y103.425 Z-61
G01 F300 X27.6115 Y103.525 Z-61
G01 F300 X27.6009 Y103.525 Z-61
G01 F300 X30.3134 Y101.625 Z-61
G01 F300 X32.4208 Y100.49 Z-61
G01 F300 X35.6492 Y98.13 Z-61
G01 F300 X35.7395 Y98.33 Z-61
G01 F300 X35.7393 Y98.33 Z-61
G01 F300 X37.9036 Y96.945 Z-61
G01 F300 X40.9232 Y94.69 Z-61
G01 F300 X43.8488 Y92.835 Z-61
G01 F300 X43.8575 Y92.935 Z-61
G01 F300 X43.8579 Y92.935 Z-61
G01 F300 X46.0109 Y91.51 Z-61
G01 F300 X48.9902 Y89.5 Z-61
G01 F300 X51.9105 Y87.54 Z-61
G01 F300 X51.8383 Y87.94 Z-61
G01 F300 X51.8381 Y87.94 Z-61
G01 F300 X52.949 Y87.245 Z-61
G01 F300 X58.0529 Y84.16 Z-61
G01 F300 X59.8267 Y83.145 Z-61
G01 F300 X59.8347 Y83.245 Z-61
G01 F300 X59.8383 Y83.245 Z-61
G01 F300 X61.9531 Y82.005 Z-61
G01 F300 X66.2409 Y80.135 Z-61
G01 F300 X67.9307 Y79.25 Z-61
G01 F300 X67.8283 Y79.45 Z-61
G01 F300 X70.1508 Y78.345 Z-61
G01 F300 X73.4882 Y76.69 Z-61
G01 F300 X75.8969 Y75.555 Z-61
G01 F300 X75.873 Y75.555 Z-61
G01 F300 X75.8796 Y75.555 Z-61
G01 F300 X79.211 Y73.94 Z-61
G01 F300 X80.3117 Y73.495 Z-61
G01 F300 X84.0211 Y71.96 Z-61
G01 F300 X83.9398 Y71.96 Z-61
G01 F300 X83.9387 Y71.96 Z-61
G01 F300 X85.0182 Y71.48 Z-61
G01 F300 X89.5202 Y69.49 Z-61
G01 F300 X92.0309 Y68.565 Z-61
G01 F300 X92.1474 Y68.665 Z-61
G01 F300 X92.1435 Y68.665 Z-61
G01 F300 X94.4115 Y67.75 Z-61
G01 F300 X98.7796 Y66.335 Z-61
G01 F300 X100.043 Y66.07 Z-61
G01 F300 X100.107 Y65.97 Z-61
G01 F300 X100.102 Y65.97 Z-61
G01 F300 X102.286 Y65.23 Z-61
G01 F300 X106.991 Y63.965 Z-61
G01 F300 X107.985 Y63.875 Z-61
G01 F300 X108.004 Y63.975 Z-61
G01 F300 X108.006 Y63.975 Z-61
G01 F300 X110.127 Y63.44 Z-61
G01 F300 X115.003 Y62.15 Z-61
G01 F300 X115.834 Y62.08 Z-61
G01 F300 X115.839 Y62.18 Z-61
G01 F300 X115.836 Y62.18 Z-61
G01 F300 X119.081 Y61.435 Z-61
G01 F300 X121.554 Y61.18 Z-61
G01 F300 X123.677 Y60.885 Z-61
G01 F300 X123.653 Y60.885 Z-61
G01 F300 X123.654 Y60.885 Z-61
G01 F300 X126.918 Y60.345 Z-61
G01 F300 X130.531 Y60.05 Z-61
G01 F300 X131.464 Y60.09 Z-61
G01 F300 X131.508 Y60.09 Z-61
G01 F300 X131.507 Y60.09 Z-61
G01 F300 X134.819 Y59.755 Z-61
G01 F300 X138.31 Y59.69 Z-61
G01 F300 X139.27 Y60.195 Z-61
G01 F300 X139.279 Y60.195 Z-61
G01 F300 X139.281 Y60.195 Z-61
G01 F300 X142.605 Y60.24 Z-61
G01 F300 X145.097 Y60.675 Z-61
G01 F300 X147.034 Y60.8 Z-61
G01 F300 X147.045 Y60.8 Z-61
G01 F300 X147.045 Y60.8 Z-61
G01 F300 X149.111 Y60.96 Z-61
G01 F300 X153.951 Y61.44 Z-61
G01 F300 X154.738 Y61.805 Z-61
G01 F300 X154.764 Y61.805 Z-61
G01 F300 X154.766 Y61.805 Z-61
G01 F300 X157.935 Y62.22 Z-61
G01 F300 X161.61 Y63.085 Z-61
G01 F300 X162.466 Y63.51 Z-61
G01 F300 X162.481 Y63.61 Z-61
G01 F300 X162.482 Y63.61 Z-61
G01 F300 X165.571 Y64.335 Z-61
G01 F300 X166.783 Y64.62 Z-61
G01 F300 X170.265 Y65.515 Z-61
G01 F300 X170.218 Y65.615 Z-61
G01 F300 X170.225 Y65.615 Z-61
G01 F300 X172.107 Y66.105 Z-61
G01 F300 X175.643 Y67.115 Z-61
G01 F300 X178.092 Y68.22 Z-61
G01 F300 X178.09 Y68.12 Z-61
G01 F300 X178.09 Y68.12 Z-61
G01 F300 X181.028 Y69.055 Z-61
G01 F300 X184.518 Y70.355 Z-61
G01 F300 X185.896 Y71.125 Z-61
G01 F300 X185.89 Y71.125 Z-61
G01 F300 X185.899 Y71.125 Z-61
G01 F300 X188.647 Y72.185 Z-61
G01 F300 X192.027 Y73.385 Z-61
G01 F300 X193.631 Y73.93 Z-61
G01 F300 X193.664 Y74.03 Z-61
G01 F300 X193.665 Y74.03 Z-61
G01 F300 X195.375 Y74.67 Z-61
G01 F300 X198.735 Y75.84 Z-61
G01 F300 X201.372 Y77.235 Z-61
G01 F300 X201.327 Y77.235 Z-61
G01 F300 X201.326 Y77.235 Z-61
G01 F300 X204.027 Y78.365 Z-61
G01 F300 X207.489 Y79.865 Z-61
G01 F300 X209.158 Y80.64 Z-61
G01 F300 X209.238 Y80.34 Z-61
G01 F300 X209.24 Y80.34 Z-61
G01 F300 X211.75 Y81.325 Z-61
G01 F300 X215.161 Y83.15 Z-61
G01 F300 X216.971 Y83.845 Z-61
G01 F300 X217.009 Y83.945 Z-61
G01 F300 X217.006 Y83.945 Z-61
G01 F300 X217.075 Y83.975 Z-61
G01 F300 X221.514 Y86.185 Z-61
G01 F300 X224.689 Y87.95 Z-61
G01 F300 X224.742 Y87.75 Z-61
G01 F300 X224.74 Y87.75 Z-61
G01 F300 X226.024 Y88.385 Z-61
G01 F300 X230.35 Y90.435 Z-61
G01 F300 X232.487 Y91.555 Z-61
G01 F300 X232.485 Y91.455 Z-61
G01 F300 X232.486 Y91.555 Z-61
G01 F300 X234.908 Y92.645 Z-61
G01 F300 X238.167 Y94.545 Z-61
G01 F300 X240.402 Y95.26 Z-61
G01 F300 X240.359 Y95.06 Z-61
G01 F300 X240.36 Y95.06 Z-61
G01 F300 X243.384 Y96.405 Z-61
G01 F300 X247.15 Y98.585 Z-61
G01 F300 X248.265 Y98.965 Z-61
G01 F300 X248.275 Y98.965 Z-61
G01 F300 X248.266 Y98.965 Z-61
G01 F300 X250.578 Y100.105 Z-61
G01 F300 X253.792 Y101.71 Z-61
G01 F300 X256.49 Y103.27 Z-61
G01 F300 X256.395 Y102.57 Z-61
G01 F300 X256.39 Y102.57 Z-61
G01 F300 X259.314 Y103.87 Z-61
G01 F300 X262.87 Y105.54 Z-61
G01 F300 X264.238 Y105.975 Z-61
G01 F300 X264.26 Y106.275 Z-61
G01 F300 X264.265 Y106.275 Z-61
G01 F300 X266.362 Y107.265 Z-61
G01 F300 X270.836 Y108.645 Z-61
G01 F300 X272.272 Y109.78 Z-61
G01 F300 X272.19 Y109.48 Z-61
G01 F300 X272.183 Y109.48 Z-61
G01 F300 X275.382 Y110.775 Z-61
G01 F300 X278.733 Y112.035 Z-61
G01 F300 X280.313 Y112.885 Z-61
G01 F300 X280.193 Y112.785 Z-61
G01 F300 X280.192 Y112.785 Z-61
G01 F300 X283.38 Y114.1 Z-61
G01 F300 X283.515 Y114.3 Z-61
G01 F300 X288.296 Y115.69 Z-61
G01 F300 X288.177 Y115.59 Z-61
G01 F300 X288.169 Y115.59 Z-61
G01 F300 X290.955 Y116.57 Z-61
G01 F300 X294.759 Y117.84 Z-61
G01 F300 X296.164 Y117.695 Z-61
G01 F300 X296.182 Y118.095 Z-61
G01 F300 X298.508 Y118.82 Z-61
G01 F300 X303.045 Y119.875 Z-61
G01 F300 X304.194 Y119.9 Z-61
G01 F300 X304.404 Y120.4 Z-61
G01 F300 X304.473 Y120.5 Z-61
G01 F300 X307.705 Y121.355 Z-61
G01 F300 X310.871 Y121.465 Z-61
G01 F300 X312.458 Y121.705 Z-61
G01 F300 X312.473 Y121.705 Z-61
G01 F300 X312.463 Y121.705 Z-61
G01 F300 X314.767 Y122.05 Z-61
G01 F300 X317.168 Y122.205 Z-61
G01 F300 X320.446 Y122.51 Z-61
G01 F300 X320.44 Y122.51 Z-61
G01 F300 X320.443 Y122.51 Z-61
G01 F300 X323.874 Y122.855 Z-61
G01 F300 X327.673 Y122.92 Z-61
G01 F300 X328.432 Y122.415 Z-61
G01 F300 X328.416 Y122.315 Z-61
G01 F300 X330.616 Y122.26 Z-61
G01 F300 X335.532 Y122.04 Z-61
G01 F300 X336.499 Y121.82 Z-61
G01 F300 X336.529 Y121.82 Z-61
G01 F300 X336.526 Y121.82 Z-61
G01 F300 X339.966 Y121.61 Z-61
G01 F300 X343.57 Y120.69 Z-61
G01 F300 X344.584 Y119.925 Z-61
G01 F300 X344.596 Y119.825 Z-61
G01 F300 X344.594 Y119.825 Z-61
G01 F300 X347.825 Y119.025 Z-61
G01 F300 X351.543 Y117.625 Z-61
G01 F300 X352.69 Y117.23 Z-61
G01 F300 X352.67 Y117.03 Z-61
G01 F300 X352.678 Y117.03 Z-61
G01 F300 X355.823 Y115.945 Z-61
G01 F300 X359.263 Y113.96 Z-61
G01 F300 X360.976 Y112.535 Z-61
G01 F300 X360.924 Y112.035 Z-61
G01 F300 X360.922 Y112.135 Z-61
G01 F300 X363.68 Y110.5 Z-61
G01 F300 X366.704 Y108.75 Z-61
G01 F300 X369.313 Y107.04 Z-61
G01 F300 X369.238 Y106.44 Z-61
G01 F300 X369.234 Y106.44 Z-61
G01 F300 X370.849 Y105.335 Z-61
G01 F300 X373.888 Y101.985 Z-61
G01 F300 X377.637 Y99.045 Z-61
G01 F300 X377.663 Y97.945 Z-61
G01 F300 X377.664 Y97.945 Z-61
G01 F300 X379.836 Y95.76 Z-61
G01 F300 X382.459 Y91.985 Z-61
G01 F300 X385.11 Y88.41 Z-61
G01 F300 X386.207 Y86.05 Z-61
G01 F300 X386.236 Y85.75 Z-61
G01 F300 X386.239 Y85.65 Z-61
G01 F300 X387.139 Y84.355 Z-61
G01 F300 X390.685 Y78.93 Z-61
G01 F300 X391.321 Y78.705 Z-61
G01 F300 X394.843 Y73.38 Z-61
G01 F300 X394.992 Y72.455 Z-61
G01 F300 X395.007 Y72.455 Z-61
G01 F300 X395.679 Y71.455 Z-61
G01 F300 X398.452 Y67.69 Z-61
M5 (Switch off the torch)
G0 Z0
G0 X0 Y0 Z0
