(G-Code file generated by CNCWeld)
$H(Home before doing anything)
G0(quickly) X1.77079 Y109.81 Z-43
M3 (Switch on the torch)
G01 F300 X4.41772 Y109.71 Z-43
G01 F300 X6.99279 Y109.615 Z-43
G01 F300 X7.0014 Y109.615 Z-43
G01 F300 X7.01094 Y109.615 Z-43
G01 F300 X9.91184 Y109.535 Z-43
G01 F300 X13.3182 Y109.44 Z-43
G01 F300 X14.0434 Y109.32 Z-43
G01 F300 X14.0232 Y109.32 Z-43
G01 F300 X17.2243 Y109.185 Z-43
G01 F300 X21.0228 Y109.025 Z-43
G01 F300 X21.065 Y109.025 Z-43
G01 F300 X21.0489 Y109.025 Z-43
G01 F300 X23.9498 Y108.905 Z-43
G01 F300 X27.2899 Y108.56 Z-43
G01 F300 X28.0244 Y108.63 Z-43
G01 F300 X28.0174 Y108.63 Z-43
G01 F300 X31.0399 Y108.46 Z-43
G01 F300 X34.9862 Y108.235 Z-43
G01 F300 X34.9925 Y108.235 Z-43
G01 F300 X34.983 Y108.235 Z-43
G01 F300 X38.4589 Y108.04 Z-43
G01 F300 X41.9173 Y107.845 Z-43
G01 F300 X42.0139 Y107.84 Z-43
G01 F300 X42.0164 Y107.84 Z-43
G01 F300 X44.0543 Y107.725 Z-43
G01 F300 X48.6539 Y107.565 Z-43
G01 F300 X48.968 Y107.645 Z-43
G01 F300 X48.9676 Y107.645 Z-43
G01 F300 X52.1133 Y107.555 Z-43
G01 F300 X55.8468 Y107.35 Z-43
G01 F300 X55.8747 Y107.15 Z-43
G01 F300 X55.8708 Y107.15 Z-43
G01 F300 X58.6627 Y106.95 Z-43
G01 F300 X62.343 Y106.78 Z-43
G01 F300 X62.8026 Y106.855 Z-43
G01 F300 X62.7847 Y106.855 Z-43
G01 F300 X66.134 Y106.71 Z-43
G01 F300 X69.6636 Y106.56 Z-43
G01 F300 X69.7015 Y106.56 Z-43
G01 F300 X69.6831 Y106.56 Z-43
G01 F300 X72.7741 Y106.425 Z-43
G01 F300 X76.2656 Y106.28 Z-43
G01 F300 X76.5784 Y106.265 Z-43
G01 F300 X76.555 Y106.265 Z-43
G01 F300 X79.8609 Y106.125 Z-43
G01 F300 X83.2661 Y105.875 Z-43
G01 F300 X83.4225 Y105.97 Z-43
G01 F300 X83.4148 Y105.97 Z-43
G01 F300 X86.5091 Y105.835 Z-43
G01 F300 X90.3156 Y105.575 Z-43
G01 F300 X90.3074 Y105.475 Z-43
G01 F300 X90.3374 Y105.575 Z-43
G01 F300 X93.5876 Y105.39 Z-43
G01 F300 X96.977 Y105.295 Z-43
G01 F300 X97.2129 Y105.28 Z-43
G01 F300 X97.2025 Y105.18 Z-43
G01 F300 X100.628 Y104.985 Z-43
G01 F300 X104.134 Y104.885 Z-43
G01 F300 X104.132 Y104.885 Z-43
G01 F300 X104.119 Y104.885 Z-43
G01 F300 X107.365 Y104.745 Z-43
G01 F300 X110.755 Y104.6 Z-43
G01 F300 X111.016 Y104.49 Z-43
G01 F300 X111.011 Y104.49 Z-43
G01 F300 X114.547 Y104.285 Z-43
G01 F300 X117.873 Y104.095 Z-43
G01 F300 X117.908 Y104.195 Z-43
G01 F300 X117.889 Y104.195 Z-43
G01 F300 X121.133 Y104.055 Z-43
G01 F300 X124.771 Y103.9 Z-43
G01 F300 X124.749 Y103.9 Z-43
G01 F300 X124.75 Y103.9 Z-43
G01 F300 X127.697 Y103.775 Z-43
G01 F300 X131.602 Y103.505 Z-43
G01 F300 X131.605 Y103.505 Z-43
G01 F300 X134.453 Y103.34 Z-43
G01 F300 X138.133 Y103.225 Z-43
G01 F300 X138.451 Y103.21 Z-43
G01 F300 X138.466 Y103.21 Z-43
G01 F300 X141.06 Y103.1 Z-43
G01 F300 X145.297 Y102.915 Z-43
G01 F300 X145.311 Y102.915 Z-43
G01 F300 X145.297 Y102.915 Z-43
G01 F300 X148.893 Y102.76 Z-43
G01 F300 X151.786 Y102.53 Z-43
G01 F300 X152.104 Y102.62 Z-43
G01 F300 X152.098 Y102.62 Z-43
G01 F300 X155.382 Y102.48 Z-43
G01 F300 X158.945 Y102.225 Z-43
G01 F300 X158.909 Y102.225 Z-43
G01 F300 X158.902 Y102.225 Z-43
G01 F300 X161.901 Y102.05 Z-43
G01 F300 X165.693 Y101.83 Z-43
G01 F300 X165.715 Y101.93 Z-43
G01 F300 X165.708 Y101.93 Z-43
G01 F300 X168.856 Y101.795 Z-43
G01 F300 X172.277 Y101.645 Z-43
G01 F300 X172.509 Y101.635 Z-43
G01 F300 X172.507 Y101.635 Z-43
G01 F300 X175.854 Y101.49 Z-43
G01 F300 X179.213 Y101.34 Z-43
G01 F300 X179.272 Y101.24 Z-43
G01 F300 X179.267 Y101.24 Z-43
G01 F300 X182.311 Y101.06 Z-43
G01 F300 X184.837 Y100.81 Z-43
G01 F300 X186.003 Y100.945 Z-43
G01 F300 X186.011 Y100.945 Z-43
G01 F300 X189.705 Y100.785 Z-43
G01 F300 X192.726 Y100.655 Z-43
G01 F300 X192.764 Y100.55 Z-43
G01 F300 X192.763 Y100.55 Z-43
G01 F300 X196.159 Y100.35 Z-43
G01 F300 X199.506 Y100.255 Z-43
G01 F300 X199.528 Y100.255 Z-43
G01 F300 X199.529 Y100.255 Z-43
G01 F300 X202.18 Y100.14 Z-43
G01 F300 X206.215 Y99.96 Z-43
G01 F300 X206.274 Y99.96 Z-43
G01 F300 X206.272 Y99.96 Z-43
G01 F300 X209.518 Y99.82 Z-43
G01 F300 X213.049 Y99.565 Z-43
G01 F300 X212.942 Y99.565 Z-43
G01 F300 X212.955 Y99.565 Z-43
G01 F300 X215.475 Y99.415 Z-43
G01 F300 X219.648 Y99.27 Z-43
G01 F300 X219.657 Y99.27 Z-43
G01 F300 X219.673 Y99.27 Z-43
G01 F300 X222.418 Y99.15 Z-43
G01 F300 X226.348 Y98.975 Z-43
G01 F300 X226.381 Y98.975 Z-43
G01 F300 X226.39 Y98.875 Z-43
G01 F300 X229.185 Y98.81 Z-43
G01 F300 X233.078 Y98.58 Z-43
G01 F300 X233.038 Y98.58 Z-43
G01 F300 X233.044 Y98.58 Z-43
G01 F300 X236.344 Y98.435 Z-43
G01 F300 X239.7 Y98.285 Z-43
G01 F300 X239.706 Y98.285 Z-43
G01 F300 X239.729 Y98.285 Z-43
G01 F300 X243.204 Y98.13 Z-43
G01 F300 X246.382 Y97.99 Z-43
G01 F300 X246.371 Y97.99 Z-43
G01 F300 X246.378 Y97.99 Z-43
G01 F300 X249.578 Y97.85 Z-43
G01 F300 X253.047 Y97.695 Z-43
G01 F300 X253.01 Y97.595 Z-43
G01 F300 X253.014 Y97.595 Z-43
G01 F300 X256.059 Y97.415 Z-43
G01 F300 X259.337 Y97.32 Z-43
G01 F300 X259.626 Y97.3 Z-43
G01 F300 X259.636 Y97.3 Z-43
G01 F300 X262.02 Y97.195 Z-43
G01 F300 X266.269 Y97.005 Z-43
G01 F300 X266.216 Y97.005 Z-43
G01 F300 X266.229 Y97.005 Z-43
G01 F300 X269.13 Y96.875 Z-43
G01 F300 X272.506 Y96.725 Z-43
G01 F300 X272.806 Y96.71 Z-43
G01 F300 X272.807 Y96.71 Z-43
G01 F300 X276.337 Y96.55 Z-43
G01 F300 X279.39 Y96.415 Z-43
G01 F300 X279.492 Y96.315 Z-43
G01 F300 X279.521 Y96.315 Z-43
G01 F300 X282.776 Y96.125 Z-43
G01 F300 X286.071 Y96.02 Z-43
G01 F300 X286.057 Y96.02 Z-43
G01 F300 X286.052 Y96.02 Z-43
G01 F300 X289.456 Y95.865 Z-43
G01 F300 X292.361 Y95.635 Z-43
G01 F300 X292.601 Y95.725 Z-43
G01 F300 X292.608 Y95.725 Z-43
G01 F300 X295.237 Y95.605 Z-43
G01 F300 X299.193 Y95.43 Z-43
G01 F300 X299.155 Y95.53 Z-43
G01 F300 X299.159 Y95.53 Z-43
G01 F300 X302.463 Y95.43 Z-43
G01 F300 X305.642 Y95.035 Z-43
G01 F300 X305.7 Y95.135 Z-43
G01 F300 X305.71 Y95.135 Z-43
G01 F300 X308.7 Y94.955 Z-43
G01 F300 X312.201 Y94.74 Z-43
G01 F300 X312.217 Y94.84 Z-43
G01 F300 X315.424 Y94.695 Z-43
G01 F300 X318.751 Y94.545 Z-43
G01 F300 X318.75 Y94.345 Z-43
G01 F300 X318.745 Y94.445 Z-43
G01 F300 X321.638 Y94.17 Z-43
G01 F300 X325.228 Y94.15 Z-43
G01 F300 X325.197 Y94.15 Z-43
G01 F300 X325.206 Y94.15 Z-43
G01 F300 X328.291 Y94.01 Z-43
G01 F300 X331.673 Y93.855 Z-43
G01 F300 X331.692 Y93.855 Z-43
G01 F300 X331.687 Y93.855 Z-43
G01 F300 X334.934 Y93.705 Z-43
G01 F300 X338.164 Y93.56 Z-43
G01 F300 X338.142 Y93.56 Z-43
G01 F300 X338.145 Y93.56 Z-43
G01 F300 X341.074 Y93.425 Z-43
G01 F300 X344.614 Y93.165 Z-43
G01 F300 X344.589 Y93.265 Z-43
G01 F300 X347.742 Y93.12 Z-43
G01 F300 X350.661 Y92.885 Z-43
G01 F300 X351.032 Y92.87 Z-43
G01 F300 X351.028 Y92.87 Z-43
G01 F300 X354.325 Y92.67 Z-43
G01 F300 X356.449 Y92.635 Z-43
G01 F300 X357.465 Y92.675 Z-43
G01 F300 X357.461 Y92.675 Z-43
G01 F300 X360.509 Y92.585 Z-43
G01 F300 X363.861 Y92.38 Z-43
G01 F300 X363.883 Y92.28 Z-43
G01 F300 X363.886 Y92.28 Z-43
G01 F300 X367.029 Y92.085 Z-43
G01 F300 X370.314 Y91.885 Z-43
G01 F300 X370.315 Y91.985 Z-43
G01 F300 X370.314 Y91.985 Z-43
G01 F300 X373.761 Y91.825 Z-43
G01 F300 X376.765 Y91.59 Z-43
G01 F300 X376.706 Y91.59 Z-43
G01 F300 X376.705 Y91.59 Z-43
G01 F300 X379.73 Y91.405 Z-43
G01 F300 X383.057 Y91.295 Z-43
G01 F300 X383.087 Y91.295 Z-43
G01 F300 X383.087 Y91.295 Z-43
G01 F300 X385.836 Y91.17 Z-43
G01 F300 X389.429 Y91 Z-43
G01 F300 X389.497 Y91 Z-43
G01 F300 X389.496 Y91 Z-43
G01 F300 X392.443 Y90.865 Z-43
G01 F300 X395.852 Y90.705 Z-43
G01 F300 X395.776 Y90.905 Z-43
G01 F300 X395.782 Y90.805 Z-43
G01 F300 X398.68 Y90.715 Z-43
G01 F300 X402.135 Y90.41 Z-43
G01 F300 X402.187 Y90.31 Z-43
G01 F300 X402.18 Y90.41 Z-43
G01 F300 X404.902 Y90.14 Z-43
G01 F300 X408.443 Y90.215 Z-43
G01 F300 X408.456 Y90.115 Z-43
G01 F300 X408.468 Y90.015 Z-43
G01 F300 X411.663 Y89.815 Z-43
G01 F300 X414.732 Y89.72 Z-43
G01 F300 X414.774 Y89.62 Z-43
G01 F300 X414.781 Y89.62 Z-43
G01 F300 X418.176 Y89.41 Z-43
G01 F300 X421.14 Y89.425 Z-43
G01 F300 X421.061 Y89.425 Z-43
G01 F300 X421.061 Y89.425 Z-43
G01 F300 X424.563 Y89.315 Z-43
G01 F300 X427.35 Y89.23 Z-43
G01 F300 X427.339 Y89.23 Z-43
G01 F300 X427.348 Y89.23 Z-43
G01 F300 X430.992 Y89.115 Z-43
G01 F300 X433.629 Y88.835 Z-43
G01 F300 X433.632 Y88.835 Z-43
G01 F300 X433.63 Y88.835 Z-43
G01 F300 X436.852 Y88.63 Z-43
G01 F300 X439.477 Y88.54 Z-43
G01 F300 X439.444 Y88.54 Z-43
G01 F300 X439.449 Y88.54 Z-43
G01 F300 X442.381 Y88.39 Z-43
G01 F300 X445.734 Y88.345 Z-43
G01 F300 X445.721 Y88.345 Z-43
G01 F300 X449.271 Y88.235 Z-43
G01 F300 X451.522 Y88.15 Z-43
G01 F300 X451.552 Y88.05 Z-43
G01 F300 X451.547 Y88.05 Z-43
G01 F300 X454.844 Y87.885 Z-43
G01 F300 X457.402 Y87.755 Z-43
G01 F300 X457.794 Y87.755 Z-43
G01 F300 X461.223 Y87.595 Z-43
G01 F300 X464.008 Y87.46 Z-43
G01 F300 X464.034 Y87.46 Z-43
G01 F300 X463.666 Y87.46 Z-43
G01 F300 X467.26 Y87.28 Z-43
G01 F300 X469.484 Y87.165 Z-43
G01 F300 X469.463 Y87.165 Z-43
G01 F300 X472.806 Y86.995 Z-43
G01 F300 X475.257 Y86.87 Z-43
G01 F300 X475.255 Y86.87 Z-43
G01 F300 X475.254 Y86.97 Z-43
G01 F300 X478.404 Y86.865 Z-43
G01 F300 X480.783 Y86.675 Z-43
G01 F300 X480.699 Y86.575 Z-43
G01 F300 X484.363 Y86.31 Z-43
M5 (Switch off the torch)
G0 Z0
G0 X0 Y0 Z0
