(G-Code file generated by CNCWeld)
$H(Home before doing anything)
G17G21G90G94G54
G0X0Y0F300
G0Z0
G0Z0 
G0 X0.00 Y50.00 
G0Z-92.00
M3 (Switch on the torch)
G04 P1 (Wait 1 second for Arc to start)
G1 F300 X0.00 Y110.40
G1 F300 X0.00 Y110.40
G1 F300 X21.90 Y110.40
G1 F300 X28.80 Y108.60
G1 F300 X34.30 Y105.10
G1 F300 X36.10 Y102.80
G1 F300 X38.40 Y95.50
G1 F300 X37.50 Y91.20
G1 F300 X35.60 Y86.90
G1 F300 X31.60 Y83.30
G1 F300 X18.00 Y80.20
M5 (Switch off the torch)
G0Z-63.00 
G0 X0.00 Y80.20 
G0Z-92.00
M3 (Switch on the torch)
G1 F300 X18.00 Y80.20
G1 F300 X27.00 Y77.00
G1 F300 X34.00 Y66.00
G1 F300 X38.40 Y50.00
M5 (Switch off the torch)
G0Z-63.00 
G0 X87.40 Y93.80 
G0Z-92.00
M3 (Switch on the torch)
G1 F300 X95.30 Y92.30
G1 F300 X101.30 Y87.90
G1 F300 X105.10 Y80.80
G1 F300 X106.40 Y71.40
G1 F300 X105.00 Y61.90
G1 F300 X101.20 Y54.80
G1 F300 X95.20 Y50.40
G1 F300 X87.40 Y48.90
G1 F300 X79.60 Y50.40
G1 F300 X73.60 Y54.80
G1 F300 X69.70 Y61.80
G1 F300 X68.40 Y71.40
G1 F300 X69.70 Y80.90
G1 F300 X73.50 Y87.90
G1 F300 X79.60 Y92.30
G1 F300 X87.40 Y93.80
M5 (Switch off the torch)
G0Z-63.00 
G0 X136.40 Y110.30 
G0Z-92.00
M3 (Switch on the torch)
G1 F300 X136.40 Y50.00
M5 (Switch off the torch)
G0Z-63.00 
G0 X136.40 Y58.90 
G0Z-92.00
M3 (Switch on the torch)
G1 F300 X140.80 Y54.50
G1 F300 X147.80 Y50.10
G1 F300 X154.60 Y48.90
G1 F300 X161.30 Y50.50
G1 F300 X166.70 Y55.10
G1 F300 X170.30 Y62.30
G1 F300 X171.60 Y71.80
G1 F300 X170.50 Y80.80
G1 F300 X167.30 Y87.80
G1 F300 X162.20 Y92.20
G1 F300 X155.10 Y93.80
G1 F300 X151.70 Y93.40
G1 F300 X148.10 Y92.10
G1 F300 X144.40 Y89.70
G1 F300 X140.80 Y85.90
G1 F300 X136.40 Y77.40
M5 (Switch off the torch)
G0Z-63.00 
G0 X220.60 Y93.80 
G0Z-92.00
M3 (Switch on the torch)
G1 F300 X228.50 Y92.30
G1 F300 X234.50 Y87.90
G1 F300 X238.30 Y80.80
G1 F300 X239.60 Y71.40
G1 F300 X238.20 Y61.90
G1 F300 X234.40 Y54.80
G1 F300 X228.40 Y50.40
G1 F300 X220.60 Y48.90
G1 F300 X212.80 Y50.40
G1 F300 X206.80 Y54.80
G1 F300 X202.90 Y61.80
G1 F300 X201.60 Y71.40
G1 F300 X202.90 Y80.90
G1 F300 X206.70 Y87.90
G1 F300 X212.80 Y92.30
G1 F300 X220.60 Y93.80
M5 (Switch off the torch)
G0Z-63.00 
G0 X290.80 Y49.50 
G0Z-92.00
M3 (Switch on the torch)
G1 F300 X288.10 Y49.40
G1 F300 X284.90 Y50.20
G1 F300 X282.10 Y52.50
G1 F300 X279.90 Y55.80
G1 F300 X278.50 Y62.50
G1 F300 X278.50 Y103.90
G0Z-63.00 
G0 X269.60 Y90.50 
G0Z-92.00
M3 (Switch on the torch)
G1 F300 X288.80 Y90.50
M5 (Switch off the torch)
G0Z-63.00 
G0 X320.80 Y110.30 
G0Z-92.00
M3 (Switch on the torch)
G04 P1 (Wait 1 second for Arc to start)
G1 F300 X320.80 Y110.30
M5 (Switch off the torch)
G04 P1 (Wait 1 second for Arc to start)
G0Z-63.00 
G0 X320.80 Y92.70 
G0Z-92.00
M3 (Switch on the torch)
G1 F300 X320.80 Y50.00
M5 (Switch off the torch)
G0Z-63.00 
G0 X383.80 Y86.60 
G0Z-92.00
M3 (Switch on the torch)
G1 F300 X380.30 Y90.60
G1 F300 X375.60 Y93.00
G1 F300 X369.80 Y93.80
G1 F300 X362.00 Y92.30
G1 F300 X356.00 Y87.90
G1 F300 X352.20 Y80.90
G1 F300 X350.80 Y71.40
G1 F300 X352.20 Y61.80
G1 F300 X356.10 Y54.70
G1 F300 X362.10 Y50.40
G1 F300 X369.80 Y48.90
G1 F300 X375.50 Y49.70
G1 F300 X380.30 Y52.10
G1 F300 X383.80 Y56.00
G1 F300 X385.80 Y61.50
M5 (Switch off the torch)
G0Z0
G0X0Y0