(G-Code file generated by CNCWeld)
$H(Home before doing anything)
G17G21G90G94G54
G0X0Y0F3000
G0Z0
G0Z0 
G0 X0.00 Y67.30 
G0Z-93
M3 (Switch on the torch)
G04 P1 (Wait 1 second for Arc to start)
G1 F300 X1.90 Y59.70
G1 F300 X6.70 Y53.90
G1 F300 X14.40 Y50.20
G1 F300 X25.10 Y48.90
G1 F300 X33.80 Y50.20
G1 F300 X40.70 Y53.80
G1 F300 X45.20 Y59.40
G1 F300 X46.80 Y66.50
G1 F300 X44.90 Y72.30
G1 F300 X39.50 Y77.50
G1 F300 X10.00 Y84.50
G1 F300 X4.00 Y89.90
G1 F300 X2.10 Y95.60
G1 F300 X3.60 Y102.00
G1 F300 X7.80 Y107.10
G1 F300 X14.40 Y110.30
G1 F300 X22.80 Y111.50
G1 F300 X31.30 Y110.40
G1 F300 X38.10 Y107.30
G1 F300 X42.80 Y102.30
G1 F300 X45.00 Y95.70
M5 (Switch off the torch)
G0Z-63.00 
G0 X76.80 Y110.40 
G0Z-93
M3 (Switch on the torch)
G1 F300 X123.20 Y110.40
M5 (Switch off the torch)
G0Z-63.00 
G0 X100.00 Y110.40 
G0Z-93
M3 (Switch on the torch)
G1 F300 X100.00 Y50.00
M5 (Switch off the torch)
G0Z-63.00 
G0 X195.30 Y110.40 
G0Z-93
M3 (Switch on the torch)
G1 F300 X153.20 Y110.40
G1 F300 X153.20 Y50.00
G1 F300 X195.30 Y50.00
M5 (Switch off the torch)
G0Z-63.00 
G0 X153.20 Y80.20 
G0Z-93
M3 (Switch on the torch)
G1 F300 X190.70 Y80.20
M5 (Switch off the torch)
G0Z-63.00 
G0 X267.40 Y110.40 
G0Z-93
M3 (Switch on the torch)
G1 F300 X225.30 Y110.40
G1 F300 X225.30 Y50.00
G1 F300 X267.40 Y50.00
M5 (Switch off the torch)
G0Z-63.00 
G0 X225.30 Y80.20 
G0Z-93
M3 (Switch on the torch)
G1 F300 X262.80 Y80.20
M5 (Switch off the torch)
G0Z-63.00 
G0 X297.40 Y110.40 
G0Z-93
M3 (Switch on the torch)
G1 F300 X297.40 Y50.00
G1 F300 X333.00 Y50.00
M5 (Switch off the torch)
G0Z0
G0X0Y0