(G-Code file generated by CNCWeld)
$H(Home before doing anything)
G17G21G90G94G54
G0X0Y0F3000
G0Z0
G0Z0 
G0 X0.00 Y110.40 
G0Z-92.00
M3 (Switch on the torch)
G04 P1 (Wait 1 second for Arc to start)
G1 F300 X18.90 Y50.00 (w)
G1 F300 X38.50 Y110.40
G1 F300 X58.20 Y50.00
G1 F300 X77.10 Y110.40
M5 (Switch off the torch)
G0Z-62.00 
G0 X107.10 Y71.40 
G0Z-92.00
M3 (Switch on the torch)
G1 F300 X145.10 Y71.40 (e)
G1 F300 X143.80 Y80.80
G1 F300 X140.00 Y87.80
G1 F300 X134.00 Y92.30
G1 F300 X126.10 Y93.80
G1 F300 X118.40 Y92.30
G1 F300 X112.40 Y87.80
G1 F300 X108.50 Y80.80
G1 F300 X107.10 Y71.40
G1 F300 X108.50 Y61.90
G1 F300 X112.60 Y54.80
G1 F300 X118.80 Y50.40
G1 F300 X127.00 Y48.90
G1 F300 X133.10 Y49.70
G1 F300 X138.20 Y52.20
G1 F300 X142.00 Y56.10
G1 F300 X144.10 Y61.50
M5 (Switch off the torch)
G0Z-62.00 
G0 X175.10 Y110.30 
G0Z-92.00
M3 (Switch on the torch)
G1 F300 X175.10 Y50.00 (l)
M5 (Switch off the torch)
G0Z-62.00 
G0 X240.30 Y110.30 
G0Z-92.00
M3 (Switch on the torch)
G1 F300 X240.30 Y50.00 (d)
M5 (Switch off the torch)
G0Z-62.00 
G0 X240.30 Y58.90 
G0Z-92.00
M3 (Switch on the torch)
G1 F300 X235.90 Y54.50
G1 F300 X228.90 Y50.10
G1 F300 X222.10 Y48.90
G1 F300 X215.40 Y50.50
G1 F300 X210.00 Y55.10
G1 F300 X206.40 Y62.30
G1 F300 X205.10 Y71.80
G1 F300 X206.20 Y80.80
G1 F300 X209.40 Y87.80
G1 F300 X214.50 Y92.20
G1 F300 X221.60 Y93.80
G1 F300 X225.00 Y93.40
G1 F300 X228.60 Y92.10
G1 F300 X232.30 Y89.70
G1 F300 X235.90 Y85.90
G1 F300 X240.30 Y77.40
M5 (Switch off the torch)
G0Z-62.00 
G0 X270.30 Y110.30 
G0Z-92.00
M3 (Switch on the torch)
G04 P1 (Wait 1 second for Arc to start)
G1 F300 X270.30 Y110.30 (i)
M5 (Switch off the torch)
G0Z-62.00 
G0 X270.30 Y92.70 
G0Z-92.00
M3 (Switch on the torch)
G1 F300 X270.30 Y50.00
M5 (Switch off the torch)
G0Z-62.00 
G0 X300.30 Y90.40 
G0Z-92.00
M3 (Switch on the torch)
G1 F300 X300.30 Y50.00 (n)
M5 (Switch off the torch)
G0Z-62.00 
G0 X300.30 Y75.00 
G0Z-92.00
M3 (Switch on the torch)
G1 F300 X304.50 Y83.00
G1 F300 X308.00 Y88.80
G1 F300 X311.80 Y92.20
G1 F300 X315.60 Y93.50
G1 F300 X319.40 Y93.80
G1 F300 X325.20 Y92.50
G1 F300 X328.30 Y89.90
G1 F300 X330.20 Y84.00
G1 F300 X331.20 Y78.30
G1 F300 X331.20 Y50.00
M5 (Switch off the torch)
G0Z-62.00 
G0 X396.40 Y84.30 
G0Z-92.00
M3 (Switch on the torch)
G1 F300 X392.00 Y88.70 (g)
G1 F300 X388.30 Y91.20
G1 F300 X384.80 Y92.80
G1 F300 X381.30 Y93.60
G1 F300 X378.10 Y93.80
G1 F300 X371.40 Y92.20
G1 F300 X366.00 Y87.70
G1 F300 X362.50 Y80.60
G1 F300 X361.20 Y71.00
G1 F300 X362.20 Y62.00
G1 F300 X365.40 Y55.00
G1 F300 X370.60 Y50.50
G1 F300 X377.70 Y48.90
G1 F300 X380.90 Y49.10
G1 F300 X384.30 Y50.00
G1 F300 X387.90 Y52.20
G1 F300 X392.00 Y56.20
G1 F300 X396.40 Y62.00
M5 (Switch off the torch)
G0Z-62.00 
G0 X362.70 Y45.40 
G0Z-92.00
M3 (Switch on the torch)
G1 F300 X364.00 Y40.30
G1 F300 X367.30 Y36.70
G1 F300 X372.30 Y34.40
G1 F300 X378.90 Y33.60
G1 F300 X386.50 Y34.60
G1 F300 X392.00 Y37.90
G1 F300 X395.30 Y43.80
G1 F300 X396.40 Y52.50
G1 F300 X396.40 Y92.70
M5 (Switch off the torch)
G0Z0
G0X0Y0